; generated by Slic3r 1.1.7 on 2015-10-03 at 05:03:31

; perimeters extrusion width = 0.40mm
; infill extrusion width = 0.42mm
; solid infill extrusion width = 0.42mm
; top infill extrusion width = 0.42mm

G21 ; set units to millimeters
M107
M190 S65 ; wait for bed temperature to be reached
M104 S215 ; set temperature
G28
G29
M109 S215 ; wait for temperature to be reached
G90 ; use absolute coordinates
G92 E0
M82 ; use absolute distances for extrusion
G1 F720.000 E-0.75000
G92 E0
G1 Z0.350 F7800.000
G1 X65.331 Y130.331 F7800.000
G1 E0.75000 F720.000
G1 X67.500 Y129.433 E0.83185 F720.000
G1 X69.260 Y130.162 E0.89830
G1 X69.669 Y130.331 E0.91371 F720.000
G1 X70.567 Y132.500 E0.99556
G1 X69.669 Y134.669 E1.07742
G1 X67.500 Y135.567 E1.15927
G1 X65.331 Y134.669 E1.24113
G1 X64.433 Y132.500 E1.32298
G1 X65.309 Y130.387 E1.40274
G1 X65.818 Y130.818 F7800.000
G1 X67.335 Y130.189 E1.46001 F504.000
G1 X67.500 Y130.121 E1.46624 F504.000
G1 X69.182 Y130.818 E1.52973
G1 X69.879 Y132.500 E1.59322
G1 X69.182 Y134.182 E1.65671
G1 X67.500 Y134.879 E1.72020
G1 X65.818 Y134.182 E1.78369
G1 X65.121 Y132.500 E1.84719
G1 X65.795 Y130.873 E1.90859
G1 X67.334 Y130.011 F7800.000
G1 X67.500 Y105.567 F7800.000
G1 X65.331 Y104.669 E1.99044 F720.000
G1 X64.433 Y102.500 E2.07230
G1 X65.331 Y100.331 E2.15415
G1 X67.500 Y99.433 E2.23600
G1 X69.260 Y100.162 E2.30245
G1 X69.669 Y100.331 E2.31786 F720.000
G1 X70.567 Y102.500 E2.39971
G1 X69.669 Y104.669 E2.48157
G1 X67.555 Y105.544 E2.56133
G1 X67.500 Y104.879 F7800.000
G1 X65.818 Y104.182 E2.62482 F504.000
G1 X65.121 Y102.500 E2.68831
G1 X65.818 Y100.818 E2.75181
G1 X67.335 Y100.189 E2.80907
G1 X67.500 Y100.121 E2.81530 F504.000
G1 X69.182 Y100.818 E2.87879
G1 X69.879 Y102.500 E2.94228
G1 X69.182 Y104.182 E3.00577
G1 X67.555 Y104.856 E3.06717
G1 F720.000 E2.31717
G92 E0
G1 X67.265 Y100.026 F7800.000
G1 X94.433 Y102.500 F7800.000
G1 E0.75000 F720.000
G1 X95.331 Y100.331 E0.83185 F720.000
G1 X97.500 Y99.433 E0.91371
G1 X99.260 Y100.162 E0.98016
G1 X99.669 Y100.331 E0.99556 F720.000
G1 X100.567 Y102.500 E1.07742
G1 X99.669 Y104.669 E1.15927
G1 X97.500 Y105.567 E1.24113
G1 X95.331 Y104.669 E1.32298
G1 X94.456 Y102.555 E1.40274
G1 X95.121 Y102.500 F7800.000
G1 X95.818 Y100.818 E1.46624 F504.000
G1 X97.335 Y100.189 E1.52350
G1 X97.500 Y100.121 E1.52973 F504.000
G1 X99.182 Y100.818 E1.59322
G1 X99.879 Y102.500 E1.65671
G1 X99.182 Y104.182 E1.72020
G1 X97.500 Y104.879 E1.78369
G1 X95.818 Y104.182 E1.84719
G1 X95.144 Y102.555 E1.90859
G1 F720.000 E1.15859
G92 E0
G1 X97.310 Y100.013 F7800.000
G1 X89.947 Y109.229 F7800.000
G1 E0.75000 F720.000
G1 X91.505 Y110.958 E0.83115 F720.000
G1 X92.668 Y112.973 E0.91229
G1 X93.387 Y115.186 E0.99343
G1 X93.630 Y117.500 E1.07458
G1 X93.387 Y119.814 E1.15572
G1 X92.668 Y122.027 E1.23686
G1 X91.505 Y124.042 E1.31801
G1 X89.947 Y125.771 E1.39915
G1 X88.065 Y127.139 E1.48029
G1 X85.939 Y128.085 E1.56143
G1 X83.663 Y128.569 E1.64258
G1 X81.337 Y128.569 E1.72372
G1 X79.061 Y128.085 E1.80487
G1 X76.935 Y127.139 E1.88601
G1 X75.053 Y125.771 E1.96715
G1 X73.495 Y124.042 E2.04829
G1 X72.332 Y122.027 E2.12944
G1 X71.613 Y119.814 E2.21058
G1 X71.370 Y117.500 E2.29172
G1 X71.613 Y115.186 E2.37287
G1 X72.332 Y112.973 E2.45401
G1 X73.495 Y110.958 E2.53515
G1 X75.053 Y109.229 E2.61630
G1 X76.935 Y107.861 E2.69744
G1 X79.060 Y106.915 E2.77858
G1 X81.337 Y106.431 E2.85973
G1 X83.663 Y106.431 E2.94087
G1 X85.730 Y106.870 E3.01456
G1 X85.939 Y106.915 E3.02201 F720.000
G1 X88.065 Y107.861 E3.10316
G1 X89.899 Y109.193 E3.18220
G1 X89.520 Y109.704 F7800.000
G1 X90.987 Y111.333 E3.25869 F720.000
G1 X92.084 Y113.233 E3.33517
G1 X92.762 Y115.319 E3.41166
G1 X92.991 Y117.500 E3.48814
G1 X92.762 Y119.681 E3.56463
G1 X92.084 Y121.767 E3.64111
G1 X90.987 Y123.667 E3.71759
G1 X89.520 Y125.296 E3.79408
G1 X89.401 Y125.383 E3.79921
G1 X87.746 Y126.585 E3.87056
G1 X85.742 Y127.478 E3.94704
G1 X83.597 Y127.934 E4.02353
G1 X81.403 Y127.934 E4.10001
G1 X79.258 Y127.478 E4.17650
G1 X77.254 Y126.585 E4.25298
G1 X75.480 Y125.296 E4.32946
G1 X74.013 Y123.667 E4.40595
G1 X72.916 Y121.767 E4.48243
G1 X72.238 Y119.681 E4.55891
G1 X72.009 Y117.500 E4.63540
G1 X72.238 Y115.319 E4.71188
G1 X72.916 Y113.233 E4.78836
G1 X74.013 Y111.333 E4.86485
G1 X75.480 Y109.704 E4.94134
G1 X77.254 Y108.415 E5.01782
G1 X79.258 Y107.522 E5.09430
G1 X81.403 Y107.066 E5.17078
G1 X83.597 Y107.066 E5.24727 F720.000
G1 X85.742 Y107.522 E5.32375
G1 X87.746 Y108.415 E5.40024
G1 X89.471 Y109.668 E5.47462
G1 X89.092 Y110.179 F7800.000
G1 X90.470 Y111.709 E5.54645 F504.000
G1 X91.500 Y113.493 E5.61828
G1 X92.137 Y115.452 E5.69010
G1 X92.352 Y117.500 E5.76192
G1 X92.137 Y119.548 E5.83375
G1 X91.500 Y121.507 E5.90557
G1 X90.470 Y123.291 E5.97740
G1 X89.092 Y124.821 E6.04922
G1 X87.426 Y126.032 E6.12104
G1 X85.544 Y126.870 E6.19287
G1 X83.530 Y127.298 E6.26469
G1 X81.470 Y127.298 E6.33652
G1 X79.456 Y126.870 E6.40834
G1 X77.574 Y126.032 E6.48017
G1 X75.908 Y124.821 E6.55199
G1 X74.530 Y123.291 E6.62382
G1 X73.500 Y121.507 E6.69564
G1 X72.863 Y119.548 E6.76746
G1 X72.648 Y117.500 E6.83929
G1 X72.863 Y115.452 E6.91111
G1 X73.500 Y113.493 E6.98294
G1 X74.530 Y111.709 E7.05476
G1 X75.908 Y110.179 E7.12659
G1 X77.574 Y108.968 E7.19841
G1 X79.456 Y108.130 E7.27023
G1 X81.470 Y107.702 E7.34206
G1 X83.530 Y107.702 E7.41388
G1 X85.466 Y108.114 E7.48291
G1 X85.544 Y108.130 E7.48571 F504.000
G1 X87.426 Y108.968 E7.55753
G1 X89.044 Y110.143 E7.62726
G1 X85.446 Y108.036 F7800.000
G1 F720.000 E6.87726
G92 E0
G1 X95.331 Y130.331 F7800.000
G1 E0.75000 F720.000
G1 X97.500 Y129.433 E0.83185 F720.000
G1 X99.260 Y130.162 E0.89830
G1 X99.669 Y130.331 E0.91371 F720.000
G1 X100.567 Y132.500 E0.99556
G1 X99.669 Y134.669 E1.07742
G1 X97.500 Y135.567 E1.15927
G1 X95.331 Y134.669 E1.24113
G1 X94.433 Y132.500 E1.32298
G1 X95.308 Y130.387 E1.40274
G1 X95.818 Y130.818 F7800.000
G1 X97.335 Y130.189 E1.46001 F504.000
G1 X97.500 Y130.121 E1.46624 F504.000
G1 X99.182 Y130.818 E1.52973
G1 X99.879 Y132.500 E1.59322
G1 X99.182 Y134.182 E1.65671
G1 X97.500 Y134.879 E1.72020
G1 X95.818 Y134.182 E1.78370
G1 X95.121 Y132.500 E1.84719
G1 X95.795 Y130.873 E1.90859
G1 X97.334 Y130.011 F7800.000
G1 X71.255 Y132.500 F7800.000
G1 X70.155 Y129.845 E2.00880 F720.000
G1 X67.500 Y128.745 E2.10902
G1 X64.845 Y129.845 E2.20924
G1 X64.531 Y130.604 E2.23789
G1 X64.121 Y130.523 E2.25244
G1 X64.121 Y104.477 E3.16071
G1 X64.531 Y104.396 E3.17527
G1 X64.845 Y105.155 E3.20392
G1 X67.500 Y106.255 E3.30414
G1 X70.155 Y105.155 E3.40435
G1 X71.255 Y102.500 E3.50457
G1 X70.155 Y99.845 E3.60479
G1 X69.396 Y99.531 E3.63344
G1 X69.477 Y99.121 E3.64799
G1 X95.523 Y99.121 E4.55626
G1 X95.604 Y99.531 E4.57082
G1 X94.845 Y99.845 E4.59947 F720.000
G1 X93.745 Y102.500 E4.69969
G1 X94.845 Y105.155 E4.79990
G1 X97.500 Y106.255 E4.90012
G1 X100.155 Y105.155 E5.00034
G1 X100.469 Y104.396 E5.02899
G1 X100.879 Y104.477 E5.04354
G1 X100.879 Y130.523 E5.95181
G1 X100.469 Y130.604 E5.96637
G1 X100.155 Y129.845 E5.99502
G1 X97.500 Y128.745 E6.09524
G1 X94.845 Y129.845 E6.19545
G1 X93.745 Y132.500 E6.29567
G1 X94.845 Y135.155 E6.39589
G1 X95.604 Y135.469 E6.42454
G1 X95.523 Y135.879 E6.43909
G1 X69.477 Y135.879 E7.34736
G1 X69.396 Y135.469 E7.36192
G1 X70.155 Y135.155 E7.39057
G1 X71.232 Y132.555 E7.48869
G1 X71.232 Y136.514 F7800.000
G1 X65.196 Y136.514 E7.69918 F720.000
G1 X63.987 Y136.013 E7.74483
G1 X63.486 Y134.804 E7.79048
G1 X63.486 Y100.196 E8.99736
G1 X63.987 Y98.987 E9.04301
G1 X65.196 Y98.486 E9.08866
G1 X99.804 Y98.486 E10.29553 F720.000
G1 X101.013 Y98.987 E10.34118
G1 X101.514 Y100.196 E10.38684
G1 X101.514 Y134.804 E11.59371
G1 X101.013 Y136.013 E11.63936
G1 X99.804 Y136.514 E11.68501
G1 X71.292 Y136.514 E12.67931
G1 X71.292 Y137.150 F7800.000
G1 X65.070 Y137.150 E12.89629 F504.000
G1 X63.500 Y136.500 E12.95554
G1 X62.850 Y134.930 E13.01478
G1 X62.850 Y100.070 E14.23047
G1 X63.500 Y98.500 E14.28971
G1 X65.070 Y97.850 E14.34895
G1 X99.930 Y97.850 E15.56464
G1 X101.500 Y98.500 E15.62389
G1 X102.150 Y100.070 E15.68313 F504.000
G1 X102.150 Y134.930 E16.89882
G1 X101.500 Y136.500 E16.95806
G1 X99.930 Y137.150 E17.01730
G1 X71.352 Y137.150 E18.01391
G1 F720.000 E17.26391
G92 E0
G1 X101.598 Y98.888 F7800.000
G1 X100.438 Y105.565 F7800.000
G1 E0.75000 F720.000
G1 X100.403 Y105.530 E0.75174 F1260.000
G1 X99.763 Y105.795 E0.77590
G1 X100.438 Y106.470 E0.80921
G1 X100.438 Y107.375 E0.84078
G1 X99.122 Y106.060 E0.90566
G1 X98.482 Y106.325 E0.92982
G1 X100.438 Y108.281 E1.02626
G1 X100.438 Y109.186 E1.05783
G1 X97.842 Y106.590 E1.18584
G1 X96.781 Y106.434 E1.22325
G1 X100.438 Y110.091 E1.40361
G1 X100.438 Y110.996 E1.43518
G1 X95.236 Y105.794 E1.69175
G1 X94.206 Y104.764 F7800.000
G1 X89.004 Y99.562 E1.94832 F1260.000
G1 X89.909 Y99.562 E1.97989
G1 X93.566 Y103.219 E2.16024
G1 X93.410 Y102.158 E2.19765
G1 X90.814 Y99.562 E2.32566
G1 X91.719 Y99.562 E2.35723
G1 X93.675 Y101.518 E2.45368
G1 X93.940 Y100.878 E2.47784
G1 X92.625 Y99.562 E2.54271
G1 X93.530 Y99.562 E2.57428
G1 X94.205 Y100.237 E2.60759
G1 X94.470 Y99.597 E2.63175
G1 X94.435 Y99.562 E2.63349
G1 X87.529 Y107.140 F7800.000
G1 X79.951 Y99.562 E3.00721 F1260.000
G1 X80.856 Y99.562 E3.03878
G1 X100.438 Y119.144 E4.00449
G1 X100.438 Y118.238 E4.03606
G1 X81.762 Y99.562 E4.95712
G1 X82.667 Y99.562 E4.98869
G1 X100.438 Y117.333 E5.86511
G1 X100.438 Y116.428 E5.89668
G1 X83.572 Y99.562 E6.72846
G1 X84.477 Y99.562 E6.76003
G1 X100.438 Y115.523 E7.54716
G1 X100.438 Y114.617 E7.57873
G1 X85.383 Y99.562 E8.32122
G1 X86.288 Y99.562 E8.35278
G1 X100.438 Y113.712 E9.05063
G1 X100.438 Y112.807 E9.08220
G1 X87.193 Y99.562 E9.73540
G1 X88.098 Y99.562 E9.76697
G1 X100.438 Y111.902 E10.37552
G1 X93.456 Y113.972 F7800.000
G1 X100.438 Y120.954 E10.71985 F1260.000
G1 X100.438 Y121.859 E10.75142
G1 X93.838 Y115.259 E11.07692
G1 X93.944 Y116.271 E11.11239
G1 X100.438 Y122.765 E11.43264
G1 X100.438 Y123.670 E11.46421
G1 X94.051 Y117.282 E11.77922
G1 X94.006 Y118.143 E11.80927
G1 X100.438 Y124.575 E12.12649
G1 X100.438 Y125.480 E12.15806
G1 X93.920 Y118.962 E12.47952
G1 X93.834 Y119.781 E12.50824
G1 X100.438 Y126.386 E12.83395
G1 X100.438 Y127.291 E12.86552
G1 X93.632 Y120.485 E13.20115
G1 X93.410 Y121.168 E13.22620
G1 X100.438 Y128.196 E13.57279
G1 X100.438 Y129.101 E13.60435
G1 X93.188 Y121.852 E13.96188
G1 X92.914 Y122.483 E13.98587
G1 X99.548 Y129.116 E14.31303
G1 X98.002 Y128.476 F7800.000
G1 X92.583 Y123.056 E14.58032 F1260.000
G1 X92.251 Y123.630 E14.60343
G1 X97.068 Y128.447 E14.84098
G1 X96.428 Y128.712 E14.86514
G1 X91.920 Y124.204 E15.08746
G1 X91.508 Y124.697 E15.10987
G1 X95.788 Y128.977 E15.32095
G1 X95.148 Y129.242 E15.34511
G1 X91.079 Y125.174 E15.54577
G1 X90.650 Y125.650 E15.56812
G1 X94.508 Y129.508 E15.75837
G1 X94.242 Y130.148 E15.78253
G1 X90.216 Y126.121 E15.98111
G1 X89.692 Y126.502 E16.00371
G1 X93.977 Y130.788 E16.21507
G1 X93.712 Y131.428 E16.23923
G1 X89.167 Y126.883 E16.46337
G1 X88.643 Y127.264 E16.48597
G1 X93.447 Y132.068 E16.72289
G1 X93.476 Y133.002 E16.75549
G1 X88.086 Y127.612 E17.02132
G1 X87.460 Y127.891 E17.04523
G1 X94.116 Y134.548 E17.37352
G1 X94.101 Y135.438 E17.40457
G1 X86.833 Y128.170 E17.76301
G1 X86.207 Y128.449 E17.78692
G1 X93.196 Y135.438 E18.13161
G1 X92.291 Y135.438 E18.16318
G1 X85.485 Y128.633 E18.49880
G1 X84.739 Y128.791 E18.52542
G1 X91.386 Y135.438 E18.85321
G1 X90.480 Y135.438 E18.88478
G1 X83.992 Y128.950 E19.20475
G1 X83.147 Y129.010 E19.23430
G1 X89.575 Y135.438 E19.55131
G1 X88.670 Y135.438 E19.58288
G1 X82.242 Y129.010 E19.89989
G1 X81.337 Y129.010 E19.93145
G1 X87.765 Y135.438 E20.24846
G1 X86.859 Y135.438 E20.28003
G1 X80.200 Y128.778 E20.60847
G1 X79.050 Y128.534 E20.64946
G1 X85.954 Y135.438 E20.98996
G1 X85.049 Y135.438 E21.02153
G1 X77.471 Y127.860 E21.39524
G1 X74.940 Y126.235 F7800.000
G1 X84.144 Y135.438 E21.84913 F1260.000
G1 X83.238 Y135.438 E21.88069
G1 X64.562 Y116.762 E22.80176
G1 X64.562 Y115.856 E22.83333
G1 X74.300 Y125.594 E23.31358
G1 X72.076 Y122.465 F7800.000
G1 X64.562 Y114.951 E23.68415 F1260.000
G1 X64.562 Y114.046 E23.71571
G1 X71.544 Y121.028 E24.06004
G1 X71.162 Y119.741 E24.10686
G1 X64.562 Y113.141 E24.43236
G1 X64.562 Y112.235 E24.46392
G1 X71.056 Y118.729 E24.78418
G1 X70.949 Y117.718 E24.81965
G1 X64.562 Y111.330 E25.13466
G1 X64.562 Y110.425 E25.16623
G1 X70.994 Y116.857 E25.48345
G1 X71.080 Y116.038 E25.51217
G1 X64.562 Y109.520 E25.83363
G1 X64.562 Y108.614 E25.86520
G1 X71.166 Y115.219 E26.19091
G1 X71.368 Y114.515 E26.21644
G1 X64.562 Y107.709 E26.55208
G1 X64.562 Y106.804 E26.58364
G1 X71.590 Y113.832 E26.93023
G1 X71.812 Y113.148 E26.95528
G1 X64.562 Y105.899 E27.31281
G1 X65.452 Y105.884 E27.34386
G1 X72.086 Y112.517 E27.67102
G1 X72.417 Y111.944 E27.69413
G1 X66.998 Y106.524 E27.96142
G1 X67.932 Y106.553 E27.99402
G1 X72.749 Y111.370 E28.23156
G1 X73.080 Y110.796 E28.25467
G1 X68.572 Y106.288 E28.47699
G1 X69.212 Y106.023 E28.50115
G1 X73.492 Y110.303 E28.71223
G1 X73.921 Y109.826 E28.73458
G1 X69.852 Y105.758 E28.93525
G1 X70.492 Y105.492 E28.95941
G1 X74.350 Y109.350 E29.14965
G1 X74.784 Y108.879 E29.17200
G1 X70.758 Y104.852 E29.37057
G1 X71.023 Y104.212 E29.39473
G1 X75.308 Y108.498 E29.60609
G1 X75.833 Y108.117 E29.62869
G1 X71.288 Y103.572 E29.85283
G1 X71.553 Y102.932 E29.87699
G1 X76.357 Y107.736 E30.11392
G1 X76.914 Y107.388 E30.13682
G1 X71.524 Y101.998 E30.40265
G1 X70.884 Y100.452 F7800.000
G1 X77.540 Y107.109 E30.73094 F1260.000
G1 X78.167 Y106.830 E30.75485
G1 X70.899 Y99.562 E31.11329
G1 X71.804 Y99.562 E31.14486
G1 X78.793 Y106.551 E31.48955
G1 X79.515 Y106.367 E31.51551
G1 X72.709 Y99.562 E31.85114
G1 X73.614 Y99.562 E31.88270
G1 X80.261 Y106.209 E32.21050
G1 X81.008 Y106.050 E32.23712
G1 X74.520 Y99.562 E32.55709
G1 X75.425 Y99.562 E32.58866
G1 X81.853 Y105.990 E32.90566
G1 X82.758 Y105.990 E32.93723
G1 X76.330 Y99.562 E33.25424
G1 X77.235 Y99.562 E33.28581
G1 X83.663 Y105.990 E33.60282
G1 X84.801 Y106.222 E33.64329
G1 X78.141 Y99.562 E33.97173
G1 X79.046 Y99.562 E34.00330
G1 X85.950 Y106.466 E34.34380
G1 X92.924 Y112.535 F7800.000
G1 X100.438 Y120.049 E34.71437 F1260.000
G1 X82.333 Y135.438 F7800.000
G1 X64.562 Y117.667 E35.59079 F1260.000
G1 X64.562 Y118.572 E35.62236
G1 X81.428 Y135.438 E36.45414
G1 X80.523 Y135.438 E36.48570
G1 X64.562 Y119.477 E37.27284
G1 X64.562 Y120.383 E37.30441
G1 X79.617 Y135.438 E38.04690
G1 X78.712 Y135.438 E38.07846
G1 X64.562 Y121.288 E38.77631
G1 X64.562 Y122.193 E38.80788
G1 X77.807 Y135.438 E39.46108
G1 X76.902 Y135.438 E39.49264
G1 X64.562 Y123.098 E40.10120
G1 X64.562 Y124.004 E40.13277
G1 X69.764 Y129.206 E40.38934
G1 X70.794 Y130.236 F7800.000
G1 X75.996 Y135.438 E40.64591 F1260.000
G1 X75.091 Y135.438 E40.67748
G1 X71.434 Y131.781 E40.85783
G1 X71.590 Y132.842 E40.89524
G1 X74.186 Y135.438 E41.02326
G1 X73.281 Y135.438 E41.05482
G1 X71.325 Y133.482 E41.15127
G1 X71.060 Y134.122 E41.17543
G1 X72.375 Y135.438 E41.24031
G1 X71.470 Y135.438 E41.27187
G1 X70.795 Y134.763 E41.30518
G1 X70.530 Y135.403 E41.32934
G1 X70.565 Y135.438 E41.33109
G1 X68.219 Y128.566 F7800.000
G1 X64.562 Y124.909 E41.51144 F1260.000
G1 X64.562 Y125.814 E41.54301
G1 X67.158 Y128.410 E41.67102
G1 X66.518 Y128.675 E41.69518
G1 X64.562 Y126.719 E41.79163
G1 X64.562 Y127.625 E41.82320
G1 X65.878 Y128.940 E41.88808
G1 X65.237 Y129.205 E41.91224
G1 X64.562 Y128.530 E41.94555
G1 X64.562 Y129.435 E41.97712
G1 X64.597 Y129.470 E41.97886
G1 F720.000 E41.22886
G92 E0
G1 X96.774 Y99.085 F7800.000
G1 E0.75000 F720.000
G1 X97.310 Y98.978 E0.76083 F360.000
G1 X97.489 Y99.063 E0.76474
G1 X97.560 Y99.048 E0.76617
G1 X97.690 Y98.978 E0.76909
G1 X98.226 Y99.085 E0.77992
G1 X98.226 Y99.085 F7800.000
G1 X99.629 Y99.364 E0.85642 F360.000
G1 X100.126 Y99.570 E0.88520
G1 X100.324 Y99.676 E0.89719
G1 X100.430 Y99.874 E0.90918
G1 X100.636 Y100.371 E0.93797
G1 X100.915 Y101.774 E1.01447
G1 X100.915 Y101.774 F7800.000
G1 X101.022 Y102.310 E1.02529 F360.000
G1 X100.937 Y102.489 E1.02921
G1 X100.952 Y102.560 E1.03064
G1 X101.022 Y102.690 E1.03356
G1 X100.915 Y103.226 E1.04438
G1 X100.915 Y131.774 F7800.000
G1 X101.022 Y132.310 E1.05521 F360.000
