; generated by Slic3r 1.1.7 on 2015-07-20 at 04:30:35

; perimeters extrusion width = 0.40mm
; infill extrusion width = 0.42mm
; solid infill extrusion width = 0.42mm
; top infill extrusion width = 0.42mm

G21 ; set units to millimeters
M107
M190 S65 ; wait for bed temperature to be reached
M104 S215 ; set temperature
G28 ; home all axes

M109 S215 ; wait for temperature to be reached
G90 ; use absolute coordinates
G92 E0
M82 ; use absolute distances for extrusion
G1 F720.000 E-0.75000
G92 E0
G1 Z0.350 F7800.000
G1 X80.469 Y89.569 F7800.000
G1 E0.75000 F720.000
G1 X80.800 Y89.500 E0.76180 F600.000
G1 X96.200 Y89.500 E1.29884
G1 X96.531 Y89.569 E1.31064
G1 X96.600 Y89.900 E1.32244
G1 X96.600 Y110.100 E2.02687
G1 X96.531 Y110.431 E2.03867
G1 X96.200 Y110.500 E2.05047
G1 X80.800 Y110.500 E2.58751
G1 X80.469 Y110.431 E2.59931
G1 X80.400 Y110.100 E2.61112
G1 X80.400 Y89.900 E3.31554
G1 X80.469 Y89.569 E3.32734
G1 F720.000 E2.57734
G92 E0
G1 X103.469 Y89.569 F7800.000
G1 E0.75000 F720.000
G1 X103.800 Y89.500 E0.76180 F600.000
G1 X119.200 Y89.500 E1.29884
G1 X119.531 Y89.569 E1.31064
G1 X119.600 Y89.900 E1.32244
G1 X119.600 Y110.100 E2.02687
G1 X119.531 Y110.431 E2.03867
G1 X119.200 Y110.500 E2.05047
G1 X103.800 Y110.500 E2.58751
G1 X103.469 Y110.431 E2.59931
G1 X103.400 Y110.100 E2.61112
G1 X103.400 Y89.900 E3.31554
G1 X103.469 Y89.569 E3.32734
M106 S114
M104 S210 ; set temperature
M140 S60 ; set bed temperature
G1 F720.000 E2.57734
G92 E0
G1 Z0.650 F7800.000
G1 X96.400 Y89.700 F7800.000
G1 E0.75000 F720.000
G1 X96.400 Y110.300 E1.13750 F600.000
G1 X80.600 Y110.300 E1.43470 F600.000
G1 X80.600 Y89.700 E1.82220
G1 X96.340 Y89.700 E2.11828
G1 X96.487 Y110.691 F7800.000
G1 X96.487 Y110.700 F7800.000
G1 X80.200 Y110.700 E2.42464 F600.000
G1 X80.200 Y89.300 E2.82718
G1 X96.800 Y89.300 E3.13944
G1 X96.800 Y110.700 E3.54199
G1 X96.547 Y110.700 E3.54675 F600.000
G1 X96.800 Y110.447 F7800.000
G1 F720.000 E2.79675
G92 E0
G1 X103.600 Y110.300 F7800.000
G1 E0.75000 F720.000
G1 X103.600 Y89.700 E1.13750 F600.000
G1 X119.400 Y89.700 E1.43470
G1 X119.400 Y110.300 E1.82220
G1 X103.660 Y110.300 E2.11828 F600.000
G1 X119.054 Y110.500 F7800.000
G1 X119.054 Y110.700 F7800.000
G1 X103.200 Y110.700 E2.41649 F600.000
G1 X103.200 Y89.300 E2.81904
G1 X119.800 Y89.300 E3.13130
G1 X119.800 Y110.700 E3.53384
G1 X119.114 Y110.700 E3.54675 F600.000
G1 X119.800 Y110.300 F7800.000
G1 F720.000 E2.79675
G92 E0
G1 Z0.950 F7800.000
G1 X96.400 Y110.300 F7800.000
G1 E0.75000 F720.000
G1 X80.600 Y110.300 E1.04721 F600.000
G1 X80.600 Y89.700 E1.43470
G1 X96.340 Y89.700 E1.73078
G1 X96.487 Y110.691 F7800.000
G1 X96.487 Y110.700 F7800.000
G1 X80.200 Y110.700 E2.03714 F600.000
G1 X80.200 Y89.300 E2.43969
G1 X96.800 Y89.300 E2.75194
G1 X96.800 Y110.700 E3.15449
G1 X96.547 Y110.700 E3.15926 F600.000
G1 X96.800 Y110.447 F7800.000
G1 F720.000 E2.40926
G92 E0
G1 X103.600 Y110.300 F7800.000
G1 E0.75000 F720.000
G1 X103.600 Y89.700 E1.13750 F600.000
G1 X119.400 Y89.700 E1.43470
G1 X119.400 Y110.300 E1.82220
G1 X103.660 Y110.300 E2.11828 F600.000
G1 X119.054 Y110.500 F7800.000
G1 X119.054 Y110.700 F7800.000
G1 X103.200 Y110.700 E2.41649 F600.000
G1 X103.200 Y89.300 E2.81904
G1 X119.800 Y89.300 E3.13130
G1 X119.800 Y110.700 E3.53384
G1 X119.114 Y110.700 E3.54675 F600.000
G1 X119.800 Y110.300 F7800.000
G1 F720.000 E2.79675
G92 E0
G1 Z1.250 F7800.000
G1 X96.400 Y110.300 F7800.000
G1 E0.75000 F720.000
G1 X80.600 Y110.300 E1.04721 F600.000
G1 X80.600 Y89.700 E1.43470
G1 X96.340 Y89.700 E1.73078
G1 X96.487 Y110.691 F7800.000
G1 X96.487 Y110.700 F7800.000
G1 X80.200 Y110.700 E2.03714 F600.000
G1 X80.200 Y89.300 E2.43969
G1 X96.800 Y89.300 E2.75194
G1 X96.800 Y110.700 E3.15449
G1 X96.547 Y110.700 E3.15926 F600.000
G1 X96.800 Y110.447 F7800.000
G1 F720.000 E2.40926
G92 E0
G1 X103.600 Y110.300 F7800.000
G1 E0.75000 F720.000
G1 X103.600 Y89.700 E1.13750 F600.000
G1 X119.400 Y89.700 E1.43470
G1 X119.400 Y110.300 E1.82220
G1 X103.660 Y110.300 E2.11828 F600.000
G1 X119.054 Y110.500 F7800.000
G1 X119.054 Y110.700 F7800.000
G1 X103.200 Y110.700 E2.41649 F600.000
G1 X103.200 Y89.300 E2.81904
G1 X119.800 Y89.300 E3.13130
G1 X119.800 Y110.700 E3.53384
G1 X119.114 Y110.700 E3.54675 F600.000
G1 X119.800 Y110.300 F7800.000
G1 F720.000 E2.79675
G92 E0
G1 Z1.550 F7800.000
G1 X96.400 Y110.300 F7800.000
G1 E0.75000 F720.000
G1 X80.600 Y110.300 E1.04721 F600.000
G1 X80.600 Y89.700 E1.43470
G1 X96.340 Y89.700 E1.73078
G1 X96.487 Y110.691 F7800.000
G1 X96.487 Y110.700 F7800.000
G1 X80.200 Y110.700 E2.03714 F600.000
G1 X80.200 Y89.300 E2.43969
G1 X96.800 Y89.300 E2.75194
G1 X96.800 Y110.700 E3.15449
G1 X96.547 Y110.700 E3.15926 F600.000
G1 X96.800 Y110.447 F7800.000
G1 F720.000 E2.40926
G92 E0
G1 X103.600 Y110.300 F7800.000
G1 E0.75000 F720.000
G1 X103.600 Y89.700 E1.13750 F600.000
G1 X119.400 Y89.700 E1.43470
G1 X119.400 Y110.300 E1.82220
G1 X103.660 Y110.300 E2.11828 F600.000
G1 X119.054 Y110.500 F7800.000
G1 X119.054 Y110.700 F7800.000
G1 X103.200 Y110.700 E2.41649 F600.000
G1 X103.200 Y89.300 E2.81904
G1 X119.800 Y89.300 E3.13130
G1 X119.800 Y110.700 E3.53384
G1 X119.114 Y110.700 E3.54675 F600.000
G1 X119.800 Y110.300 F7800.000
G1 F720.000 E2.79675
G92 E0
G1 Z1.850 F7800.000
G1 X96.400 Y110.300 F7800.000
G1 E0.75000 F720.000
G1 X80.600 Y110.300 E1.04721 F600.000
G1 X80.600 Y89.700 E1.43470
G1 X96.340 Y89.700 E1.73078
G1 X96.487 Y110.691 F7800.000
G1 X96.487 Y110.700 F7800.000
G1 X80.200 Y110.700 E2.03714 F600.000
G1 X80.200 Y89.300 E2.43969
G1 X96.800 Y89.300 E2.75194
G1 X96.800 Y110.700 E3.15449
G1 X96.547 Y110.700 E3.15926 F600.000
G1 X96.800 Y110.447 F7800.000
G1 F720.000 E2.40926
G92 E0
G1 X103.600 Y110.300 F7800.000
G1 E0.75000 F720.000
G1 X103.600 Y89.700 E1.13750 F600.000
G1 X119.400 Y89.700 E1.43470
G1 X119.400 Y110.300 E1.82220
G1 X103.660 Y110.300 E2.11828 F600.000
G1 X119.054 Y110.500 F7800.000
G1 X119.054 Y110.700 F7800.000
G1 X103.200 Y110.700 E2.41649 F600.000
G1 X103.200 Y89.300 E2.81904
G1 X119.800 Y89.300 E3.13130
G1 X119.800 Y110.700 E3.53384
G1 X119.114 Y110.700 E3.54675 F600.000
G1 X119.800 Y110.300 F7800.000
G1 F720.000 E2.79675
G92 E0
G1 Z2.150 F7800.000
G1 X96.400 Y110.300 F7800.000
G1 E0.75000 F720.000
G1 X80.600 Y110.300 E1.04721 F600.000
G1 X80.600 Y89.700 E1.43470
G1 X96.340 Y89.700 E1.73078
G1 X96.487 Y110.691 F7800.000
G1 X96.487 Y110.700 F7800.000
G1 X80.200 Y110.700 E2.03714 F600.000
G1 X80.200 Y89.300 E2.43969
G1 X96.800 Y89.300 E2.75194
G1 X96.800 Y110.700 E3.15449
G1 X96.547 Y110.700 E3.15926 F600.000
G1 X96.800 Y110.447 F7800.000
G1 F720.000 E2.40926
G92 E0
G1 X103.600 Y110.300 F7800.000
G1 E0.75000 F720.000
G1 X103.600 Y89.700 E1.13750 F600.000
G1 X119.400 Y89.700 E1.43470
G1 X119.400 Y110.300 E1.82220
G1 X103.660 Y110.300 E2.11828 F600.000
G1 X119.054 Y110.500 F7800.000
G1 X119.054 Y110.700 F7800.000
G1 X103.200 Y110.700 E2.41649 F600.000
G1 X103.200 Y89.300 E2.81904
G1 X119.800 Y89.300 E3.13130
G1 X119.800 Y110.700 E3.53384
G1 X119.114 Y110.700 E3.54675 F600.000
G1 X119.800 Y110.300 F7800.000
G1 F720.000 E2.79675
G92 E0
G1 Z2.450 F7800.000
G1 X96.400 Y110.300 F7800.000
G1 E0.75000 F720.000
G1 X80.600 Y110.300 E1.04721 F600.000
G1 X80.600 Y89.700 E1.43470
G1 X96.340 Y89.700 E1.73078
G1 X96.487 Y110.691 F7800.000
G1 X96.487 Y110.700 F7800.000
G1 X80.200 Y110.700 E2.03714 F600.000
G1 X80.200 Y89.300 E2.43969
G1 X96.800 Y89.300 E2.75194
G1 X96.800 Y110.700 E3.15449
G1 X96.547 Y110.700 E3.15926 F600.000
G1 X96.800 Y110.447 F7800.000
G1 F720.000 E2.40926
G92 E0
G1 X103.600 Y110.300 F7800.000
G1 E0.75000 F720.000
G1 X103.600 Y89.700 E1.13750 F600.000
G1 X119.400 Y89.700 E1.43470
G1 X119.400 Y110.300 E1.82220
G1 X103.660 Y110.300 E2.11828 F600.000
G1 X119.054 Y110.500 F7800.000
G1 X119.054 Y110.700 F7800.000
G1 X103.200 Y110.700 E2.41649 F600.000
G1 X103.200 Y89.300 E2.81904
G1 X119.800 Y89.300 E3.13130
G1 X119.800 Y110.700 E3.53384
G1 X119.114 Y110.700 E3.54675 F600.000
G1 X119.800 Y110.300 F7800.000
G1 F720.000 E2.79675
G92 E0
G1 Z2.750 F7800.000
G1 X96.400 Y110.300 F7800.000
G1 E0.75000 F720.000
G1 X80.600 Y110.300 E1.04721 F600.000
G1 X80.600 Y89.700 E1.43470
G1 X96.340 Y89.700 E1.73078
G1 X96.487 Y110.691 F7800.000
G1 X96.487 Y110.700 F7800.000
G1 X80.200 Y110.700 E2.03714 F600.000
G1 X80.200 Y89.300 E2.43969
G1 X96.800 Y89.300 E2.75194
G1 X96.800 Y110.700 E3.15449
G1 X96.547 Y110.700 E3.15926 F600.000
G1 X96.800 Y110.447 F7800.000
G1 F720.000 E2.40926
G92 E0
G1 X103.600 Y110.300 F7800.000
G1 E0.75000 F720.000
G1 X103.600 Y89.700 E1.13750 F600.000
G1 X119.400 Y89.700 E1.43470
G1 X119.400 Y110.300 E1.82220
G1 X103.660 Y110.300 E2.11828 F600.000
G1 X119.054 Y110.500 F7800.000
G1 X119.054 Y110.700 F7800.000
G1 X103.200 Y110.700 E2.41649 F600.000
G1 X103.200 Y89.300 E2.81904
G1 X119.800 Y89.300 E3.13130
G1 X119.800 Y110.700 E3.53384
G1 X119.114 Y110.700 E3.54675 F600.000
G1 X119.800 Y110.300 F7800.000
G1 F720.000 E2.79675
G92 E0
G1 Z3.050 F7800.000
G1 X96.400 Y110.300 F7800.000
G1 E0.75000 F720.000
G1 X80.600 Y110.300 E1.04721 F600.000
G1 X80.600 Y89.700 E1.43470
G1 X96.340 Y89.700 E1.73078
G1 X96.487 Y110.691 F7800.000
G1 X96.487 Y110.700 F7800.000
G1 X80.200 Y110.700 E2.03714 F600.000
G1 X80.200 Y89.300 E2.43969
G1 X96.800 Y89.300 E2.75194
G1 X96.800 Y110.700 E3.15449
G1 X96.547 Y110.700 E3.15926 F600.000
G1 X96.800 Y110.447 F7800.000
G1 F720.000 E2.40926
G92 E0
G1 X103.600 Y110.300 F7800.000
G1 E0.75000 F720.000
G1 X103.600 Y89.700 E1.13750 F600.000
G1 X119.400 Y89.700 E1.43470
G1 X119.400 Y110.300 E1.82220
G1 X103.660 Y110.300 E2.11828 F600.000
G1 X119.054 Y110.500 F7800.000
G1 X119.054 Y110.700 F7800.000
G1 X103.200 Y110.700 E2.41649 F600.000
G1 X103.200 Y89.300 E2.81904
G1 X119.800 Y89.300 E3.13130
G1 X119.800 Y110.700 E3.53384
G1 X119.114 Y110.700 E3.54675 F600.000
G1 X119.800 Y110.300 F7800.000
G1 F720.000 E2.79675
G92 E0
G1 Z3.350 F7800.000
G1 X96.378 Y110.215 F7800.000
G1 E0.75000 F720.000
G1 X80.622 Y110.215 E1.04638 F600.000
G1 X80.622 Y89.700 E1.43227
G1 X96.318 Y89.700 E1.72752
G1 X96.465 Y110.606 F7800.000
G1 X96.465 Y110.615 F7800.000
G1 X80.222 Y110.615 E2.03305 F600.000
G1 X80.222 Y89.300 E2.43399
G1 X96.778 Y89.300 E2.74542
G1 X96.778 Y110.615 E3.14636
G1 X96.525 Y110.615 E3.15113 F600.000
G1 X96.778 Y110.362 F7800.000
G1 F720.000 E2.40113
G92 E0
G1 X103.622 Y110.215 F7800.000
G1 E0.75000 F720.000
G1 X103.622 Y89.700 E1.13589 F600.000
G1 X119.378 Y89.700 E1.43227
G1 X119.378 Y110.215 E1.81817
G1 X103.682 Y110.215 E2.11342 F600.000
G1 X119.032 Y110.415 F7800.000
G1 X119.032 Y110.615 F7800.000
G1 X103.222 Y110.615 E2.41080 F600.000
G1 X103.222 Y89.300 E2.81174
G1 X119.778 Y89.300 E3.12317
G1 X119.778 Y110.615 E3.52411
G1 X119.092 Y110.615 E3.53702 F600.000
G1 X119.778 Y110.215 F7800.000
G1 F720.000 E2.78702
G92 E0
G1 Z3.650 F7800.000
G1 X96.345 Y109.791 F7800.000
G1 E0.75000 F720.000
G1 X96.319 Y109.906 E0.75222 F600.000
G1 X96.244 Y110.010 E0.75464
G1 X96.132 Y110.074 E0.75706
G1 X96.069 Y110.088 E0.75827
G1 X80.931 Y110.088 E1.04303
G1 X80.868 Y110.074 E1.04425
G1 X80.756 Y110.010 E1.04667
G1 X80.681 Y109.906 E1.04909
G1 X80.655 Y109.791 E1.05131
G1 X80.655 Y89.998 E1.42362
G1 X80.681 Y89.882 E1.42585
G1 X80.713 Y89.826 E1.42706
G1 X80.809 Y89.740 E1.42948
G1 X80.931 Y89.701 E1.43190
G1 X96.069 Y89.701 E1.71666
G1 X96.132 Y89.714 E1.71787
G1 X96.244 Y89.778 E1.72029 F600.000
G1 X96.287 Y89.826 E1.72151
G1 X96.319 Y89.882 E1.72272
G1 X96.345 Y89.998 E1.72495
G1 X96.345 Y109.731 E2.09613
G1 X96.150 Y89.587 F7800.000
G1 X96.150 Y89.301 F7800.000
G1 X96.745 Y89.301 E2.10733 F600.000
G1 X96.745 Y110.487 E2.50587
G1 X80.255 Y110.487 E2.81605 F600.000
G1 X80.255 Y89.301 E3.21458
G1 X96.090 Y89.301 E3.51244
G1 F720.000 E2.76244
G92 E0
G1 X96.363 Y110.368 F7800.000
G1 X103.655 Y109.791 F7800.000
G1 E0.75000 F720.000
G1 X103.655 Y89.998 E1.12232 F600.000
G1 X103.681 Y89.882 E1.12454
G1 X103.713 Y89.826 E1.12575
G1 X103.809 Y89.740 E1.12817
G1 X103.931 Y89.701 E1.13059
G1 X119.069 Y89.701 E1.41535
G1 X119.132 Y89.714 E1.41657
G1 X119.244 Y89.778 E1.41899 F600.000
G1 X119.287 Y89.826 E1.42020
G1 X119.319 Y89.882 E1.42142
G1 X119.345 Y89.998 E1.42364
G1 X119.345 Y109.791 E1.79596
G1 X119.319 Y109.906 E1.79818
G1 X119.287 Y109.962 E1.79939
G1 X119.191 Y110.048 E1.80181
G1 X119.069 Y110.088 E1.80423
G1 X103.931 Y110.088 E2.08899
G1 X103.868 Y110.074 E2.09021
G1 X103.756 Y110.010 E2.09262
G1 X103.713 Y109.962 E2.09384
G1 X103.663 Y109.850 E2.09615
G1 F720.000 E1.34615
G92 E0
G1 X119.201 Y89.606 F7800.000
G1 X119.201 Y89.301 F7800.000
G1 E0.75000 F720.000
G1 X119.745 Y89.301 E0.76022 F600.000
G1 X119.745 Y110.487 E1.15876
G1 X103.255 Y110.487 E1.46894 F600.000
G1 X103.255 Y89.301 E1.86748
G1 X119.141 Y89.301 E2.16631
G1 X119.363 Y110.368 F7800.000
G1 F720.000 E1.41631
G92 E0
G1 Z3.950 F7800.000
G1 X96.312 Y109.599 F7800.000
G1 E0.75000 F720.000
G1 X96.281 Y109.740 E0.75273 F600.000
G1 X96.189 Y109.866 E0.75565
G1 X96.126 Y109.912 E0.75712
G1 X95.978 Y109.960 E0.76005
G1 X81.022 Y109.960 E1.04138
G1 X80.874 Y109.912 E1.04431
G1 X80.811 Y109.866 E1.04578
G1 X80.719 Y109.740 E1.04870
G1 X80.688 Y109.599 E1.05143
G1 X80.688 Y90.062 E1.41892
G1 X80.719 Y89.921 E1.42165
G1 X80.758 Y89.853 E1.42312
G1 X80.874 Y89.749 E1.42604
G1 X81.022 Y89.701 E1.42897
G1 X95.978 Y89.701 E1.71030
G1 X96.055 Y89.717 E1.71177
G1 X96.126 Y89.749 E1.71324 F600.000
G1 X96.242 Y89.853 E1.71617
G1 X96.281 Y89.921 E1.71764
G1 X96.312 Y90.062 E1.72037
G1 X96.312 Y109.539 E2.08673
G1 F720.000 E1.33673
G92 E0
G1 X96.060 Y89.639 F7800.000
G1 X96.060 Y89.301 F7800.000
G1 E0.75000 F720.000
G1 X96.712 Y89.301 E0.76227 F600.000
G1 X96.712 Y110.360 E1.15840
G1 X80.288 Y110.360 E1.46734 F600.000
G1 X80.288 Y89.301 E1.86346
G1 X96.000 Y89.301 E2.15901
G1 F720.000 E1.40901
G92 E0
G1 X96.330 Y110.241 F7800.000
G1 X103.688 Y109.599 F7800.000
G1 E0.75000 F720.000
G1 X103.688 Y90.062 E1.11749 F600.000
G1 X103.719 Y89.921 E1.12022
G1 X103.758 Y89.853 E1.12169
G1 X103.874 Y89.749 E1.12461
G1 X104.022 Y89.701 E1.12754
G1 X118.978 Y89.701 E1.40887
G1 X119.055 Y89.717 E1.41034
G1 X119.126 Y89.749 E1.41181 F600.000
G1 X119.242 Y89.853 E1.41474
G1 X119.281 Y89.921 E1.41621
G1 X119.312 Y90.062 E1.41894
G1 X119.312 Y109.599 E1.78642
G1 X119.281 Y109.740 E1.78915
G1 X119.242 Y109.808 E1.79062
G1 X119.126 Y109.912 E1.79355
G1 X118.978 Y109.960 E1.79647
G1 X104.022 Y109.960 E2.07781
G1 X103.874 Y109.912 E2.08073
G1 X103.811 Y109.866 E2.08220
G1 X103.719 Y109.740 E2.08513
G1 X103.694 Y109.658 E2.08674
G1 F720.000 E1.33674
G92 E0
G1 X119.092 Y89.648 F7800.000
G1 X119.092 Y89.301 F7800.000
G1 E0.75000 F720.000
G1 X119.712 Y89.301 E0.76166 F600.000
G1 X119.712 Y110.360 E1.15779
G1 X103.288 Y110.360 E1.46673 F600.000
G1 X103.288 Y89.301 E1.86286
G1 X119.032 Y89.301 E2.15901
G1 F720.000 E1.40901
G92 E0
G1 X119.330 Y110.241 F7800.000
G1 Z4.250 F7800.000
G1 X96.279 Y109.407 F7800.000
G1 E0.75000 F720.000
G1 X96.242 Y109.575 E0.75323 F600.000
G1 X96.135 Y109.722 E0.75667
G1 X95.977 Y109.814 E0.76010
G1 X95.887 Y109.833 E0.76183
G1 X81.113 Y109.833 E1.03973
G1 X81.023 Y109.814 E1.04146
G1 X80.865 Y109.722 E1.04489
G1 X80.758 Y109.575 E1.04832
G1 X80.721 Y109.407 E1.05156
G1 X80.721 Y90.127 E1.41421
G1 X80.758 Y89.959 E1.41745
G1 X80.804 Y89.880 E1.41917
G1 X80.939 Y89.758 E1.42261
G1 X81.113 Y89.701 E1.42604
G1 X95.887 Y89.701 E1.70395
G1 X95.977 Y89.720 E1.70567
G1 X96.135 Y89.812 E1.70910 F600.000
G1 X96.196 Y89.880 E1.71083
G1 X96.242 Y89.959 E1.71255
G1 X96.279 Y90.127 E1.71579
G1 X96.279 Y109.347 E2.07732
G1 F720.000 E1.32732
G92 E0
G1 X96.001 Y89.540 F7800.000
G1 X96.001 Y89.302 F7800.000
G1 E0.75000 F720.000
G1 X96.679 Y89.302 E0.76274 F600.000
G1 X96.679 Y110.232 E1.15646
G1 X80.321 Y110.232 E1.46416 F600.000
G1 X80.321 Y89.302 E1.85788
G1 X95.941 Y89.302 E2.15171
G1 F720.000 E1.40171
G92 E0
G1 X96.297 Y110.113 F7800.000
G1 X103.721 Y109.407 F7800.000
G1 E0.75000 F720.000
G1 X103.721 Y90.127 E1.11266 F600.000
G1 X103.758 Y89.959 E1.11589
G1 X103.804 Y89.880 E1.11762
G1 X103.939 Y89.758 E1.12105
G1 X104.113 Y89.701 E1.12448
G1 X118.887 Y89.701 E1.40239
G1 X118.977 Y89.720 E1.40411
