; generated by Slic3r 1.1.7 on 2015-07-12 at 03:15:08

; perimeters extrusion width = 0.40mm
; infill extrusion width = 0.42mm
; solid infill extrusion width = 0.42mm
; top infill extrusion width = 0.42mm

G21 ; set units to millimeters
M107
M190 S65 ; wait for bed temperature to be reached
M104 S215 ; set temperature
G28 ; home all axes

M109 S215 ; wait for temperature to be reached
G90 ; use absolute coordinates
G92 E0
M82 ; use absolute distances for extrusion
G1 F1800.000 E-1.00000
G92 E0
G1 Z0.350 F7800.000
G1 X104.379 Y109.221 F7800.000
G1 E1.00000 F1800.000
G1 X115.623 Y109.221 E1.43132 F720.000
G1 X115.623 Y109.979 E1.46038
G1 X84.371 Y109.979 E2.65920
G1 X84.371 Y96.621 E3.17159
G1 X87.186 Y96.621 E3.27957
G1 X86.994 Y97.253 E3.30490
G1 X86.921 Y98.000 E3.33369
G1 X86.994 Y98.747 E3.36248
G1 X87.212 Y99.466 E3.39129
G1 X87.566 Y100.127 E3.42007
G1 X88.042 Y100.708 E3.44886
G1 X88.623 Y101.184 E3.47766
G1 X89.129 Y101.454 E3.49969
G1 X89.285 Y101.538 E3.50646
G1 X90.003 Y101.755 E3.53524
G1 X90.750 Y101.829 E3.56405
G1 X91.497 Y101.756 E3.59283
G1 X92.216 Y101.537 E3.62164
G1 X92.877 Y101.184 E3.65042
G1 X93.458 Y100.708 E3.67922
G1 X93.934 Y100.127 E3.70802
G1 X94.288 Y99.465 E3.73681
G1 X94.505 Y98.747 E3.76559
G1 X94.579 Y98.000 E3.79439
G1 X94.505 Y97.253 E3.82320
G1 X94.314 Y96.621 E3.84851
G1 X104.379 Y96.621 E4.23460
G1 X104.379 Y109.161 E4.71564
G1 X104.871 Y90.779 F7800.000
G1 X104.871 Y90.021 E4.74470 F720.000
G1 X115.623 Y90.021 E5.15713
G1 X115.623 Y90.779 E5.18619
G1 X104.931 Y90.779 E5.59632
G1 X105.014 Y91.414 F7800.000
G1 X105.014 Y108.586 E6.25501 F720.000
G1 X116.259 Y108.586 E6.68633
G1 X116.259 Y110.614 E6.76416
G1 X83.736 Y110.614 E8.01173
G1 X83.736 Y95.986 E8.57289
G1 X88.227 Y95.986 E8.74517
G1 X87.803 Y96.779 E8.77967
G1 X87.621 Y97.378 E8.80367
G1 X87.560 Y98.000 E8.82766
G1 X87.621 Y98.622 E8.85165
G1 X87.803 Y99.221 E8.87565
G1 X88.097 Y99.772 E8.89963
G1 X88.494 Y100.256 E8.92362
G1 X88.890 Y100.581 E8.94325
G1 X88.978 Y100.653 E8.94762
G1 X89.529 Y100.948 E8.97161
G1 X90.128 Y101.129 E8.99560
G1 X90.750 Y101.190 E9.01960
G1 X91.372 Y101.129 E9.04358
G1 X91.971 Y100.947 E9.06758
G1 X92.522 Y100.653 E9.09156
G1 X93.006 Y100.256 E9.11555
G1 X93.403 Y99.772 E9.13955
G1 X93.698 Y99.221 E9.16354
G1 X93.879 Y98.623 E9.18753
G1 X93.929 Y98.113 E9.20716
G1 X93.940 Y98.000 E9.21152
G1 X93.879 Y97.377 E9.23552
G1 X93.698 Y96.779 E9.25950
G1 X93.273 Y95.986 E9.29402
G1 X104.236 Y95.986 E9.71453
G1 X104.236 Y89.386 E9.96770
G1 X116.259 Y89.386 E10.42890
G1 X116.259 Y91.414 E10.50672
G1 X105.074 Y91.414 E10.93575
G1 X105.650 Y92.050 F7800.000
G1 X105.650 Y107.950 E11.54567 F504.000
G1 X116.894 Y107.950 E11.97700
G1 X116.894 Y111.250 E12.10358
G1 X83.100 Y111.250 E13.39993
G1 X83.100 Y95.350 E14.00985
G1 X89.504 Y95.350 E14.25552
G1 X89.601 Y95.735 E14.27074
G1 X89.332 Y95.878 E14.28241
G1 X88.946 Y96.196 E14.30160
G1 X88.628 Y96.582 E14.32079
G1 X88.393 Y97.023 E14.33997
G1 X88.247 Y97.502 E14.35916
G1 X88.198 Y98.000 E14.37835
G1 X88.247 Y98.498 E14.39754
G1 X88.393 Y98.977 E14.41673
G1 X88.628 Y99.418 E14.43591
G1 X88.946 Y99.804 E14.45510
G1 X89.332 Y100.122 E14.47429
G1 X89.728 Y100.333 E14.49151
G1 X90.252 Y100.503 E14.51263
G1 X90.750 Y100.552 E14.53182
G1 X91.248 Y100.503 E14.55101
G1 X91.727 Y100.357 E14.57020
G1 X92.168 Y100.122 E14.58939
G1 X92.554 Y99.804 E14.60858
G1 X92.872 Y99.418 E14.62777
G1 X93.107 Y98.976 E14.64695
G1 X93.253 Y98.498 E14.66614
G1 X93.297 Y97.949 E14.68726
G1 X93.253 Y97.502 E14.70448
G1 X93.107 Y97.024 E14.72367
G1 X92.872 Y96.582 E14.74286
G1 X92.554 Y96.196 E14.76205
G1 X92.168 Y95.878 E14.78124
G1 X91.899 Y95.735 E14.79291
G1 X91.996 Y95.350 E14.80813
G1 X103.600 Y95.350 E15.25327
G1 X103.600 Y88.750 E15.50644
G1 X116.894 Y88.750 E16.01641
G1 X116.894 Y92.050 E16.14299
G1 X105.710 Y92.050 E16.57202
G1 X105.250 Y92.050 F7800.000
G1 X103.898 Y97.062 F7800.000
G1 X103.938 Y97.102 E16.57419 F1260.000
G1 X103.938 Y98.003 E16.60874
G1 X102.997 Y97.062 E16.65976
G1 X102.097 Y97.062 E16.69431
G1 X103.938 Y98.903 E16.79420
G1 X103.938 Y99.804 E16.82875
G1 X101.196 Y97.062 E16.97749
G1 X100.295 Y97.062 E17.01204
G1 X103.938 Y100.705 E17.20964
G1 X103.938 Y101.605 E17.24419
G1 X99.395 Y97.062 E17.49065
G1 X98.494 Y97.062 E17.52520
G1 X103.938 Y102.506 E17.82052
G1 X103.938 Y103.406 E17.85506
G1 X97.594 Y97.062 E18.19924
G1 X96.693 Y97.062 E18.23379
G1 X103.938 Y104.307 E18.62682
G1 X103.938 Y105.208 E18.66137
G1 X95.792 Y97.062 E19.10326
G1 X94.934 Y97.104 E19.13624
G1 X103.938 Y106.108 E19.62471
G1 X103.938 Y107.009 E19.65925
G1 X95.014 Y98.085 E20.14339
G1 X94.922 Y98.893 E20.17461
G1 X103.938 Y107.910 E20.66373
G1 X103.938 Y108.810 E20.69828
G1 X94.712 Y99.584 E21.19877
G1 X94.406 Y100.179 E21.22443
G1 X103.765 Y109.538 E21.73215
G1 X102.865 Y109.538 E21.76670
G1 X94.031 Y100.704 E22.24593
G1 X93.593 Y101.167 E22.27037
G1 X101.964 Y109.538 E22.72449
G1 X101.063 Y109.538 E22.75904
G1 X93.093 Y101.568 E23.19140
G1 X92.506 Y101.882 E23.21693
G1 X100.163 Y109.538 E23.63227
G1 X99.262 Y109.538 E23.66681
G1 X91.837 Y102.113 E24.06961
G1 X91.064 Y102.241 E24.09965
G1 X98.361 Y109.538 E24.49550
G1 X97.461 Y109.538 E24.53005
G1 X90.134 Y102.211 E24.92751
G1 X88.801 Y101.779 E24.98127
G1 X96.560 Y109.538 E25.40219
G1 X95.660 Y109.538 E25.43674
G1 X84.812 Y98.690 E26.02521
G1 X84.812 Y99.591 E26.05975
G1 X94.759 Y109.538 E26.59936
G1 X93.858 Y109.538 E26.63391
G1 X84.812 Y100.492 E27.12466
G1 X84.812 Y101.392 E27.15921
G1 X92.958 Y109.538 E27.60110
G1 X92.057 Y109.538 E27.63565
G1 X84.812 Y102.293 E28.02868
G1 X84.812 Y103.194 E28.06323
G1 X91.156 Y109.538 E28.40741
G1 X90.256 Y109.538 E28.44196
G1 X84.812 Y104.094 E28.73728
G1 X84.812 Y104.995 E28.77182
G1 X89.355 Y109.538 E29.01828
G1 X88.455 Y109.538 E29.05283
G1 X84.812 Y105.895 E29.25043
G1 X84.812 Y106.796 E29.28498
G1 X87.554 Y109.538 E29.43373
G1 X86.653 Y109.538 E29.46827
G1 X84.812 Y107.697 E29.56816
G1 X84.812 Y108.597 E29.60271
G1 X85.753 Y109.538 E29.65374
G1 X84.852 Y109.538 E29.68828
G1 X84.812 Y109.498 E29.69045
G1 X86.971 Y99.949 F7800.000
G1 X84.812 Y97.790 E29.80757 F1260.000
G1 X84.985 Y97.062 E29.83627
G1 X86.539 Y98.616 E29.92056
G1 X86.509 Y97.686 E29.95626
G1 X85.885 Y97.062 E29.99009
M106 S255
M104 S210 ; set temperature
M140 S60 ; set bed temperature
G1 F1800.000 E28.99009
G92 E0
G1 Z0.650 F7800.000
G1 X92.968 Y97.081 F7800.000
G1 E1.00000 F1800.000
G1 X93.105 Y97.532 E1.00974 F1316.655
G1 X93.144 Y97.933 E1.01808
G1 X93.105 Y98.468 E1.02919
G1 X92.968 Y98.919 E1.03893
G1 X92.746 Y99.334 E1.04867
G1 X92.395 Y99.741 E1.05979
G1 X92.084 Y99.996 E1.06813
G1 X91.669 Y100.218 E1.07786
G1 X91.218 Y100.355 E1.08760
G1 X90.750 Y100.401 E1.09734
G1 X90.282 Y100.355 E1.10708
G1 X89.831 Y100.218 E1.11682
G1 X89.416 Y99.996 E1.12656
G1 X89.052 Y99.698 E1.13630
G1 X88.754 Y99.334 E1.14604
G1 X88.532 Y98.919 E1.15578
G1 X88.395 Y98.468 E1.16552
G1 X88.349 Y98.000 E1.17525
G1 X88.395 Y97.532 E1.18499
G1 X88.532 Y97.081 E1.19473
G1 X88.754 Y96.666 E1.20447
G1 X89.052 Y96.302 E1.21421
G1 X89.416 Y96.004 E1.22395
G1 X89.831 Y95.782 E1.23369
G1 X90.282 Y95.645 E1.24343
G1 X90.750 Y95.599 E1.25317
G1 X91.151 Y95.639 E1.26151
G1 X91.669 Y95.782 E1.27262 F1316.655
G1 X92.084 Y96.004 E1.28236
G1 X92.448 Y96.302 E1.29210
G1 X92.746 Y96.666 E1.30184
G1 X92.940 Y97.028 E1.31033
G1 X91.090 Y95.243 F7800.000
G1 X104.250 Y96.000 F7800.000
G1 X104.250 Y89.400 E1.44690 F1880.936
G1 X116.219 Y89.400 E1.69455
G1 X116.219 Y91.400 E1.73594
G1 X105.000 Y91.400 E1.96807
G1 X105.000 Y108.600 E2.32396
G1 X116.219 Y108.600 E2.55610
G1 X116.219 Y110.600 E2.59748
G1 X83.750 Y110.600 E3.26931
G1 X83.750 Y96.000 E3.57141
G1 X88.203 Y96.000 E3.66354
G1 X87.789 Y96.774 E3.68169
G1 X87.607 Y97.375 E3.69469
G1 X87.545 Y98.000 E3.70769
G1 X87.607 Y98.625 E3.72069
G1 X87.789 Y99.226 E3.73369
G1 X88.085 Y99.781 E3.74669
G1 X88.391 Y100.153 E3.75666
G1 X88.484 Y100.266 E3.75969
G1 X88.969 Y100.665 E3.77269
G1 X89.524 Y100.961 E3.78569
G1 X90.125 Y101.143 E3.79869
G1 X90.750 Y101.205 E3.81169
G1 X91.375 Y101.143 E3.82469
G1 X91.976 Y100.961 E3.83769
G1 X92.531 Y100.665 E3.85069
G1 X93.016 Y100.266 E3.86369
G1 X93.415 Y99.781 E3.87669
G1 X93.711 Y99.226 E3.88969
G1 X93.893 Y98.625 E3.90269
G1 X93.940 Y98.146 E3.91266
G1 X93.955 Y98.000 E3.91569
G1 X93.893 Y97.375 E3.92869
G1 X93.711 Y96.774 E3.94169
G1 X93.297 Y96.000 E3.95983
G1 X104.190 Y96.000 E4.18522
G1 X103.850 Y95.600 F7800.000
G1 X103.850 Y89.000 E4.32178 F1880.936
G1 X116.619 Y89.000 E4.58599
G1 X116.619 Y91.800 E4.64393
G1 X105.400 Y91.800 E4.87606
G1 X105.400 Y108.200 E5.21540
G1 X116.619 Y108.200 E5.44754
G1 X116.619 Y111.000 E5.50547
G1 X83.350 Y111.000 E6.19386
G1 X83.350 Y95.600 E6.51251
G1 X89.277 Y95.600 E6.63516
G1 X88.768 Y96.018 E6.64879
G1 X88.419 Y96.443 E6.66016
G1 X88.160 Y96.927 E6.67153
G1 X88.001 Y97.453 E6.68290
G1 X87.947 Y98.000 E6.69427
G1 X88.001 Y98.547 E6.70564
G1 X88.160 Y99.073 E6.71701
G1 X88.419 Y99.557 E6.72838
G1 X88.768 Y99.982 E6.73975
G1 X89.193 Y100.331 E6.75112
G1 X89.677 Y100.590 E6.76249
G1 X90.203 Y100.749 E6.77385
G1 X90.750 Y100.803 E6.78522
G1 X91.297 Y100.749 E6.79659
G1 X91.823 Y100.590 E6.80796
G1 X92.307 Y100.331 E6.81933
G1 X92.649 Y100.050 E6.82849
G1 X92.732 Y99.982 E6.83070
G1 X93.081 Y99.557 E6.84207
G1 X93.340 Y99.073 E6.85344
G1 X93.499 Y98.547 E6.86481
G1 X93.553 Y98.000 E6.87618
G1 X93.542 Y97.894 E6.87839
G1 X93.499 Y97.453 E6.88755
G1 X93.340 Y96.927 E6.89892
G1 X93.081 Y96.443 E6.91029
G1 X92.732 Y96.018 E6.92166
G1 X92.223 Y95.600 E6.93529
G1 X103.790 Y95.600 E7.17464
G1 X103.450 Y95.200 F7800.000
G1 X103.450 Y88.600 E7.31121 F1316.655
G1 X117.019 Y88.600 E7.59196
G1 X117.019 Y92.200 E7.66645
G1 X105.800 Y92.200 E7.89859
G1 X105.800 Y107.800 E8.22138
G1 X117.019 Y107.800 E8.45351
G1 X117.019 Y111.400 E8.52800
G1 X82.950 Y111.400 E9.23294
G1 X82.950 Y95.200 E9.56814
G1 X103.390 Y95.200 E9.99108
G1 X103.850 Y95.200 F7800.000
G1 X93.909 Y96.562 F7800.000
G1 X94.196 Y96.274 E9.99989 F3291.638
G1 X94.792 Y96.274 E10.01281
G1 X94.066 Y97.000 E10.03505
G1 X94.179 Y97.483 E10.04580
G1 X95.388 Y96.274 E10.08284
G1 X95.984 Y96.274 E10.09575
G1 X94.227 Y98.031 E10.14959
G1 X94.158 Y98.696 E10.16407
G1 X96.580 Y96.274 E10.23829
G1 X97.176 Y96.274 E10.25120
G1 X93.790 Y99.661 E10.35497
G1 X92.411 Y101.040 F7800.000
G1 X84.024 Y109.426 E10.61196 F3291.638
G1 X84.024 Y110.022 E10.62488
G1 X97.772 Y96.274 E11.04616
G1 X98.368 Y96.274 E11.05908
G1 X84.317 Y110.326 E11.48967
G1 X84.913 Y110.326 E11.50258
G1 X98.964 Y96.274 E11.93317
G1 X99.560 Y96.274 E11.94608
G1 X85.509 Y110.326 E12.37667
G1 X86.105 Y110.326 E12.38958
G1 X100.156 Y96.274 E12.82017
G1 X100.752 Y96.274 E12.83309
G1 X86.701 Y110.326 E13.26367
G1 X87.297 Y110.326 E13.27659
G1 X101.348 Y96.274 E13.70718
G1 X101.944 Y96.274 E13.72009
G1 X87.893 Y110.326 E14.15068
G1 X88.489 Y110.326 E14.16359
G1 X102.540 Y96.274 E14.59418
G1 X103.136 Y96.274 E14.60710
G1 X89.085 Y110.326 E15.03768
G1 X89.681 Y110.326 E15.05060
G1 X103.732 Y96.274 E15.48119
G1 X104.251 Y96.352 E15.49255
G1 X90.277 Y110.326 E15.92076
G1 X90.873 Y110.326 E15.93368
G1 X104.705 Y96.493 E16.35755
G1 X104.726 Y97.069 E16.37002
G1 X91.469 Y110.326 E16.77627
G1 X92.065 Y110.326 E16.78918
G1 X104.726 Y97.665 E17.17716
G1 X104.726 Y98.261 E17.19008
G1 X92.661 Y110.326 E17.55980
G1 X93.257 Y110.326 E17.57271
G1 X104.726 Y98.857 E17.92417
G1 X104.726 Y99.453 E17.93708
G1 X93.853 Y110.326 E18.27027
G1 X94.449 Y110.326 E18.28319
G1 X104.726 Y100.049 E18.59811
G1 X104.726 Y100.645 E18.61103
G1 X95.045 Y110.326 E18.90769
G1 X95.641 Y110.326 E18.92061
G1 X104.726 Y101.241 E19.19901
G1 X104.726 Y101.837 E19.21192
G1 X96.237 Y110.326 E19.47206
G1 X96.833 Y110.326 E19.48498
G1 X104.726 Y102.433 E19.72685
G1 X104.726 Y103.029 E19.73976
G1 X97.429 Y110.326 E19.96338
G1 X98.025 Y110.326 E19.97629
G1 X104.726 Y103.625 E20.18164
G1 X104.726 Y104.221 E20.19455
G1 X98.621 Y110.326 E20.38164
G1 X99.217 Y110.326 E20.39455
G1 X104.726 Y104.817 E20.56337
G1 X104.726 Y105.413 E20.57628
G1 X99.813 Y110.326 E20.72684
G1 X100.409 Y110.326 E20.73976
G1 X104.726 Y106.009 E20.87205
G1 X104.726 Y106.605 E20.88496
G1 X101.005 Y110.326 E20.99899
G1 X101.601 Y110.326 E21.01191
G1 X104.726 Y107.201 E21.10768
G1 X104.726 Y107.797 E21.12059
G1 X102.197 Y110.326 E21.19809
G1 X102.793 Y110.326 E21.21101
G1 X104.726 Y108.393 E21.27025
G1 X104.840 Y108.874 E21.28097
G1 X103.389 Y110.326 E21.32545
G1 X103.985 Y110.326 E21.33837
G1 X105.436 Y108.874 E21.38285
G1 X106.032 Y108.874 E21.39576
G1 X104.581 Y110.326 E21.44024
G1 X105.177 Y110.326 E21.45316
G1 X106.628 Y108.874 E21.49764
G1 X107.224 Y108.874 E21.51055
G1 X105.773 Y110.326 E21.55503
G1 X106.369 Y110.326 E21.56795
G1 X107.820 Y108.874 E21.61243
G1 X108.416 Y108.874 E21.62534
G1 X106.965 Y110.326 E21.66982
G1 X107.561 Y110.326 E21.68274
G1 X109.012 Y108.874 E21.72722
G1 X109.608 Y108.874 E21.74013
G1 X108.157 Y110.326 E21.78461
G1 X108.753 Y110.326 E21.79753
G1 X110.204 Y108.874 E21.84201
G1 X110.800 Y108.874 E21.85492
G1 X109.349 Y110.326 E21.89940
G1 X109.945 Y110.326 E21.91231
G1 X111.396 Y108.874 E21.95680
G1 X111.992 Y108.874 E21.96971
G1 X110.541 Y110.326 E22.01419
G1 X111.137 Y110.326 E22.02710
G1 X112.588 Y108.874 E22.07158
G1 X113.184 Y108.874 E22.08450
G1 X111.733 Y110.326 E22.12898
G1 X112.329 Y110.326 E22.14189
G1 X113.780 Y108.874 E22.18637
G1 X114.376 Y108.874 E22.19929
G1 X112.925 Y110.326 E22.24377
G1 X113.521 Y110.326 E22.25668
G1 X114.972 Y108.874 E22.30116
G1 X115.568 Y108.874 E22.31408
G1 X114.117 Y110.326 E22.35856
G1 X114.713 Y110.326 E22.37147
G1 X115.945 Y109.094 E22.40922
G1 X115.945 Y109.690 E22.42214
G1 X115.309 Y110.326 E22.44163
G1 X115.905 Y110.326 E22.45454
G1 X115.945 Y110.286 E22.45577
G1 F1800.000 E21.45577
G92 E0
G1 X91.446 Y101.408 F7800.000
G1 E1.00000 F1800.000
G1 X84.024 Y108.830 E1.22743 F3291.638
G1 X84.024 Y108.234 E1.24035
G1 X90.781 Y101.477 E1.44740
G1 X90.233 Y101.429 E1.45932
G1 X84.024 Y107.638 E1.64958
G1 X84.024 Y107.042 E1.66249
G1 X89.750 Y101.316 E1.83796
G1 X89.312 Y101.159 E1.84805
G1 X84.024 Y106.446 E2.01008
G1 X84.024 Y105.850 E2.02299
G1 X88.923 Y100.951 E2.17312
G1 X88.579 Y100.699 E2.18236
G1 X84.024 Y105.254 E2.32194
G1 X84.024 Y104.658 E2.33486
G1 X88.259 Y100.424 E2.46461
G1 X87.990 Y100.097 E2.47379
G1 X84.024 Y104.062 E2.59531
G1 X84.024 Y103.466 E2.60822
G1 X87.752 Y99.739 E2.72245
G1 X87.544 Y99.350 E2.73199
G1 X84.024 Y102.870 E2.83986
G1 X84.024 Y102.274 E2.85278
G1 X87.402 Y98.896 E2.95629
G1 X87.308 Y98.394 E2.96736
G1 X84.024 Y101.678 E3.06800
G1 X84.024 Y101.082 E3.08091
G1 X87.287 Y97.819 E3.18091
G1 X87.401 Y97.110 E3.19647
G1 X84.024 Y100.486 E3.29993
G1 X84.024 Y99.890 E3.31284
G1 X87.640 Y96.274 E3.42365
G1 X87.044 Y96.274 E3.43656
G1 X84.024 Y99.294 E3.52911
G1 X84.024 Y98.698 E3.54202
G1 X86.448 Y96.274 E3.61630
G1 X85.852 Y96.274 E3.62922
G1 X84.024 Y98.102 E3.68523
G1 X84.024 Y97.506 E3.69815
G1 X85.256 Y96.274 E3.73590
G1 X84.660 Y96.274 E3.74881
G1 X84.024 Y96.910 E3.76830
G1 X84.024 Y96.314 E3.78122
G1 X84.064 Y96.274 E3.78244
G1 F1800.000 E2.78244
G92 E0
G1 X104.625 Y96.200 F7800.000
G1 E1.00000 F1800.000
G1 X104.625 Y91.200 E1.06283 F940.468
G1 X104.564 Y89.674 F7800.000
G1 X104.524 Y89.714 E1.06406 F3291.638
G1 X104.524 Y90.323 E1.07725
G1 X105.173 Y89.674 E1.09715
G1 X105.782 Y89.674 E1.11035
G1 X104.548 Y90.909 E1.14819
G1 X104.999 Y91.067 E1.15855
G1 X106.392 Y89.674 E1.20122
G1 X107.001 Y89.674 E1.21442
G1 X105.549 Y91.126 E1.25890
G1 X106.158 Y91.126 E1.27210
G1 X107.610 Y89.674 E1.31658
G1 X108.219 Y89.674 E1.32978
G1 X106.767 Y91.126 E1.37426
G1 X107.377 Y91.126 E1.38746
G1 X108.828 Y89.674 E1.43194
G1 X109.437 Y89.674 E1.44514
G1 X107.986 Y91.126 E1.48962
G1 X108.595 Y91.126 E1.50281
G1 X110.046 Y89.674 E1.54730
G1 X110.656 Y89.674 E1.56049
G1 X109.204 Y91.126 E1.60497
G1 X109.813 Y91.126 E1.61817
G1 X111.265 Y89.674 E1.66265
G1 X111.874 Y89.674 E1.67585
G1 X110.422 Y91.126 E1.72033
G1 X111.031 Y91.126 E1.73353
G1 X112.483 Y89.674 E1.77801
G1 X113.092 Y89.674 E1.79121
