; generated by Slic3r 1.1.7 on 2015-07-11 at 03:42:44

; perimeters extrusion width = 0.40mm
; infill extrusion width = 0.42mm
; solid infill extrusion width = 0.42mm
; top infill extrusion width = 0.42mm

G21 ; set units to millimeters
M107
M190 S65 ; wait for bed temperature to be reached
M104 S215 ; set temperature
G28 ; home all axes

M109 S215 ; wait for temperature to be reached
G90 ; use absolute coordinates
G92 E0
M82 ; use absolute distances for extrusion
G1 F1800.000 E-1.00000
G92 E0
G1 Z0.350 F7800.000
G1 X88.042 Y97.293 F7800.000
G1 E1.00000 F1800.000
G1 X88.623 Y96.816 E1.02880 F720.000
G1 X89.285 Y96.462 E1.05760
G1 X90.003 Y96.245 E1.08638
G1 X90.750 Y96.171 E1.11519
G1 X91.321 Y96.227 E1.13720
G1 X91.497 Y96.244 E1.14397 F720.000
G1 X92.215 Y96.462 E1.17278
G1 X92.877 Y96.816 E1.20156
G1 X93.457 Y97.292 E1.23035
G1 X93.934 Y97.873 E1.25916
G1 X94.288 Y98.535 E1.28795
G1 X94.505 Y99.253 E1.31673
G1 X94.579 Y100.000 E1.34554
G1 X94.505 Y100.747 E1.37434
G1 X94.288 Y101.465 E1.40312
G1 X94.204 Y101.621 E1.40989
G1 X93.934 Y102.127 E1.43191
G1 X93.458 Y102.708 E1.46071
G1 X92.877 Y103.184 E1.48951
G1 X92.216 Y103.537 E1.51829
G1 X91.497 Y103.756 E1.54710
G1 X90.750 Y103.829 E1.57588
G1 X90.003 Y103.755 E1.60469
G1 X89.285 Y103.538 E1.63347
G1 X88.623 Y103.184 E1.66227
G1 X88.042 Y102.708 E1.69107
G1 X87.566 Y102.127 E1.71986
G1 X87.212 Y101.466 E1.74864
G1 X86.994 Y100.747 E1.77745
G1 X86.921 Y100.000 E1.80624
G1 X86.994 Y99.253 E1.83503
G1 X87.213 Y98.534 E1.86384
G1 X87.566 Y97.873 E1.89262
G1 X88.004 Y97.339 E1.91911
G1 X88.494 Y97.744 F7800.000
G1 X88.978 Y97.347 E1.94311 F720.000
G1 X89.529 Y97.052 E1.96710
G1 X90.127 Y96.871 E1.99108
G1 X90.637 Y96.821 E2.01072
G1 X90.750 Y96.810 E2.01508 F720.000
G1 X91.372 Y96.871 E2.03907
G1 X91.971 Y97.053 E2.06307
G1 X92.522 Y97.347 E2.08705
G1 X93.006 Y97.744 E2.11104
G1 X93.403 Y98.228 E2.13504
G1 X93.698 Y98.779 E2.15903
G1 X93.879 Y99.377 E2.18301
G1 X93.940 Y100.000 E2.20701
G1 X93.879 Y100.623 E2.23101
G1 X93.698 Y101.221 E2.25499
G1 X93.644 Y101.321 E2.25936
G1 X93.403 Y101.772 E2.27898
G1 X93.006 Y102.256 E2.30298
G1 X92.522 Y102.653 E2.32697
G1 X91.971 Y102.947 E2.35095
G1 X91.372 Y103.129 E2.37495
G1 X90.750 Y103.190 E2.39894
G1 X90.128 Y103.129 E2.42293
G1 X89.529 Y102.948 E2.44692
G1 X88.978 Y102.653 E2.47091
G1 X88.494 Y102.256 E2.49491
G1 X88.097 Y101.772 E2.51890
G1 X87.803 Y101.221 E2.54288
G1 X87.621 Y100.622 E2.56688
G1 X87.560 Y100.000 E2.59087
G1 X87.621 Y99.378 E2.61486
G1 X87.803 Y98.779 E2.63886
G1 X88.097 Y98.228 E2.66284
G1 X88.456 Y97.790 E2.68453
G1 X88.946 Y98.196 F7800.000
G1 X89.332 Y97.878 E2.70372 F504.000
G1 X89.774 Y97.643 E2.72291
G1 X90.252 Y97.497 E2.74210
G1 X90.750 Y97.448 E2.76129
G1 X91.197 Y97.492 E2.77851
G1 X91.727 Y97.643 E2.79963 F504.000
G1 X92.168 Y97.878 E2.81882
G1 X92.554 Y98.196 E2.83800
G1 X92.872 Y98.582 E2.85719
G1 X93.107 Y99.024 E2.87638
G1 X93.253 Y99.502 E2.89557
G1 X93.302 Y100.000 E2.91476
G1 X93.253 Y100.498 E2.93395
G1 X93.083 Y101.022 E2.95507
G1 X92.872 Y101.418 E2.97229
G1 X92.554 Y101.804 E2.99148
G1 X92.168 Y102.122 E3.01067
G1 X91.727 Y102.357 E3.02985
G1 X91.248 Y102.503 E3.04904
G1 X90.750 Y102.552 E3.06823
G1 X90.252 Y102.503 E3.08742
G1 X89.774 Y102.357 E3.10661
G1 X89.332 Y102.122 E3.12580
G1 X88.946 Y101.804 E3.14499
G1 X88.628 Y101.418 E3.16417
G1 X88.393 Y100.977 E3.18336
G1 X88.247 Y100.498 E3.20255
G1 X88.198 Y100.000 E3.22174
G1 X88.247 Y99.502 E3.24093
G1 X88.393 Y99.023 E3.26012
G1 X88.628 Y98.582 E3.27930
G1 X88.908 Y98.242 E3.29619
G1 X91.414 Y97.156 F7800.000
G1 X104.379 Y90.779 F7800.000
G1 X104.379 Y109.221 E4.00364 F720.000
G1 X115.623 Y109.221 E4.43497
G1 X115.623 Y109.979 E4.46403
G1 X84.371 Y109.979 E5.66284
G1 X84.371 Y90.021 E6.42841
G1 X115.623 Y90.021 E7.62722
G1 X115.623 Y90.779 E7.65628
G1 X104.439 Y90.779 E8.08530
G1 X105.014 Y91.414 F7800.000
G1 X105.014 Y108.586 E8.74399 F720.000
G1 X116.259 Y108.586 E9.17532
G1 X116.259 Y110.614 E9.25314
G1 X83.736 Y110.614 E10.50072
G1 X83.736 Y89.386 E11.31505
G1 X116.259 Y89.386 E12.56263
G1 X116.259 Y91.414 E12.64045
G1 X105.074 Y91.414 E13.06948
G1 X105.650 Y92.050 F7800.000
G1 X105.650 Y107.950 E13.67940 F504.000
G1 X116.894 Y107.950 E14.11072
G1 X116.894 Y111.250 E14.23731
G1 X83.100 Y111.250 E15.53365
G1 X83.100 Y88.750 E16.39675
G1 X116.894 Y88.750 E17.69310
G1 X116.894 Y92.050 E17.81968
G1 X105.710 Y92.050 E18.24871
G1 X105.250 Y92.050 F7800.000
G1 X103.898 Y90.462 F7800.000
G1 X103.938 Y90.502 E18.25088 F1260.000
G1 X103.938 Y91.410 E18.28570
G1 X102.990 Y90.462 E18.33711
G1 X102.083 Y90.462 E18.37192
G1 X103.938 Y92.317 E18.47257
G1 X103.938 Y93.225 E18.50739
G1 X101.175 Y90.462 E18.65728
G1 X100.267 Y90.462 E18.69210
G1 X103.938 Y94.133 E18.89123
G1 X103.938 Y95.040 E18.92605
G1 X99.360 Y90.462 E19.17442
G1 X98.452 Y90.462 E19.20923
G1 X103.938 Y95.948 E19.50684
G1 X103.938 Y96.856 E19.54166
G1 X97.544 Y90.462 E19.88851
G1 X96.637 Y90.462 E19.92333
G1 X103.938 Y97.763 E20.31942
G1 X103.938 Y98.671 E20.35424
G1 X95.729 Y90.462 E20.79957
G1 X94.821 Y90.462 E20.83439
G1 X103.938 Y99.579 E21.32896
G1 X103.938 Y100.486 E21.36377
G1 X93.914 Y90.462 E21.90758
G1 X93.006 Y90.462 E21.94240
G1 X103.938 Y101.394 E22.53545
G1 X103.938 Y102.302 E22.57027
G1 X92.098 Y90.462 E23.21256
G1 X91.191 Y90.462 E23.24738
G1 X103.938 Y103.209 E23.93890
G1 X103.938 Y104.117 E23.97372
G1 X90.283 Y90.462 E24.71449
G1 X89.375 Y90.462 E24.74931
G1 X103.938 Y105.025 E25.53932
G1 X103.938 Y105.932 E25.57414
G1 X88.468 Y90.462 E26.41339
G1 X87.560 Y90.462 E26.44820
G1 X103.938 Y106.840 E27.33669
G1 X103.938 Y107.748 E27.37151
G1 X94.758 Y98.568 E27.86950
G1 X94.994 Y99.711 E27.91425
G1 X103.938 Y108.655 E28.39948
G1 X103.905 Y109.530 E28.43308
G1 X94.964 Y100.589 E28.91814
G1 X94.791 Y101.324 E28.94710
G1 X103.005 Y109.538 E29.39271
G1 X102.098 Y109.538 E29.42753
G1 X94.522 Y101.962 E29.83851
G1 X94.177 Y102.525 E29.86383
G1 X101.190 Y109.538 E30.24426
G1 X100.282 Y109.538 E30.27908
G1 X93.768 Y103.023 E30.63249
G1 X93.269 Y103.432 E30.65723
G1 X99.375 Y109.538 E30.98845
G1 X98.467 Y109.538 E31.02327
G1 X92.705 Y103.776 E31.33586
G1 X92.065 Y104.044 E31.36247
G1 X97.559 Y109.538 E31.66052
G1 X96.652 Y109.538 E31.69534
G1 X91.329 Y104.215 E31.98410
G1 X90.448 Y104.242 E32.01789
G1 X95.744 Y109.538 E32.30518
G1 X94.836 Y109.538 E32.34000
G1 X89.302 Y104.003 E32.64024
G1 X86.747 Y101.448 F7800.000
G1 X84.812 Y99.514 E32.74519 F1260.000
G1 X84.812 Y100.421 E32.78000
G1 X93.929 Y109.538 E33.27457
G1 X93.021 Y109.538 E33.30939
G1 X84.812 Y101.329 E33.75472
G1 X84.812 Y102.237 E33.78954
G1 X92.113 Y109.538 E34.18563
G1 X91.206 Y109.538 E34.22045
G1 X84.812 Y103.144 E34.56730
G1 X84.812 Y104.052 E34.60211
G1 X90.298 Y109.538 E34.89972
G1 X89.390 Y109.538 E34.93454
G1 X84.812 Y104.960 E35.18291
G1 X84.812 Y105.867 E35.21773
G1 X88.483 Y109.538 E35.41686
G1 X87.575 Y109.538 E35.45168
G1 X84.812 Y106.775 E35.60157
G1 X84.812 Y107.683 E35.63639
G1 X86.667 Y109.538 E35.73704
G1 X85.760 Y109.538 E35.77185
G1 X84.812 Y108.590 E35.82326
G1 X84.812 Y109.498 E35.85808
G1 X84.852 Y109.538 E35.86025
G1 X86.508 Y100.302 F7800.000
G1 X84.812 Y98.606 E35.95224 F1260.000
G1 X84.812 Y97.698 E35.98706
G1 X86.535 Y99.421 E36.08052
G1 X86.706 Y98.685 E36.10953
G1 X84.812 Y96.791 E36.21228
G1 X84.812 Y95.883 E36.24710
G1 X86.974 Y98.045 E36.36440
G1 X87.318 Y97.481 E36.38974
G1 X84.812 Y94.975 E36.52566
G1 X84.812 Y94.068 E36.56047
G1 X87.727 Y96.982 E36.71859
G1 X88.225 Y96.573 E36.74333
G1 X84.812 Y93.160 E36.92846
G1 X84.812 Y92.252 E36.96328
G1 X88.788 Y96.228 E37.17896
G1 X89.426 Y95.959 E37.20554
G1 X84.812 Y91.345 E37.45585
G1 X84.845 Y90.470 E37.48944
G1 X90.161 Y95.786 E37.77786
G1 X91.039 Y95.756 E37.81156
G1 X85.745 Y90.462 E38.09878
G1 X86.652 Y90.462 E38.13359
G1 X92.182 Y95.992 E38.43357
M106 S255
M104 S210 ; set temperature
M140 S60 ; set bed temperature
G1 F1800.000 E37.43357
G92 E0
G1 Z0.650 F7800.000
G1 X93.569 Y98.507 F7800.000
G1 E1.00000 F1800.000
G1 X93.711 Y98.774 E1.00624 F2257.151
G1 X93.893 Y99.375 E1.01924
G1 X93.955 Y100.000 E1.03224
G1 X93.893 Y100.625 E1.04524
G1 X93.711 Y101.226 E1.05824
G1 X93.415 Y101.781 E1.07124
G1 X93.016 Y102.266 E1.08424
G1 X92.531 Y102.665 E1.09724
G1 X92.401 Y102.734 E1.10027
G1 X91.976 Y102.961 E1.11024
G1 X91.375 Y103.143 E1.12324
G1 X90.750 Y103.205 E1.13624
G1 X90.125 Y103.143 E1.14924
G1 X89.524 Y102.961 E1.16224
G1 X88.969 Y102.665 E1.17524
G1 X88.484 Y102.266 E1.18824
G1 X88.085 Y101.781 E1.20124
G1 X87.789 Y101.226 E1.21424
G1 X87.607 Y100.625 E1.22724
G1 X87.545 Y100.000 E1.24024
G1 X87.607 Y99.375 E1.25324
G1 X87.789 Y98.774 E1.26624
G1 X88.085 Y98.219 E1.27924
G1 X88.484 Y97.734 E1.29224
G1 X88.969 Y97.335 E1.30524
G1 X89.524 Y97.039 E1.31824
G1 X90.125 Y96.857 E1.33124
G1 X90.750 Y96.795 E1.34424
G1 X91.230 Y96.842 E1.35421
G1 X91.375 Y96.857 E1.35724 F2257.151
G1 X91.976 Y97.039 E1.37024
G1 X92.531 Y97.335 E1.38324
G1 X93.016 Y97.734 E1.39624
G1 X93.415 Y98.219 E1.40924
G1 X93.540 Y98.454 E1.41475
G1 X93.216 Y98.696 F7800.000
G1 X93.340 Y98.927 E1.42018 F2257.151
G1 X93.499 Y99.453 E1.43155
G1 X93.553 Y100.000 E1.44292
G1 X93.499 Y100.547 E1.45429
G1 X93.340 Y101.073 E1.46566
G1 X93.081 Y101.557 E1.47702
G1 X92.732 Y101.982 E1.48839
G1 X92.307 Y102.331 E1.49976
G1 X92.213 Y102.381 E1.50198
G1 X91.823 Y102.590 E1.51113
G1 X91.297 Y102.749 E1.52250
G1 X90.750 Y102.803 E1.53387
G1 X90.203 Y102.749 E1.54524
G1 X89.677 Y102.590 E1.55661
G1 X89.193 Y102.331 E1.56798
G1 X88.768 Y101.982 E1.57935
G1 X88.700 Y101.899 E1.58156
G1 X88.419 Y101.557 E1.59072
G1 X88.160 Y101.073 E1.60209
G1 X88.001 Y100.547 E1.61346
G1 X87.947 Y100.000 E1.62483
G1 X88.001 Y99.453 E1.63619
G1 X88.160 Y98.927 E1.64756
G1 X88.369 Y98.537 E1.65672
G1 X88.419 Y98.443 E1.65893
G1 X88.768 Y98.018 E1.67030
G1 X89.193 Y97.669 E1.68167
G1 X89.677 Y97.410 E1.69304
G1 X90.203 Y97.251 E1.70441
G1 X90.644 Y97.208 E1.71357
G1 X90.750 Y97.197 E1.71578 F2257.151
G1 X91.297 Y97.251 E1.72715
G1 X91.823 Y97.410 E1.73852
G1 X92.307 Y97.669 E1.74989
G1 X92.732 Y98.018 E1.76126
G1 X93.081 Y98.443 E1.77263
G1 X93.188 Y98.643 E1.77732
G1 X92.863 Y98.884 F7800.000
G1 X92.968 Y99.081 E1.78194 F1580.006
G1 X93.105 Y99.532 E1.79168
G1 X93.151 Y100.000 E1.80142
G1 X93.105 Y100.468 E1.81116
G1 X92.968 Y100.919 E1.82090
G1 X92.746 Y101.334 E1.83063
G1 X92.448 Y101.698 E1.84037
G1 X92.024 Y102.028 E1.85149
G1 X91.669 Y102.218 E1.85983
G1 X91.218 Y102.355 E1.86957
G1 X90.750 Y102.401 E1.87931
G1 X90.282 Y102.355 E1.88904
G1 X89.831 Y102.218 E1.89878
G1 X89.416 Y101.996 E1.90852
G1 X89.052 Y101.698 E1.91826
G1 X88.754 Y101.334 E1.92800
G1 X88.532 Y100.919 E1.93774
G1 X88.395 Y100.468 E1.94748
G1 X88.349 Y100.000 E1.95722
G1 X88.395 Y99.532 E1.96696
G1 X88.532 Y99.081 E1.97670
G1 X88.754 Y98.666 E1.98643
G1 X89.052 Y98.302 E1.99617
G1 X89.416 Y98.004 E2.00591
G1 X89.831 Y97.782 E2.01565
G1 X90.282 Y97.645 E2.02539
G1 X90.750 Y97.599 E2.03513
G1 X91.151 Y97.639 E2.04347
G1 X91.669 Y97.782 E2.05458 F1580.006
G1 X92.084 Y98.004 E2.06432
G1 X92.448 Y98.302 E2.07406
G1 X92.746 Y98.666 E2.08380
G1 X92.835 Y98.832 E2.08768
G1 X91.090 Y97.243 F7800.000
G1 X105.000 Y91.400 F7800.000
G1 X105.000 Y108.600 E2.44358 F2257.151
G1 X116.219 Y108.600 E2.67571
G1 X116.219 Y110.600 E2.71710
G1 X83.750 Y110.600 E3.38893
G1 X83.750 Y89.400 E3.82759
G1 X116.219 Y89.400 E4.49942
G1 X116.219 Y91.400 E4.54080
G1 X105.060 Y91.400 E4.77169
G1 X105.400 Y91.800 F7800.000
G1 X105.400 Y108.200 E5.11104 F2257.151
G1 X116.619 Y108.200 E5.34317
G1 X116.619 Y111.000 E5.40111
G1 X83.350 Y111.000 E6.08949
G1 X83.350 Y89.000 E6.54471
G1 X116.619 Y89.000 E7.23309
G1 X116.619 Y91.800 E7.29103
G1 X105.460 Y91.800 E7.52192
G1 X105.800 Y92.200 F7800.000
G1 X105.800 Y107.800 E7.84471 F1580.006
G1 X117.019 Y107.800 E8.07684
G1 X117.019 Y111.400 E8.15133
G1 X82.950 Y111.400 E8.85627
G1 X82.950 Y88.600 E9.32804
G1 X117.019 Y88.600 E10.03298
G1 X117.019 Y92.200 E10.10747
G1 X105.860 Y92.200 E10.33836
G1 X105.400 Y92.200 F7800.000
G1 X105.280 Y91.126 F7800.000
G1 X106.731 Y89.674 E10.38284 F3950.014
G1 X107.328 Y89.674 E10.39577
G1 X105.876 Y91.126 E10.44025
G1 X106.473 Y91.126 E10.45317
G1 X107.924 Y89.674 E10.49765
G1 X108.521 Y89.674 E10.51058
G1 X107.069 Y91.126 E10.55506
G1 X107.666 Y91.126 E10.56798
G1 X109.117 Y89.674 E10.61246
G1 X109.714 Y89.674 E10.62539
G1 X108.262 Y91.126 E10.66987
G1 X108.859 Y91.126 E10.68279
G1 X110.310 Y89.674 E10.72727
G1 X110.907 Y89.674 E10.74020
G1 X109.455 Y91.126 E10.78468
G1 X110.052 Y91.126 E10.79760
G1 X111.503 Y89.674 E10.84208
G1 X112.100 Y89.674 E10.85501
G1 X110.648 Y91.126 E10.89949
G1 X111.245 Y91.126 E10.91241
G1 X112.696 Y89.674 E10.95689
G1 X113.293 Y89.674 E10.96982
G1 X111.841 Y91.126 E11.01430
G1 X112.438 Y91.126 E11.02723
G1 X113.889 Y89.674 E11.07171
G1 X114.486 Y89.674 E11.08463
G1 X113.034 Y91.126 E11.12911
G1 X113.631 Y91.126 E11.14204
G1 X115.082 Y89.674 E11.18652
G1 X115.679 Y89.674 E11.19944
G1 X114.227 Y91.126 E11.24392
G1 X114.824 Y91.126 E11.25685
G1 X115.945 Y90.005 E11.29120
G1 X115.945 Y90.601 E11.30412
G1 X115.420 Y91.126 E11.32019
G1 F1800.000 E10.32019
G92 E0
G1 X115.945 Y110.286 F7800.000
G1 E1.00000 F1800.000
G1 X115.905 Y110.326 E1.00123 F3950.014
G1 X115.308 Y110.326 E1.01415
G1 X115.945 Y109.689 E1.03366
G1 X115.945 Y109.093 E1.04658
G1 X114.712 Y110.326 E1.08436
G1 X114.115 Y110.326 E1.09729
G1 X115.567 Y108.874 E1.14177
G1 X114.970 Y108.874 E1.15469
G1 X113.519 Y110.326 E1.19917
G1 X112.922 Y110.326 E1.21210
G1 X114.374 Y108.874 E1.25658
G1 X113.777 Y108.874 E1.26951
G1 X112.326 Y110.326 E1.31399
G1 X111.729 Y110.326 E1.32691
G1 X113.181 Y108.874 E1.37139
G1 X112.584 Y108.874 E1.38432
G1 X111.133 Y110.326 E1.42880
G1 X110.536 Y110.326 E1.44172
G1 X111.988 Y108.874 E1.48620
G1 X111.391 Y108.874 E1.49913
G1 X109.940 Y110.326 E1.54361
G1 X109.343 Y110.326 E1.55653
G1 X110.795 Y108.874 E1.60101
G1 X110.198 Y108.874 E1.61394
G1 X108.747 Y110.326 E1.65842
G1 X108.150 Y110.326 E1.67134
G1 X109.602 Y108.874 E1.71582
G1 X109.005 Y108.874 E1.72875
G1 X107.554 Y110.326 E1.77323
G1 X106.957 Y110.326 E1.78615
G1 X108.409 Y108.874 E1.83063
G1 X107.812 Y108.874 E1.84356
G1 X106.361 Y110.326 E1.88804
G1 X105.764 Y110.326 E1.90096
G1 X107.216 Y108.874 E1.94545
G1 X106.619 Y108.874 E1.95837
G1 X105.168 Y110.326 E2.00285
G1 X104.571 Y110.326 E2.01578
G1 X106.023 Y108.874 E2.06026
G1 X105.426 Y108.874 E2.07318
G1 X103.975 Y110.326 E2.11766
G1 X103.378 Y110.326 E2.13059
G1 X104.830 Y108.874 E2.17507
G1 X104.726 Y108.382 E2.18598
G1 X102.782 Y110.326 E2.24555
G1 X102.185 Y110.326 E2.25848
G1 X104.726 Y107.785 E2.33633
G1 X104.726 Y107.189 E2.34926
G1 X101.589 Y110.326 E2.44539
G1 X100.992 Y110.326 E2.45832
G1 X104.726 Y106.592 E2.57273
G1 X104.726 Y105.996 E2.58566
G1 X100.396 Y110.326 E2.71835
G1 X99.799 Y110.326 E2.73128
G1 X104.726 Y105.399 E2.88225
G1 X104.726 Y104.803 E2.89517
G1 X99.203 Y110.326 E3.06442
G1 X98.606 Y110.326 E3.07735
G1 X104.726 Y104.206 E3.26488
G1 X104.726 Y103.610 E3.27780
G1 X98.010 Y110.326 E3.48361
G1 X97.413 Y110.326 E3.49653
G1 X104.726 Y103.013 E3.72062
G1 X104.726 Y102.417 E3.73355
G1 X96.817 Y110.326 E3.97591
G1 X96.220 Y110.326 E3.98884
G1 X104.726 Y101.820 E4.24948
G1 X104.726 Y101.224 E4.26240
G1 X95.624 Y110.326 E4.54133
G1 X95.027 Y110.326 E4.55425
G1 X104.726 Y100.627 E4.85145
G1 X104.726 Y100.031 E4.86438
G1 X94.431 Y110.326 E5.17986
G1 X93.834 Y110.326 E5.19278
G1 X104.726 Y99.434 E5.52654
G1 X104.726 Y98.838 E5.53947
G1 X93.238 Y110.326 E5.89151
G1 X92.641 Y110.326 E5.90443
G1 X104.726 Y98.241 E6.27475
G1 X104.726 Y97.645 E6.28767
G1 X92.045 Y110.326 E6.67627
G1 X91.448 Y110.326 E6.68919
G1 X104.726 Y97.048 E7.09607
G1 X104.726 Y96.452 E7.10899
G1 X90.852 Y110.326 E7.53414
G1 X90.255 Y110.326 E7.54707
G1 X104.726 Y95.855 E7.99050
G1 X104.726 Y95.259 E8.00343
G1 X89.659 Y110.326 E8.46514
G1 X89.062 Y110.326 E8.47806
G1 X104.726 Y94.662 E8.95805
G1 X104.726 Y94.066 E8.97098
G1 X88.466 Y110.326 E9.46924
G1 X87.869 Y110.326 E9.48217
G1 X104.726 Y93.469 E9.99872
G1 X104.726 Y92.873 E10.01164
