; generated by Slic3r 1.1.7 on 2015-07-05 at 02:33:32

; perimeters extrusion width = 0.40mm
; infill extrusion width = 0.42mm
; solid infill extrusion width = 0.42mm
; top infill extrusion width = 0.42mm

G21 ; set units to millimeters
M107
M190 S65 ; wait for bed temperature to be reached
M104 S215 ; set temperature
G28 ; home all axes

M109 S215 ; wait for temperature to be reached
G90 ; use absolute coordinates
G92 E0
M82 ; use absolute distances for extrusion
G1 F1800.000 E-1.00000
G92 E0
G1 Z0.350 F7800.000
G1 X90.202 Y108.980 F7800.000
G1 E1.00000 F1800.000
G1 X91.144 Y108.132 E1.04863 F720.000
G1 X91.997 Y107.854 E1.08305
G1 X92.889 Y107.948 E1.11747
G1 X93.666 Y108.396 E1.15187
G1 X94.194 Y109.123 E1.18630
G1 X94.380 Y110.000 E1.22071
G1 X94.194 Y110.877 E1.25512
G1 X93.794 Y111.428 E1.28121
G1 X93.222 Y112.000 E1.31225
G1 X93.794 Y112.572 E1.34330
G1 X94.194 Y113.123 E1.36939
G1 X94.380 Y114.000 E1.40380
G1 X94.194 Y114.877 E1.43821
G1 X93.666 Y115.604 E1.47264
G1 X92.889 Y116.052 E1.50704
G1 X91.997 Y116.146 E1.54146
G1 X91.144 Y115.868 E1.57588
G1 X90.202 Y115.020 E1.62451
G1 X89.553 Y115.669 E1.65972
G1 X88.889 Y116.052 E1.68909
G1 X87.997 Y116.146 E1.72351
G1 X87.144 Y115.868 E1.75793
G1 X86.477 Y115.268 E1.79232
G1 X86.112 Y114.449 E1.82674
G1 X86.112 Y113.551 E1.86117
G1 X86.459 Y112.772 E1.89389
G1 X87.232 Y112.000 E1.93577
G1 X86.459 Y111.228 E1.97766
G1 X86.112 Y110.449 E2.01038
G1 X86.112 Y109.551 E2.04481
G1 X86.477 Y108.732 E2.07922
G1 X87.144 Y108.132 E2.11362
G1 X87.997 Y107.854 E2.14804
G1 X88.889 Y107.948 E2.18245
G1 X89.553 Y108.331 E2.21182
G1 X90.159 Y108.938 E2.24474
G1 X90.227 Y109.904 F7800.000
G1 X90.916 Y109.214 E2.28216 F720.000
G1 X90.916 Y109.192 E2.28302
G1 X91.469 Y108.694 E2.31152
G1 X92.065 Y108.501 E2.33558
G1 X92.689 Y108.566 E2.35962
G1 X93.231 Y108.879 E2.38367
G1 X93.600 Y109.387 E2.40772
G1 X93.730 Y110.000 E2.43177
G1 X93.600 Y110.613 E2.45582
G1 X93.309 Y111.014 E2.47481
G1 X92.323 Y112.000 E2.52832
G1 X93.309 Y112.986 E2.58182
G1 X93.600 Y113.387 E2.60081
G1 X93.730 Y114.000 E2.62486
G1 X93.600 Y114.613 E2.64891
G1 X93.231 Y115.121 E2.67296
G1 X92.689 Y115.434 E2.69701
G1 X92.065 Y115.499 E2.72105
G1 X91.469 Y115.306 E2.74511
G1 X90.916 Y114.808 E2.77361
G1 X90.916 Y114.786 E2.77447
G1 X90.227 Y114.096 E2.81189
G1 X89.162 Y115.160 E2.86963
G1 X88.689 Y115.434 E2.89061
G1 X88.065 Y115.499 E2.91466
G1 X87.469 Y115.306 E2.93871
G1 X87.003 Y114.886 E2.96275
G1 X86.748 Y114.314 E2.98680
G1 X86.748 Y113.686 E3.01086
G1 X86.992 Y113.138 E3.03388
G1 X88.130 Y112.000 E3.09563
G1 X86.992 Y110.862 E3.15738
G1 X86.748 Y110.314 E3.18039
G1 X86.748 Y109.686 E3.20446
G1 X87.003 Y109.114 E3.22850
G1 X87.469 Y108.694 E3.25254
G1 X88.065 Y108.501 E3.27659
G1 X88.689 Y108.566 E3.30064
G1 X89.162 Y108.840 E3.32163
G1 X90.184 Y109.861 E3.37706
G1 X90.227 Y110.803 F7800.000
G1 X91.552 Y109.475 E3.44903 F504.000
G1 X91.794 Y109.257 E3.46151
G1 X92.133 Y109.147 E3.47519
G1 X92.488 Y109.184 E3.48888
G1 X92.797 Y109.362 E3.50256
G1 X93.006 Y109.651 E3.51624
G1 X93.080 Y110.000 E3.52993
G1 X93.006 Y110.349 E3.54361
G1 X92.824 Y110.600 E3.55550
G1 X91.424 Y112.000 E3.63147
G1 X92.824 Y113.400 E3.70744
G1 X93.006 Y113.651 E3.71933
G1 X93.080 Y114.000 E3.73301
G1 X93.006 Y114.349 E3.74669
G1 X92.797 Y114.638 E3.76038
G1 X92.488 Y114.816 E3.77406
G1 X92.133 Y114.853 E3.78774
G1 X91.794 Y114.743 E3.80143
G1 X91.552 Y114.525 E3.81390
G1 X90.227 Y113.197 E3.88588
G1 X88.772 Y114.652 E3.96478
G1 X88.488 Y114.816 E3.97737
G1 X88.133 Y114.853 E3.99106
G1 X87.794 Y114.743 E4.00474
G1 X87.529 Y114.504 E4.01842
G1 X87.384 Y114.178 E4.03210
G1 X87.384 Y113.822 E4.04579
G1 X87.525 Y113.504 E4.05911
G1 X89.029 Y112.000 E4.14072
G1 X87.525 Y110.496 E4.22234
G1 X87.384 Y110.178 E4.23566
G1 X87.384 Y109.822 E4.24935
G1 X87.529 Y109.496 E4.26303
G1 X87.794 Y109.257 E4.27671
G1 X88.133 Y109.147 E4.29039
G1 X88.488 Y109.184 E4.30408
G1 X88.772 Y109.348 E4.31667
G1 X90.184 Y110.760 E4.39327
G1 X90.330 Y110.416 F7800.000
G1 F1800.000 E3.39327
G92 E0
G1 X82.709 Y122.157 F7800.000
G1 E1.00000 F1800.000
G1 X83.421 Y120.558 E1.06714 F720.000
G1 X86.019 Y118.219 E1.20125
G1 X89.344 Y117.139 E1.33535
G1 X92.821 Y117.504 E1.46946
G1 X95.848 Y119.252 E1.60357
G1 X97.959 Y122.157 E1.74131
G1 X98.671 Y120.558 E1.80845
G1 X101.269 Y118.219 E1.94256
G1 X104.210 Y117.263 E2.06117
G1 X104.210 Y116.894 E2.07534
G1 X102.894 Y116.467 E2.12841
G1 X101.300 Y115.031 E2.21068
G1 X100.428 Y113.072 E2.29294
G1 X100.428 Y110.928 E2.37521
G1 X101.300 Y108.969 E2.45747
G1 X102.894 Y107.533 E2.53974
G1 X104.934 Y106.871 E2.62201
G1 X107.066 Y107.095 E2.70428
G1 X108.924 Y108.167 E2.78654
G1 X110.184 Y109.902 E2.86881
G1 X110.630 Y112.000 E2.95107
G1 X110.184 Y114.098 E3.03334
G1 X108.924 Y115.833 E3.11561
G1 X106.861 Y117.024 E3.20697
G1 X106.938 Y117.385 E3.22114
G1 X108.071 Y117.504 E3.26484
G1 X111.098 Y119.252 E3.39894
G1 X113.153 Y122.080 E3.53305
G1 X113.880 Y125.500 E3.66716
G1 X113.153 Y128.920 E3.80127
G1 X111.098 Y131.748 E3.93537
G1 X108.071 Y133.496 E4.06948
G1 X104.594 Y133.861 E4.20359
G1 X101.269 Y132.781 E4.33769
G1 X98.671 Y130.442 E4.47180
G1 X97.959 Y128.843 E4.53894
G1 X95.848 Y131.748 E4.67668
G1 X92.821 Y133.496 E4.81079
G1 X89.344 Y133.861 E4.94490
G1 X86.019 Y132.781 E5.07900
G1 X83.421 Y130.442 E5.21311
G1 X82.709 Y128.843 E5.28025
G1 X80.598 Y131.748 E5.41799
G1 X77.571 Y133.496 E5.55210
G1 X74.094 Y133.861 E5.68621
G1 X70.769 Y132.781 E5.82031
G1 X68.171 Y130.442 E5.95442
G1 X66.749 Y127.248 E6.08853
G1 X66.749 Y123.752 E6.22263
G1 X68.171 Y120.558 E6.35674
G1 X70.769 Y118.219 E6.49085
G1 X73.710 Y117.263 E6.60946
G1 X73.710 Y116.894 E6.62363
G1 X72.394 Y116.467 E6.67670
G1 X70.800 Y115.031 E6.75897
G1 X69.928 Y113.072 E6.84124
G1 X69.928 Y110.928 E6.92350
G1 X70.800 Y108.969 E7.00577
G1 X72.394 Y107.533 E7.08804
G1 X74.434 Y106.871 E7.17030
G1 X76.566 Y107.095 E7.25257
G1 X78.424 Y108.167 E7.33484
G1 X79.684 Y109.902 E7.41710
G1 X80.130 Y112.000 E7.49937
G1 X79.684 Y114.098 E7.58164
G1 X78.424 Y115.833 E7.66390
G1 X76.361 Y117.024 E7.75527
G1 X76.438 Y117.385 E7.76944
G1 X77.571 Y117.504 E7.81313
G1 X80.598 Y119.252 E7.94724
G1 X82.674 Y122.109 E8.08268
G1 F1800.000 E7.08268
G92 E0
G1 X101.453 Y113.812 F7800.000
G1 E1.00000 F1800.000
G1 X101.064 Y112.937 E1.03674 F720.000
G1 X101.064 Y111.063 E1.10864
G1 X101.826 Y109.351 E1.18054
G1 X103.219 Y108.096 E1.25244
G1 X104.318 Y107.739 E1.29677
G1 X105.001 Y107.517 E1.32434 F720.000
G1 X106.866 Y107.713 E1.39625
G1 X108.489 Y108.650 E1.46815
G1 X109.591 Y110.167 E1.54005
G1 X109.980 Y112.000 E1.61195
G1 X109.591 Y113.833 E1.68385
G1 X108.489 Y115.350 E1.75575
G1 X106.866 Y116.287 E1.82765
G1 X105.001 Y116.483 E1.89956
G1 X103.219 Y115.904 E1.97146
G1 X101.826 Y114.649 E2.04336
G1 X101.478 Y113.867 E2.07622
G1 X102.034 Y113.554 F7800.000
G1 X101.699 Y112.802 E2.10778 F504.000
G1 X101.699 Y111.198 E2.16931
G1 X102.352 Y109.732 E2.23084
G1 X103.544 Y108.659 E2.29238
G1 X105.069 Y108.163 E2.35392
G1 X106.084 Y108.270 E2.39306
G1 X106.665 Y108.331 E2.41546 F504.000
G1 X108.054 Y109.133 E2.47699
G1 X108.997 Y110.431 E2.53853
G1 X109.331 Y112.000 E2.60006
G1 X108.997 Y113.569 E2.66160
G1 X108.054 Y114.867 E2.72313
G1 X106.665 Y115.669 E2.78467
G1 X105.069 Y115.837 E2.84621
G1 X103.544 Y115.341 E2.90774
G1 X102.352 Y114.268 E2.96928
G1 X102.058 Y113.608 E2.99696
G1 F1800.000 E1.99696
G92 E0
G1 X106.185 Y107.883 F7800.000
G1 X79.480 Y112.000 F7800.000
G1 E1.00000 F1800.000
G1 X79.091 Y113.833 E1.07190 F720.000
G1 X77.989 Y115.350 E1.14380
G1 X76.366 Y116.287 E1.21570
G1 X74.502 Y116.483 E1.28760
G1 X72.719 Y115.904 E1.35951
G1 X71.326 Y114.649 E1.43141
G1 X70.564 Y112.937 E1.50331
G1 X70.564 Y111.063 E1.57521
G1 X71.326 Y109.351 E1.64711
G1 X72.719 Y108.096 E1.71901
G1 X73.818 Y107.739 E1.76334
G1 X74.502 Y107.517 E1.79091 F720.000
G1 X76.366 Y107.713 E1.86281
G1 X77.989 Y108.650 E1.93471
G1 X79.091 Y110.167 E2.00661
G1 X79.468 Y111.941 E2.07622
G1 X78.831 Y112.000 F7800.000
G1 X78.497 Y113.569 E2.13775 F504.000
G1 X77.554 Y114.867 E2.19929
G1 X76.165 Y115.669 E2.26082
G1 X74.569 Y115.837 E2.32236
G1 X73.044 Y115.341 E2.38389
G1 X71.852 Y114.268 E2.44543
G1 X71.199 Y112.802 E2.50697
G1 X71.199 Y111.198 E2.56850
G1 X71.852 Y109.732 E2.63004
G1 X73.044 Y108.659 E2.69157
G1 X74.569 Y108.163 E2.75311
G1 X75.910 Y108.304 E2.80481
G1 X76.165 Y108.331 E2.81465 F504.000
G1 X77.554 Y109.133 E2.87618
G1 X78.497 Y110.431 E2.93772
G1 X78.818 Y111.941 E2.99695
G1 F1800.000 E1.99695
G92 E0
G1 X75.853 Y108.054 F7800.000
G1 X82.343 Y123.678 F7800.000
G1 E1.00000 F1800.000
G1 X82.710 Y123.717 E1.01417 F720.000
G1 X83.947 Y120.940 E1.13076
G1 X86.344 Y118.782 E1.25450
G1 X89.412 Y117.785 E1.37824
G1 X92.620 Y118.122 E1.50199
G1 X95.414 Y119.735 E1.62572
G1 X97.310 Y122.345 E1.74946
G1 X97.593 Y123.678 E1.80176
G1 X97.960 Y123.717 E1.81593
G1 X99.197 Y120.940 E1.93251
G1 X101.594 Y118.782 E2.05626
G1 X104.662 Y117.785 E2.18000
G1 X107.870 Y118.122 E2.30374
G1 X110.664 Y119.735 E2.42748
G1 X112.560 Y122.345 E2.55122
G1 X113.230 Y125.500 E2.67496
G1 X112.560 Y128.655 E2.79871
G1 X110.664 Y131.265 E2.92245
G1 X107.870 Y132.878 E3.04619
G1 X104.662 Y133.215 E3.16993
G1 X101.594 Y132.218 E3.29367
G1 X99.197 Y130.060 E3.41742
G1 X97.960 Y127.283 E3.53400
G1 X97.593 Y127.322 E3.54817
G1 X97.310 Y128.655 E3.60046
G1 X95.414 Y131.265 E3.72420
G1 X92.620 Y132.878 E3.84794
G1 X89.412 Y133.215 E3.97169
G1 X86.344 Y132.218 E4.09543
G1 X83.947 Y130.060 E4.21917
G1 X82.710 Y127.283 E4.33575
G1 X82.343 Y127.322 E4.34992
G1 X82.060 Y128.655 E4.40222
G1 X80.164 Y131.265 E4.52596
G1 X77.370 Y132.878 E4.64970
G1 X74.162 Y133.215 E4.77344
G1 X71.094 Y132.218 E4.89718
G1 X68.697 Y130.060 E5.02092
G1 X67.385 Y127.113 E5.14466
G1 X67.385 Y123.887 E5.26841
G1 X68.697 Y120.940 E5.39215
G1 X71.094 Y118.782 E5.51589
G1 X74.162 Y117.785 E5.63963
G1 X77.370 Y118.122 E5.76337
G1 X80.164 Y119.735 E5.88712
G1 X82.060 Y122.345 E6.01086
G1 X82.331 Y123.619 E6.06085
G1 X81.721 Y123.810 F7800.000
G1 X82.081 Y125.500 E6.12711 F504.000
G1 X81.466 Y128.391 E6.24049
G1 X79.729 Y130.782 E6.35387
G1 X77.169 Y132.260 E6.46724
G1 X74.230 Y132.569 E6.58062
G1 X71.419 Y131.656 E6.69400
G1 X69.222 Y129.678 E6.80737
G1 X68.020 Y126.978 E6.92075
G1 X68.020 Y124.022 E7.03413
G1 X69.222 Y121.322 E7.14750
G1 X71.419 Y119.344 E7.26088
G1 X74.230 Y118.431 E7.37426
G1 X76.607 Y118.681 E7.46594
G1 X77.169 Y118.740 E7.48763 F504.000
G1 X79.729 Y120.218 E7.60101
G1 X81.466 Y122.609 E7.71438
G1 X81.709 Y123.752 E7.75919
G1 F1800.000 E6.75919
G92 E0
G1 X76.989 Y118.798 F7800.000
G1 X83.270 Y124.022 F7800.000
G1 E1.00000 F1800.000
G1 X84.472 Y121.322 E1.11338 F504.000
G1 X86.669 Y119.344 E1.22676
G1 X89.480 Y118.431 E1.34013
G1 X91.857 Y118.681 E1.43181
G1 X92.419 Y118.740 E1.45351 F504.000
G1 X94.979 Y120.218 E1.56688
G1 X96.716 Y122.609 E1.68026
G1 X97.331 Y125.500 E1.79364
G1 X96.716 Y128.391 E1.90701
G1 X94.979 Y130.782 E2.02039
G1 X92.419 Y132.260 E2.13376
G1 X89.480 Y132.569 E2.24714
G1 X86.669 Y131.656 E2.36052
G1 X84.472 Y129.678 E2.47390
G1 X83.270 Y126.978 E2.58727
G1 X83.270 Y124.082 E2.69835
G1 F1800.000 E1.69835
G92 E0
G1 X92.117 Y118.984 F7800.000
G1 X98.520 Y124.022 F7800.000
G1 E1.00000 F1800.000
G1 X99.722 Y121.322 E1.11338 F504.000
G1 X101.919 Y119.344 E1.22676
G1 X104.730 Y118.431 E1.34013
G1 X107.107 Y118.681 E1.43181
G1 X107.669 Y118.740 E1.45351 F504.000
G1 X110.229 Y120.218 E1.56688
G1 X111.966 Y122.609 E1.68026
G1 X112.581 Y125.500 E1.79364
G1 X111.966 Y128.391 E1.90701
G1 X110.229 Y130.782 E2.02039
G1 X107.669 Y132.260 E2.13376
G1 X104.730 Y132.569 E2.24714
G1 X101.919 Y131.656 E2.36052
G1 X99.722 Y129.678 E2.47390
G1 X98.520 Y126.978 E2.58727
G1 X98.520 Y124.082 E2.69835
G1 F1800.000 E1.69835
G92 E0
G1 X107.239 Y118.304 F7800.000
G1 X104.801 Y113.163 F7800.000
G1 E1.00000 F1800.000
G1 X104.387 Y112.789 E1.02141 F720.000
G1 X104.160 Y112.279 E1.04283
G1 X104.160 Y111.721 E1.06425
G1 X104.387 Y111.211 E1.08566
G1 X104.801 Y110.837 E1.10707
G1 X105.245 Y110.693 E1.12496
G1 X105.332 Y110.665 E1.12849 F720.000
G1 X105.888 Y110.723 E1.14990
G1 X106.371 Y111.002 E1.17132
G1 X106.699 Y111.454 E1.19274
G1 X106.815 Y112.000 E1.21415
G1 X106.699 Y112.546 E1.23556
G1 X106.371 Y112.998 E1.25698
G1 X105.888 Y113.277 E1.27839
G1 X105.332 Y113.335 E1.29981
G1 X104.858 Y113.181 E1.31892
G1 X104.605 Y113.767 F7800.000
G1 X104.476 Y113.725 E1.32410 F720.000
G1 X103.861 Y113.171 E1.35588
G1 X103.524 Y112.414 E1.38766
G1 X103.524 Y111.586 E1.41945
G1 X103.861 Y110.829 E1.45123
G1 X104.476 Y110.275 E1.48301
G1 X105.264 Y110.019 E1.51479
G1 X105.863 Y110.081 E1.53786
G1 X106.088 Y110.105 E1.54657 F720.000
G1 X106.806 Y110.519 E1.57835
G1 X107.293 Y111.190 E1.61013
G1 X107.465 Y112.000 E1.64191
G1 X107.293 Y112.810 E1.67369
G1 X106.806 Y113.481 E1.70547
G1 X106.088 Y113.895 E1.73725
G1 X105.264 Y113.981 E1.76903
G1 X104.662 Y113.786 E1.79332
G1 X104.409 Y114.372 F7800.000
G1 X104.152 Y114.288 E1.80369 F720.000
G1 X103.335 Y113.553 E1.84583
G1 X102.888 Y112.549 E1.88798
G1 X102.888 Y111.451 E1.93012
G1 X103.335 Y110.447 E1.97227
G1 X104.152 Y109.712 E2.01442
G1 X104.852 Y109.484 E2.04267
G1 X105.196 Y109.372 E2.05656 F720.000
G1 X106.289 Y109.487 E2.09871
G1 X107.241 Y110.037 E2.14085
G1 X107.886 Y110.925 E2.18300
G1 X108.115 Y112.000 E2.22514
G1 X107.886 Y113.075 E2.26729
G1 X107.241 Y113.963 E2.30943
G1 X106.289 Y114.513 E2.35158
G1 X105.196 Y114.628 E2.39373
G1 X104.466 Y114.390 E2.42321
G1 F1800.000 E1.42321
G92 E0
G1 X104.409 Y103.635 F7800.000
G1 E1.00000 F1800.000
G1 X135.126 Y103.635 E2.17834 F720.000
G1 X135.733 Y103.699 E2.20173
G1 X136.036 Y103.874 E2.21517 F720.000
G1 X136.242 Y104.157 E2.22861
G1 X136.351 Y104.670 E2.24873
G1 X136.351 Y143.830 E3.75088
G1 X136.242 Y144.343 E3.77100
G1 X136.036 Y144.626 E3.78444
G1 X135.733 Y144.801 E3.79788
G1 X135.126 Y144.865 E3.82128
G1 X64.468 Y144.865 E6.53173
G1 X64.051 Y144.730 E6.54854
G1 X63.791 Y144.495 E6.56198
G1 X63.649 Y144.175 E6.57542
G1 X63.649 Y104.325 E8.10408
G1 X63.791 Y104.005 E8.11752
G1 X64.051 Y103.770 E8.13095
G1 X64.468 Y103.635 E8.14776
G1 X104.349 Y103.635 E9.67757
G1 X104.409 Y102.999 F7800.000
G1 X135.160 Y102.999 E10.85719 F720.000
G1 X135.934 Y103.081 E10.88705
G1 X136.471 Y103.391 E10.91085
G1 X136.836 Y103.893 E10.93466
G1 X136.987 Y104.604 E10.96252
G1 X136.987 Y143.896 E12.46980
G1 X136.836 Y144.607 E12.49766
G1 X136.471 Y145.109 E12.52147
G1 X135.934 Y145.419 E12.54527
G1 X135.160 Y145.501 E12.57513
G1 X64.367 Y145.501 E15.29072
G1 X63.727 Y145.292 E15.31657
G1 X63.265 Y144.877 E15.34038
G1 X63.013 Y144.310 E15.36418
G1 X63.013 Y104.190 E16.90321
G1 X63.265 Y103.623 E16.92701
G1 X63.726 Y103.208 E16.95082
G1 X64.367 Y102.999 E16.97667
G1 X104.349 Y102.999 E18.51034 F720.000
G1 X104.409 Y102.364 F7800.000
G1 X135.193 Y102.364 E19.69123 F504.000
G1 X136.135 Y102.463 E19.72755
G1 X136.906 Y102.908 E19.76172 F504.000
G1 X137.430 Y103.629 E19.79589
G1 X137.623 Y104.537 E19.83150
G1 X137.623 Y143.963 E21.34390
G1 X137.430 Y144.871 E21.37951
G1 X136.906 Y145.592 E21.41368
G1 X136.135 Y146.037 E21.44785
G1 X135.193 Y146.136 E21.48417
G1 X64.267 Y146.136 E24.20490
G1 X63.402 Y145.855 E24.23980
G1 X62.740 Y145.259 E24.27397
G1 X62.377 Y144.445 E24.30814
G1 X62.377 Y104.055 E25.85753
G1 X62.740 Y103.241 E25.89170
G1 X63.402 Y102.645 E25.92587
G1 X64.267 Y102.364 E25.96076
G1 X104.349 Y102.364 E27.49830
G1 X136.204 Y102.857 F7800.000
G1 X135.667 Y104.169 F7800.000
G1 X135.812 Y104.314 E27.50617 F1260.000
G1 X135.911 Y105.313 E27.54466
G1 X134.673 Y104.076 E27.61178
G1 X133.774 Y104.076 E27.64628
G1 X135.911 Y106.212 E27.76220
G1 X135.911 Y107.112 E27.79670
G1 X132.874 Y104.076 E27.96142
G1 X131.975 Y104.076 E27.99593
G1 X135.911 Y108.012 E28.20944
G1 X135.911 Y108.911 E28.24395
G1 X131.075 Y104.076 E28.50626
G1 X130.176 Y104.076 E28.54077
G1 X135.911 Y109.811 E28.85188
G1 X135.911 Y110.710 E28.88639
G1 X129.276 Y104.076 E29.24630
G1 X128.377 Y104.076 E29.28081
G1 X135.911 Y111.610 E29.68952
G1 X135.911 Y112.509 E29.72403
G1 X127.477 Y104.076 E30.18154
