; generated by Slic3r 1.1.7 on 2015-10-01 at 03:23:14

; perimeters extrusion width = 0.40mm
; infill extrusion width = 0.42mm
; solid infill extrusion width = 0.42mm
; top infill extrusion width = 0.42mm

G21 ; set units to millimeters
M107
M190 S65 ; wait for bed temperature to be reached
M104 S215 ; set temperature
G28
G29
M109 S215 ; wait for temperature to be reached
G90 ; use absolute coordinates
G92 E0
M82 ; use absolute distances for extrusion
G1 F720.000 E-0.75000
G92 E0
G1 Z0.350 F7800.000
G1 X81.621 Y92.275 F7800.000
G1 E0.75000 F720.000
G1 X81.621 Y81.621 E1.12151 F720.000
G1 X118.379 Y81.621 E2.40334
G1 X118.379 Y88.379 E2.63900
G1 X108.379 Y88.379 E2.98773 F720.000
G1 X108.379 Y98.379 E3.33645
G1 X98.379 Y98.379 E3.68518
G1 X98.379 Y108.379 E4.03391
G1 X88.379 Y108.379 E4.38263
G1 X88.379 Y118.379 E4.73136
G1 X81.621 Y118.379 E4.96701
G1 X81.621 Y92.335 E5.87524
G1 X80.986 Y92.335 F7800.000
G1 X80.986 Y80.986 E6.27101 F720.000
G1 X119.014 Y80.986 E7.59718 F720.000
G1 X119.014 Y89.014 E7.87716
G1 X109.014 Y89.014 E8.22589
G1 X109.014 Y99.014 E8.57462
G1 X99.014 Y99.014 E8.92334
G1 X99.014 Y109.014 E9.27207
G1 X89.014 Y109.014 E9.62080
G1 X89.014 Y119.014 E9.96953
G1 X80.986 Y119.014 E10.24951
G1 X80.986 Y92.395 E11.17781
G1 X80.350 Y92.395 F7800.000
G1 X80.350 Y80.350 E11.59784 F504.000
G1 X119.650 Y80.350 E12.96834
G1 X119.650 Y89.650 E13.29266
G1 X109.650 Y89.650 E13.64138 F504.000
G1 X109.650 Y99.650 E13.99011
G1 X99.650 Y99.650 E14.33884
G1 X99.650 Y109.650 E14.68756
G1 X89.650 Y109.650 E15.03629
G1 X89.650 Y119.650 E15.38502
G1 X80.350 Y119.650 E15.70933
G1 X80.350 Y92.455 E16.65771
G1 F720.000 E15.90771
G92 E0
G1 X119.771 Y89.269 F7800.000
G1 X117.898 Y82.062 F7800.000
G1 E0.75000 F720.000
G1 X117.938 Y82.102 E0.75197 F1260.000
G1 X117.938 Y83.009 E0.78361
G1 X116.991 Y82.062 E0.83033
G1 X116.083 Y82.062 E0.86196
G1 X117.938 Y83.917 E0.95342
G1 X117.938 Y84.824 E0.98506
G1 X115.176 Y82.062 E1.12126
G1 X114.269 Y82.062 E1.15290
G1 X117.938 Y85.731 E1.33384
G1 X117.938 Y86.638 E1.36548
G1 X113.362 Y82.062 E1.59117
G1 X112.455 Y82.062 E1.62280
G1 X117.938 Y87.545 E1.89323
G1 X117.423 Y87.938 E1.91581
G1 X111.547 Y82.062 E2.20559
G1 X110.640 Y82.062 E2.23723
G1 X116.516 Y87.938 E2.52701
G1 X115.609 Y87.938 E2.55865
G1 X109.733 Y82.062 E2.84844
G1 X108.826 Y82.062 E2.88008
G1 X114.701 Y87.938 E3.16986
G1 X113.794 Y87.938 E3.20150
G1 X107.918 Y82.062 E3.49128
G1 X107.011 Y82.062 E3.52292
G1 X112.887 Y87.938 E3.81271
G1 X111.980 Y87.938 E3.84434
G1 X106.104 Y82.062 E4.13413
G1 X105.197 Y82.062 E4.16577
G1 X111.073 Y87.938 E4.45555
G1 X110.165 Y87.938 E4.48719
G1 X104.289 Y82.062 E4.77698
G1 X103.382 Y82.062 E4.80861
G1 X109.258 Y87.938 E5.09840
G1 X108.351 Y87.938 E5.13004
G1 X102.475 Y82.062 E5.41982
G1 X101.568 Y82.062 E5.45146
G1 X107.938 Y88.432 E5.76563
G1 X107.938 Y89.340 E5.79726
G1 X100.660 Y82.062 E6.15617
G1 X99.753 Y82.062 E6.18781
G1 X107.938 Y90.247 E6.59146
G1 X107.938 Y91.154 E6.62310
G1 X98.846 Y82.062 E7.07149
G1 X97.939 Y82.062 E7.10313
G1 X107.938 Y92.061 E7.59627
G1 X107.938 Y92.969 E7.62791
G1 X97.031 Y82.062 E8.16579
G1 X96.124 Y82.062 E8.19743
G1 X107.938 Y93.876 E8.78005
G1 X107.938 Y94.783 E8.81169
G1 X95.217 Y82.062 E9.43905
G1 X94.310 Y82.062 E9.47069
G1 X107.938 Y95.690 E10.14280
G1 X107.938 Y96.597 E10.17443
G1 X93.403 Y82.062 E10.89129
G1 X92.495 Y82.062 E10.92292
G1 X107.938 Y97.505 E11.68452
G1 X107.464 Y97.938 E11.70691
G1 X91.588 Y82.062 E12.48987
G1 X90.681 Y82.062 E12.52151
G1 X106.557 Y97.938 E13.30447
G1 X105.649 Y97.938 E13.33611
G1 X89.774 Y82.062 E14.11906
G1 X88.866 Y82.062 E14.15070
G1 X104.742 Y97.938 E14.93366
G1 X103.835 Y97.938 E14.96530
G1 X87.959 Y82.062 E15.74826
G1 X87.052 Y82.062 E15.77990
G1 X102.928 Y97.938 E16.56286
G1 X102.021 Y97.938 E16.59450
G1 X86.145 Y82.062 E17.37745
G1 X85.237 Y82.062 E17.40909
G1 X101.113 Y97.938 E18.19205
G1 X100.206 Y97.938 E18.22369
G1 X84.330 Y82.062 E19.00665
G1 X83.423 Y82.062 E19.03829
G1 X99.299 Y97.938 E19.82125
G1 X98.392 Y97.938 E19.85289
G1 X82.516 Y82.062 E20.63585
G1 X82.062 Y82.516 E20.65822
G1 X97.938 Y98.392 E21.44118
G1 X97.938 Y99.299 E21.47281
G1 X82.062 Y83.423 E22.25577
G1 X82.062 Y84.330 E22.28741
G1 X97.938 Y100.206 E23.07037
G1 X97.938 Y101.113 E23.10201
G1 X82.062 Y85.237 E23.88497
G1 X82.062 Y86.145 E23.91661
G1 X97.938 Y102.021 E24.69957
G1 X97.938 Y102.928 E24.73120
G1 X82.062 Y87.052 E25.51416
G1 X82.062 Y87.959 E25.54580
G1 X97.938 Y103.835 E26.32876
G1 X97.938 Y104.742 E26.36040
G1 X82.062 Y88.866 E27.14336
G1 X82.062 Y89.774 E27.17500
G1 X97.938 Y105.649 E27.95796
G1 X97.938 Y106.557 E27.98959
G1 X82.062 Y90.681 E28.77255
G1 X82.062 Y91.588 E28.80419
G1 X97.938 Y107.464 E29.58715
G1 X97.505 Y107.938 E29.60955
G1 X82.062 Y92.495 E30.37114
G1 X82.062 Y93.403 E30.40278
G1 X96.597 Y107.938 E31.11963
G1 X95.690 Y107.938 E31.15126
G1 X82.062 Y94.310 E31.82337
G1 X82.062 Y95.217 E31.85501
G1 X94.783 Y107.938 E32.48238
G1 X93.876 Y107.938 E32.51401
G1 X82.062 Y96.124 E33.09664
G1 X82.062 Y97.031 E33.12827
G1 X92.969 Y107.938 E33.66615
G1 X92.061 Y107.938 E33.69779
G1 X82.062 Y97.939 E34.19093
G1 X82.062 Y98.846 E34.22257
G1 X91.154 Y107.938 E34.67096
G1 X90.247 Y107.938 E34.70260
G1 X82.062 Y99.753 E35.10625
G1 X82.062 Y100.660 E35.13789
G1 X89.340 Y107.938 E35.49680
G1 X88.432 Y107.938 E35.52844
G1 X82.062 Y101.568 E35.84260
G1 X82.062 Y102.475 E35.87424
G1 X87.938 Y108.351 E36.16403
G1 X87.938 Y109.258 E36.19566
G1 X82.062 Y103.382 E36.48545
G1 X82.062 Y104.289 E36.51709
G1 X87.938 Y110.165 E36.80687
G1 X87.938 Y111.073 E36.83851
G1 X82.062 Y105.197 E37.12829
G1 X82.062 Y106.104 E37.15993
G1 X87.938 Y111.980 E37.44972
G1 X87.938 Y112.887 E37.48135
G1 X82.062 Y107.011 E37.77114
G1 X82.062 Y107.918 E37.80278
G1 X87.938 Y113.794 E38.09256
G1 X87.938 Y114.701 E38.12420
G1 X82.062 Y108.826 E38.41399
G1 X82.062 Y109.733 E38.44562
G1 X87.938 Y115.609 E38.73541
G1 X87.938 Y116.516 E38.76705
G1 X82.062 Y110.640 E39.05683
G1 X82.062 Y111.547 E39.08847
G1 X87.938 Y117.423 E39.37826
G1 X87.545 Y117.938 E39.40083
G1 X82.062 Y112.455 E39.67126
G1 X82.062 Y113.362 E39.70290
G1 X86.638 Y117.938 E39.92858
G1 X85.731 Y117.938 E39.96022
G1 X82.062 Y114.269 E40.14116
G1 X82.062 Y115.176 E40.17280
G1 X84.824 Y117.938 E40.30900
G1 X83.917 Y117.938 E40.34064
G1 X82.062 Y116.083 E40.43210
G1 X82.062 Y116.991 E40.46373
G1 X83.009 Y117.938 E40.51045
G1 X82.102 Y117.938 E40.54209
G1 X82.062 Y117.898 E40.54406
M106 S104
M104 S210 ; set temperature
M140 S60 ; set bed temperature
G1 F720.000 E39.79406
G92 E0
G1 Z0.650 F7800.000
G1 X99.000 Y109.000 F7800.000
G1 E0.75000 F720.000
G1 X89.000 Y109.000 E0.93811 F2400.000
G1 X89.000 Y119.000 E1.12621
G1 X81.000 Y119.000 E1.27670
G1 X81.000 Y81.000 E1.99150
G1 X119.000 Y81.000 E2.70630
G1 X119.000 Y89.000 E2.85678
G1 X109.000 Y89.000 E3.04489 F2400.000
G1 X109.000 Y99.000 E3.23299
G1 X99.000 Y99.000 E3.42110
G1 X99.000 Y108.940 E3.60808
G1 X99.400 Y108.940 F7800.000
G1 X99.400 Y109.400 E3.61673 F2400.000
G1 X89.400 Y109.400 E3.80483
G1 X89.400 Y119.400 E3.99294
G1 X80.600 Y119.400 E4.15847
G1 X80.600 Y80.600 E4.88832
G1 X119.400 Y80.600 E5.61817 F2400.000
G1 X119.400 Y89.400 E5.78371
G1 X109.400 Y89.400 E5.97181
G1 X109.400 Y99.400 E6.15992
G1 X99.400 Y99.400 E6.34802
G1 X99.400 Y108.880 E6.52635
G1 X99.800 Y108.880 F7800.000
G1 X99.800 Y109.800 E6.54365 F1680.000
G1 X89.800 Y109.800 E6.73176
G1 X89.800 Y119.800 E6.91986
G1 X80.200 Y119.800 E7.10044
G1 X80.200 Y80.200 E7.84534
G1 X119.800 Y80.200 E8.59024
G1 X119.800 Y89.800 E8.77082
G1 X109.800 Y89.800 E8.95893 F1680.000
G1 X109.800 Y99.800 E9.14703
G1 X99.800 Y99.800 E9.33514
G1 X99.800 Y108.820 E9.50481
G1 F720.000 E8.75481
G92 E0
G1 X119.944 Y89.427 F7800.000
G1 X118.726 Y88.686 F7800.000
G1 E0.75000 F720.000
G1 X118.686 Y88.726 E0.75111 F4200.000
G1 X118.088 Y88.726 E0.76289
G1 X118.726 Y88.088 E0.78065
G1 X118.726 Y87.490 E0.79242
G1 X117.490 Y88.726 E0.82683
G1 X116.893 Y88.726 E0.83861
G1 X118.726 Y86.893 E0.88967
G1 X118.726 Y86.295 E0.90144
G1 X116.295 Y88.726 E0.96915
G1 X115.698 Y88.726 E0.98092
G1 X118.726 Y85.698 E1.06528
G1 X118.726 Y85.100 E1.07706
G1 X115.100 Y88.726 E1.17806
G1 X114.502 Y88.726 E1.18984
G1 X118.726 Y84.502 E1.30749
G1 X118.726 Y83.905 E1.31926
G1 X113.905 Y88.726 E1.45357
G1 X113.307 Y88.726 E1.46534
G1 X118.726 Y83.307 E1.61630
G1 X118.726 Y82.709 E1.62807
G1 X112.709 Y88.726 E1.79567
G1 X112.112 Y88.726 E1.80745
G1 X118.726 Y82.112 E1.99170
G1 X118.726 Y81.514 E2.00347
G1 X111.514 Y88.726 E2.20437
G1 X110.916 Y88.726 E2.21614
G1 X118.368 Y81.274 E2.42373
G1 X117.770 Y81.274 E2.43550
G1 X110.319 Y88.726 E2.64308
G1 X109.721 Y88.726 E2.65486
G1 X117.173 Y81.274 E2.86244
G1 X116.575 Y81.274 E2.87421
G1 X109.124 Y88.726 E3.08179
G1 X108.726 Y89.124 F7800.000
G1 X99.124 Y98.726 E3.34929 F4200.000
G1 X98.726 Y99.124 F7800.000
G1 X89.124 Y108.726 E3.61679 F4200.000
G1 X88.726 Y109.124 F7800.000
G1 X81.274 Y116.575 E3.82437 F4200.000
G1 X81.274 Y117.173 E3.83614
G1 X88.726 Y109.721 E4.04373
G1 X88.726 Y110.319 E4.05550
G1 X81.274 Y117.770 E4.26308
G1 X81.274 Y118.368 E4.27485
G1 X88.726 Y110.916 E4.48244
G1 X88.726 Y111.514 E4.49421
G1 X81.514 Y118.726 E4.69511
G1 X82.112 Y118.726 E4.70688
G1 X88.726 Y112.112 E4.89114
G1 X88.726 Y112.709 E4.90291
G1 X82.709 Y118.726 E5.07051
G1 X83.307 Y118.726 E5.08228
G1 X88.726 Y113.307 E5.23324
G1 X88.726 Y113.905 E5.24501
G1 X83.905 Y118.726 E5.37932
G1 X84.502 Y118.726 E5.39109
G1 X88.726 Y114.502 E5.50875
G1 X88.726 Y115.100 E5.52052
G1 X85.100 Y118.726 E5.62153
G1 X85.698 Y118.726 E5.63330
G1 X88.726 Y115.698 E5.71766
G1 X88.726 Y116.295 E5.72943
G1 X86.295 Y118.726 E5.79714
G1 X86.893 Y118.726 E5.80891
G1 X88.726 Y116.893 E5.85997
G1 X88.726 Y117.490 E5.87175
G1 X87.490 Y118.726 E5.90616
G1 X88.088 Y118.726 E5.91793
G1 X88.726 Y118.088 E5.93570
G1 X88.726 Y118.686 E5.94747
G1 X88.686 Y118.726 E5.94858
G1 X81.274 Y115.977 F7800.000
G1 X115.977 Y81.274 E6.91533 F4200.000
G1 X115.380 Y81.274 E6.92711
G1 X81.274 Y115.380 E7.87721
G1 X81.274 Y114.782 E7.88898
G1 X114.782 Y81.274 E8.82243
G1 X114.184 Y81.274 E8.83421
G1 X81.274 Y114.184 E9.75101
G1 X81.274 Y113.587 E9.76278
G1 X113.587 Y81.274 E10.66294
G1 X112.989 Y81.274 E10.67471
G1 X81.274 Y112.989 E11.55822
G1 X81.274 Y112.392 E11.56999
G1 X112.392 Y81.274 E12.43685
G1 X111.794 Y81.274 E12.44862
G1 X81.274 Y111.794 E13.29883
G1 X81.274 Y111.196 E13.31060
G1 X111.196 Y81.274 E14.14416
G1 X110.599 Y81.274 E14.15593
G1 X81.274 Y110.599 E14.97284
G1 X81.274 Y110.001 E14.98462
G1 X110.001 Y81.274 E15.78488
G1 X109.403 Y81.274 E15.79665
G1 X81.274 Y109.403 E16.58026
G1 X81.274 Y108.806 E16.59204
G1 X108.806 Y81.274 E17.35900
G1 X108.208 Y81.274 E17.37077
G1 X81.274 Y108.208 E18.12109
G1 X81.274 Y107.610 E18.13286
G1 X107.610 Y81.274 E18.86653
G1 X107.013 Y81.274 E18.87830
G1 X81.274 Y107.013 E19.59532
G1 X81.274 Y106.415 E19.60709
G1 X106.415 Y81.274 E20.30746
G1 X105.818 Y81.274 E20.31923
G1 X81.274 Y105.818 E21.00295
G1 X81.274 Y105.220 E21.01472
G1 X105.220 Y81.274 E21.68179
G1 X104.622 Y81.274 E21.69357
G1 X81.274 Y104.622 E22.34399
G1 X81.274 Y104.025 E22.35576
G1 X104.025 Y81.274 E22.98953
G1 X103.427 Y81.274 E23.00131
G1 X81.274 Y103.427 E23.61843
G1 X81.274 Y102.829 E23.63020
G1 X102.829 Y81.274 E24.23068
G1 X102.232 Y81.274 E24.24245
G1 X81.274 Y102.232 E24.82628
G1 X81.274 Y101.634 E24.83805
G1 X101.634 Y81.274 E25.40523
G1 X101.036 Y81.274 E25.41700
G1 X81.274 Y101.036 E25.96753
G1 X81.274 Y100.439 E25.97930
G1 X100.439 Y81.274 E26.51318
G1 X99.841 Y81.274 E26.52495
G1 X81.274 Y99.841 E27.04218
G1 X81.274 Y99.243 E27.05395
G1 X99.243 Y81.274 E27.55454
G1 X98.646 Y81.274 E27.56631
G1 X81.274 Y98.646 E28.05024
G1 X81.274 Y98.048 E28.06201
G1 X98.048 Y81.274 E28.52930
G1 X97.451 Y81.274 E28.54107
G1 X81.274 Y97.451 E28.99171
G1 X81.274 Y96.853 E29.00348
G1 X96.853 Y81.274 E29.43746
G1 X96.255 Y81.274 E29.44924
G1 X81.274 Y96.255 E29.86657
G1 X81.274 Y95.658 E29.87835
G1 X95.658 Y81.274 E30.27903
G1 X95.060 Y81.274 E30.29081
G1 X81.274 Y95.060 E30.67485
G1 X81.274 Y94.462 E30.68662
G1 X94.462 Y81.274 E31.05401
G1 X93.865 Y81.274 E31.06578
G1 X81.274 Y93.865 E31.41652
G1 X81.274 Y93.267 E31.42829
G1 X93.267 Y81.274 E31.76239
G1 X92.669 Y81.274 E31.77416
G1 X81.274 Y92.669 E32.09160
G1 X81.274 Y92.072 E32.10338
G1 X92.072 Y81.274 E32.40417
G1 X91.474 Y81.274 E32.41594
G1 X81.274 Y91.474 E32.70009
G1 X81.274 Y90.876 E32.71186
G1 X90.876 Y81.274 E32.97936
G1 X90.279 Y81.274 E32.99113
G1 X81.274 Y90.279 E33.24198
G1 X81.274 Y89.681 E33.25375
G1 X89.681 Y81.274 E33.48795
G1 X89.084 Y81.274 E33.49972
G1 X81.274 Y89.084 E33.71727
G1 X81.274 Y88.486 E33.72905
G1 X88.486 Y81.274 E33.92995
G1 X87.888 Y81.274 E33.94172
G1 X81.274 Y87.888 E34.12597
G1 X81.274 Y87.291 E34.13774
G1 X87.291 Y81.274 E34.30535
G1 X86.693 Y81.274 E34.31712
G1 X81.274 Y86.693 E34.46807
G1 X81.274 Y86.095 E34.47985
G1 X86.095 Y81.274 E34.61415
G1 X85.498 Y81.274 E34.62593
G1 X81.274 Y85.498 E34.74358
G1 X81.274 Y84.900 E34.75535
G1 X84.900 Y81.274 E34.85636
G1 X84.302 Y81.274 E34.86813
G1 X81.274 Y84.302 E34.95249
G1 X81.274 Y83.705 E34.96427
G1 X83.705 Y81.274 E35.03198
G1 X83.107 Y81.274 E35.04375
G1 X81.274 Y83.107 E35.09481
G1 X81.274 Y82.510 E35.10658
G1 X82.510 Y81.274 E35.14099
G1 X81.912 Y81.274 E35.15277
G1 X81.274 Y81.912 E35.17053
G1 X81.274 Y81.314 E35.18230
G1 X81.314 Y81.274 E35.18342
G1 X99.721 Y98.726 F7800.000
G1 X108.726 Y89.721 E35.43426 F4200.000
G1 X108.726 Y90.319 E35.44604
G1 X100.319 Y98.726 E35.68024
G1 X100.916 Y98.726 E35.69201
G1 X108.726 Y90.916 E35.90956
G1 X108.726 Y91.514 E35.92133
G1 X101.514 Y98.726 E36.12223
G1 X102.112 Y98.726 E36.13401
G1 X108.726 Y92.112 E36.31826
G1 X108.726 Y92.709 E36.33003
G1 X102.709 Y98.726 E36.49763
G1 X103.307 Y98.726 E36.50941
G1 X108.726 Y93.307 E36.66036
G1 X108.726 Y93.905 E36.67213
G1 X103.905 Y98.726 E36.80644
G1 X104.502 Y98.726 E36.81821
G1 X108.726 Y94.502 E36.93587
G1 X108.726 Y95.100 E36.94764
G1 X105.100 Y98.726 E37.04865
G1 X105.698 Y98.726 E37.06042
G1 X108.726 Y95.698 E37.14478
G1 X108.726 Y96.295 E37.15655
G1 X106.295 Y98.726 E37.22426
G1 X106.893 Y98.726 E37.23604
G1 X108.726 Y96.893 E37.28710
G1 X108.726 Y97.490 E37.29887
G1 X107.490 Y98.726 E37.33328
G1 X108.088 Y98.726 E37.34505
G1 X108.726 Y98.088 E37.36282
G1 X108.726 Y98.686 E37.37459
G1 X108.686 Y98.726 E37.37570
G1 X98.726 Y99.721 F7800.000
G1 X89.721 Y108.726 E37.62655 F4200.000
G1 X90.319 Y108.726 E37.63832
G1 X98.726 Y100.319 E37.87252
G1 X98.726 Y100.916 E37.88430
G1 X90.916 Y108.726 E38.10185
G1 X91.514 Y108.726 E38.11362
G1 X98.726 Y101.514 E38.31452
G1 X98.726 Y102.112 E38.32629
G1 X92.112 Y108.726 E38.51055
G1 X92.709 Y108.726 E38.52232
G1 X98.726 Y102.709 E38.68992
G1 X98.726 Y103.307 E38.70169
G1 X93.307 Y108.726 E38.85265
G1 X93.905 Y108.726 E38.86442
G1 X98.726 Y103.905 E38.99873
G1 X98.726 Y104.502 E39.01050
G1 X94.502 Y108.726 E39.12816
G1 X95.100 Y108.726 E39.13993
G1 X98.726 Y105.100 E39.24094
G1 X98.726 Y105.698 E39.25271
G1 X95.698 Y108.726 E39.33707
G1 X96.295 Y108.726 E39.34884
G1 X98.726 Y106.295 E39.41655
G1 X98.726 Y106.893 E39.42832
G1 X96.893 Y108.726 E39.47938
G1 X97.490 Y108.726 E39.49116
G1 X98.726 Y107.490 E39.52557
G1 X98.726 Y108.088 E39.53734
G1 X98.088 Y108.726 E39.55510
G1 X98.686 Y108.726 E39.56688
G1 X98.726 Y108.686 E39.56799
M106 S104
G1 F720.000 E38.81799
G92 E0
G1 Z0.950 F7800.000
G1 X99.000 Y109.000 F7800.000
G1 E0.75000 F720.000
G1 X89.000 Y109.000 E0.93811 F2400.000
G1 X89.000 Y119.000 E1.12621
G1 X81.000 Y119.000 E1.27670
G1 X81.000 Y81.000 E1.99150
G1 X119.000 Y81.000 E2.70630
G1 X119.000 Y89.000 E2.85678
G1 X109.000 Y89.000 E3.04489 F2400.000
G1 X109.000 Y99.000 E3.23299
G1 X99.000 Y99.000 E3.42110
G1 X99.000 Y108.940 E3.60808
G1 X99.400 Y108.940 F7800.000
G1 X99.400 Y109.400 E3.61673 F2400.000
G1 X89.400 Y109.400 E3.80483
G1 X89.400 Y119.400 E3.99294
G1 X80.600 Y119.400 E4.15847
G1 X80.600 Y80.600 E4.88832
G1 X119.400 Y80.600 E5.61817 F2400.000
G1 X119.400 Y89.400 E5.78371
G1 X109.400 Y89.400 E5.97181
G1 X109.400 Y99.400 E6.15992
