; generated by Slic3r 1.1.7 on 2015-07-03 at 21:02:59

; perimeters extrusion width = 0.40mm
; infill extrusion width = 0.42mm
; solid infill extrusion width = 0.42mm
; top infill extrusion width = 0.42mm

G21 ; set units to millimeters
M107
M190 S65 ; wait for bed temperature to be reached
M104 S215 ; set temperature
G28 ; home all axes

M109 S215 ; wait for temperature to be reached
G90 ; use absolute coordinates
G92 E0
M82 ; use absolute distances for extrusion
G1 F1800.000 E-1.00000
G92 E0
G1 Z0.350 F7800.000
G1 X79.650 Y87.650 F7800.000
G1 E1.00000 F1800.000
G1 X120.350 Y87.650 E2.56125 F504.000
G1 X120.350 Y112.350 E3.50874
G1 X79.650 Y112.350 E5.06999
G1 X79.650 Y87.710 E6.01518
G1 X79.650 Y87.250 F7800.000
G1 X78.350 Y86.350 F7800.000
G1 X121.650 Y86.350 E7.67617 F504.000
G1 X121.650 Y113.650 E8.72340
G1 X78.350 Y113.650 E10.38438
G1 X78.350 Y86.410 E11.42931
G1 X78.696 Y86.550 F7800.000
G1 X79.057 Y87.057 F7800.000
G1 X79.332 Y87.000 E11.43543 F360.000
G1 X120.668 Y87.000 E12.33531
G1 X120.943 Y87.057 E12.34143
G1 X121.000 Y87.332 E12.34755
G1 X121.000 Y112.668 E12.89911
G1 X120.943 Y112.943 E12.90523
G1 X120.668 Y113.000 E12.91135
G1 X79.332 Y113.000 E13.81123
G1 X79.057 Y112.943 E13.81735
G1 X79.000 Y112.668 E13.82347
G1 X79.000 Y87.332 E14.37503
G1 X79.045 Y87.116 E14.37985
M106 S255
M104 S210 ; set temperature
M140 S60 ; set bed temperature
G1 F1800.000 E13.37985
G92 E0
G1 Z0.650 F7800.000
G1 X79.400 Y87.400 F7800.000
G1 E1.00000 F1800.000
G1 X120.600 Y87.400 E1.85249 F1863.334
G1 X120.600 Y112.600 E2.37392
G1 X79.400 Y112.600 E3.22642
G1 X79.400 Y87.460 E3.74660
G1 X79.800 Y87.800 F7800.000
G1 X120.200 Y87.800 E4.58255 F1304.334
G1 X120.200 Y112.200 E5.08742
G1 X79.800 Y112.200 E5.92336
G1 X79.800 Y87.860 E6.42700
G1 X79.800 Y87.400 F7800.000
G1 X78.600 Y86.600 F7800.000
G1 X121.400 Y86.600 E7.31260 F1863.334
G1 X121.400 Y113.400 E7.86713
G1 X78.600 Y113.400 E8.75273
G1 X78.600 Y86.660 E9.30603
G1 X78.200 Y86.200 F7800.000
G1 X121.800 Y86.200 E10.20818 F1304.334
G1 X121.800 Y113.800 E10.77927
G1 X78.200 Y113.800 E11.68142
G1 X78.200 Y86.260 E12.25127
G1 X78.546 Y86.400 F7800.000
G1 X79.034 Y87.034 F7800.000
G1 X79.200 Y87.000 E12.25340 F931.667
G1 X120.800 Y87.000 E12.77614
G1 X120.966 Y87.034 E12.77827
G1 X121.000 Y87.200 E12.78040
G1 X121.000 Y112.800 E13.10209
G1 X120.966 Y112.966 E13.10421
G1 X120.800 Y113.000 E13.10634
G1 X79.200 Y113.000 E13.62909
G1 X79.034 Y112.966 E13.63121
G1 X79.000 Y112.800 E13.63334
G1 X79.000 Y87.200 E13.95503
G1 X79.022 Y87.093 E13.95640
G1 F1800.000 E12.95640
G92 E0
G1 Z0.950 F7800.000
G1 X79.400 Y87.400 F7800.000
G1 E1.00000 F1800.000
G1 X120.600 Y87.400 E1.85249 F1863.334
G1 X120.600 Y112.600 E2.37392
G1 X79.400 Y112.600 E3.22642
G1 X79.400 Y87.460 E3.74660
G1 X79.800 Y87.800 F7800.000
G1 X120.200 Y87.800 E4.58255 F1304.334
G1 X120.200 Y112.200 E5.08742
G1 X79.800 Y112.200 E5.92336
G1 X79.800 Y87.860 E6.42700
G1 X79.800 Y87.400 F7800.000
G1 X78.600 Y86.600 F7800.000
G1 X121.400 Y86.600 E7.31260 F1863.334
G1 X121.400 Y113.400 E7.86713
G1 X78.600 Y113.400 E8.75273
G1 X78.600 Y86.660 E9.30603
G1 X78.200 Y86.200 F7800.000
G1 X121.800 Y86.200 E10.20818 F1304.334
G1 X121.800 Y113.800 E10.77927
G1 X78.200 Y113.800 E11.68142
G1 X78.200 Y86.260 E12.25127
G1 X78.546 Y86.400 F7800.000
G1 X79.034 Y87.034 F7800.000
G1 X79.200 Y87.000 E12.25340 F931.667
G1 X120.800 Y87.000 E12.77614
G1 X120.966 Y87.034 E12.77827
G1 X121.000 Y87.200 E12.78040
G1 X121.000 Y112.800 E13.10209
G1 X120.966 Y112.966 E13.10421
G1 X120.800 Y113.000 E13.10634
G1 X79.200 Y113.000 E13.62909
G1 X79.034 Y112.966 E13.63121
G1 X79.000 Y112.800 E13.63334
G1 X79.000 Y87.200 E13.95503
G1 X79.022 Y87.093 E13.95640
G1 F1800.000 E12.95640
G92 E0
G1 Z1.250 F7800.000
G1 X79.400 Y87.400 F7800.000
G1 E1.00000 F1800.000
G1 X120.600 Y87.400 E1.85249 F1863.334
G1 X120.600 Y112.600 E2.37392
G1 X79.400 Y112.600 E3.22642
G1 X79.400 Y87.460 E3.74660
G1 X79.800 Y87.800 F7800.000
G1 X120.200 Y87.800 E4.58255 F1304.334
G1 X120.200 Y112.200 E5.08742
G1 X79.800 Y112.200 E5.92336
G1 X79.800 Y87.860 E6.42700
G1 X79.800 Y87.400 F7800.000
G1 X78.600 Y86.600 F7800.000
G1 X121.400 Y86.600 E7.31260 F1863.334
G1 X121.400 Y113.400 E7.86713
G1 X78.600 Y113.400 E8.75273
G1 X78.600 Y86.660 E9.30603
G1 X78.200 Y86.200 F7800.000
G1 X121.800 Y86.200 E10.20818 F1304.334
G1 X121.800 Y113.800 E10.77927
G1 X78.200 Y113.800 E11.68142
G1 X78.200 Y86.260 E12.25127
G1 X78.546 Y86.400 F7800.000
G1 X79.034 Y87.034 F7800.000
G1 X79.200 Y87.000 E12.25340 F931.667
G1 X120.800 Y87.000 E12.77614
G1 X120.966 Y87.034 E12.77827
G1 X121.000 Y87.200 E12.78040
G1 X121.000 Y112.800 E13.10209
G1 X120.966 Y112.966 E13.10421
G1 X120.800 Y113.000 E13.10634
G1 X79.200 Y113.000 E13.62909
G1 X79.034 Y112.966 E13.63121
G1 X79.000 Y112.800 E13.63334
G1 X79.000 Y87.200 E13.95503
G1 X79.022 Y87.093 E13.95640
G1 F1800.000 E12.95640
G92 E0
G1 Z1.550 F7800.000
G1 X79.400 Y87.400 F7800.000
G1 E1.00000 F1800.000
G1 X120.600 Y87.400 E1.85249 F1863.334
G1 X120.600 Y112.600 E2.37392
G1 X79.400 Y112.600 E3.22642
G1 X79.400 Y87.460 E3.74660
G1 X79.800 Y87.800 F7800.000
G1 X120.200 Y87.800 E4.58255 F1304.334
G1 X120.200 Y112.200 E5.08742
G1 X79.800 Y112.200 E5.92336
G1 X79.800 Y87.860 E6.42700
G1 X79.800 Y87.400 F7800.000
G1 X78.600 Y86.600 F7800.000
G1 X121.400 Y86.600 E7.31260 F1863.334
G1 X121.400 Y113.400 E7.86713
G1 X78.600 Y113.400 E8.75273
G1 X78.600 Y86.660 E9.30603
G1 X78.200 Y86.200 F7800.000
G1 X121.800 Y86.200 E10.20818 F1304.334
G1 X121.800 Y113.800 E10.77927
G1 X78.200 Y113.800 E11.68142
G1 X78.200 Y86.260 E12.25127
G1 X78.546 Y86.400 F7800.000
G1 X79.034 Y87.034 F7800.000
G1 X79.200 Y87.000 E12.25340 F931.667
G1 X120.800 Y87.000 E12.77614
G1 X120.966 Y87.034 E12.77827
G1 X121.000 Y87.200 E12.78040
G1 X121.000 Y112.800 E13.10209
G1 X120.966 Y112.966 E13.10421
G1 X120.800 Y113.000 E13.10634
G1 X79.200 Y113.000 E13.62909
G1 X79.034 Y112.966 E13.63121
G1 X79.000 Y112.800 E13.63334
G1 X79.000 Y87.200 E13.95503
G1 X79.022 Y87.093 E13.95640
G1 F1800.000 E12.95640
G92 E0
G1 Z1.850 F7800.000
G1 X79.400 Y87.400 F7800.000
G1 E1.00000 F1800.000
G1 X120.600 Y87.400 E1.85249 F1863.334
G1 X120.600 Y112.600 E2.37392
G1 X79.400 Y112.600 E3.22642
G1 X79.400 Y87.460 E3.74660
G1 X79.800 Y87.800 F7800.000
G1 X120.200 Y87.800 E4.58255 F1304.334
G1 X120.200 Y112.200 E5.08742
G1 X79.800 Y112.200 E5.92336
G1 X79.800 Y87.860 E6.42700
G1 X79.800 Y87.400 F7800.000
G1 X78.600 Y86.600 F7800.000
G1 X121.400 Y86.600 E7.31260 F1863.334
G1 X121.400 Y113.400 E7.86713
G1 X78.600 Y113.400 E8.75273
G1 X78.600 Y86.660 E9.30603
G1 X78.200 Y86.200 F7800.000
G1 X121.800 Y86.200 E10.20818 F1304.334
G1 X121.800 Y113.800 E10.77927
G1 X78.200 Y113.800 E11.68142
G1 X78.200 Y86.260 E12.25127
G1 X78.546 Y86.400 F7800.000
G1 X79.034 Y87.034 F7800.000
G1 X79.200 Y87.000 E12.25340 F931.667
G1 X120.800 Y87.000 E12.77614
G1 X120.966 Y87.034 E12.77827
G1 X121.000 Y87.200 E12.78040
G1 X121.000 Y112.800 E13.10209
G1 X120.966 Y112.966 E13.10421
G1 X120.800 Y113.000 E13.10634
G1 X79.200 Y113.000 E13.62909
G1 X79.034 Y112.966 E13.63121
G1 X79.000 Y112.800 E13.63334
G1 X79.000 Y87.200 E13.95503
G1 X79.022 Y87.093 E13.95640
G1 F1800.000 E12.95640
G92 E0
G1 Z2.150 F7800.000
G1 X79.400 Y87.400 F7800.000
G1 E1.00000 F1800.000
G1 X120.600 Y87.400 E1.85249 F1863.334
G1 X120.600 Y112.600 E2.37392
G1 X79.400 Y112.600 E3.22642
G1 X79.400 Y87.460 E3.74660
G1 X79.800 Y87.800 F7800.000
G1 X120.200 Y87.800 E4.58255 F1304.334
G1 X120.200 Y112.200 E5.08742
G1 X79.800 Y112.200 E5.92336
G1 X79.800 Y87.860 E6.42700
G1 X79.800 Y87.400 F7800.000
G1 X78.600 Y86.600 F7800.000
G1 X121.400 Y86.600 E7.31260 F1863.334
G1 X121.400 Y113.400 E7.86713
G1 X78.600 Y113.400 E8.75273
G1 X78.600 Y86.660 E9.30603
G1 X78.200 Y86.200 F7800.000
G1 X121.800 Y86.200 E10.20818 F1304.334
G1 X121.800 Y113.800 E10.77927
G1 X78.200 Y113.800 E11.68142
G1 X78.200 Y86.260 E12.25127
G1 X78.546 Y86.400 F7800.000
G1 X79.034 Y87.034 F7800.000
G1 X79.200 Y87.000 E12.25340 F931.667
G1 X120.800 Y87.000 E12.77614
G1 X120.966 Y87.034 E12.77827
G1 X121.000 Y87.200 E12.78040
G1 X121.000 Y112.800 E13.10209
G1 X120.966 Y112.966 E13.10421
G1 X120.800 Y113.000 E13.10634
G1 X79.200 Y113.000 E13.62909
G1 X79.034 Y112.966 E13.63121
G1 X79.000 Y112.800 E13.63334
G1 X79.000 Y87.200 E13.95503
G1 X79.022 Y87.093 E13.95640
G1 F1800.000 E12.95640
G92 E0
G1 Z2.450 F7800.000
G1 X79.400 Y87.400 F7800.000
G1 E1.00000 F1800.000
G1 X120.600 Y87.400 E1.85249 F1863.334
G1 X120.600 Y112.600 E2.37392
G1 X79.400 Y112.600 E3.22642
G1 X79.400 Y87.460 E3.74660
G1 X79.800 Y87.800 F7800.000
G1 X120.200 Y87.800 E4.58255 F1304.334
G1 X120.200 Y112.200 E5.08742
G1 X79.800 Y112.200 E5.92336
G1 X79.800 Y87.860 E6.42700
G1 X79.800 Y87.400 F7800.000
G1 X78.600 Y86.600 F7800.000
G1 X121.400 Y86.600 E7.31260 F1863.334
G1 X121.400 Y113.400 E7.86713
G1 X78.600 Y113.400 E8.75273
G1 X78.600 Y86.660 E9.30603
G1 X78.200 Y86.200 F7800.000
G1 X121.800 Y86.200 E10.20818 F1304.334
G1 X121.800 Y113.800 E10.77927
G1 X78.200 Y113.800 E11.68142
G1 X78.200 Y86.260 E12.25127
G1 X78.546 Y86.400 F7800.000
G1 X79.034 Y87.034 F7800.000
G1 X79.200 Y87.000 E12.25340 F931.667
G1 X120.800 Y87.000 E12.77614
G1 X120.966 Y87.034 E12.77827
G1 X121.000 Y87.200 E12.78040
G1 X121.000 Y112.800 E13.10209
G1 X120.966 Y112.966 E13.10421
G1 X120.800 Y113.000 E13.10634
G1 X79.200 Y113.000 E13.62909
G1 X79.034 Y112.966 E13.63121
G1 X79.000 Y112.800 E13.63334
G1 X79.000 Y87.200 E13.95503
G1 X79.022 Y87.093 E13.95640
G1 F1800.000 E12.95640
G92 E0
G1 Z2.750 F7800.000
G1 X79.400 Y87.400 F7800.000
G1 E1.00000 F1800.000
G1 X120.600 Y87.400 E1.85249 F1863.334
G1 X120.600 Y112.600 E2.37392
G1 X79.400 Y112.600 E3.22642
G1 X79.400 Y87.460 E3.74660
G1 X79.800 Y87.800 F7800.000
G1 X120.200 Y87.800 E4.58255 F1304.334
G1 X120.200 Y112.200 E5.08742
G1 X79.800 Y112.200 E5.92336
G1 X79.800 Y87.860 E6.42700
G1 X79.800 Y87.400 F7800.000
G1 X78.600 Y86.600 F7800.000
G1 X121.400 Y86.600 E7.31260 F1863.334
G1 X121.400 Y113.400 E7.86713
G1 X78.600 Y113.400 E8.75273
G1 X78.600 Y86.660 E9.30603
G1 X78.200 Y86.200 F7800.000
G1 X121.800 Y86.200 E10.20818 F1304.334
G1 X121.800 Y113.800 E10.77927
G1 X78.200 Y113.800 E11.68142
G1 X78.200 Y86.260 E12.25127
G1 X78.546 Y86.400 F7800.000
G1 X79.034 Y87.034 F7800.000
G1 X79.200 Y87.000 E12.25340 F931.667
G1 X120.800 Y87.000 E12.77614
G1 X120.966 Y87.034 E12.77827
G1 X121.000 Y87.200 E12.78040
G1 X121.000 Y112.800 E13.10209
G1 X120.966 Y112.966 E13.10421
G1 X120.800 Y113.000 E13.10634
G1 X79.200 Y113.000 E13.62909
G1 X79.034 Y112.966 E13.63121
G1 X79.000 Y112.800 E13.63334
G1 X79.000 Y87.200 E13.95503
G1 X79.022 Y87.093 E13.95640
G1 F1800.000 E12.95640
G92 E0
G1 Z3.050 F7800.000
G1 X79.400 Y87.400 F7800.000
G1 E1.00000 F1800.000
G1 X120.600 Y87.400 E1.85249 F1863.334
G1 X120.600 Y112.600 E2.37392
G1 X79.400 Y112.600 E3.22642
G1 X79.400 Y87.460 E3.74660
G1 X79.800 Y87.800 F7800.000
G1 X120.200 Y87.800 E4.58255 F1304.334
G1 X120.200 Y112.200 E5.08742
G1 X79.800 Y112.200 E5.92336
G1 X79.800 Y87.860 E6.42700
G1 X79.800 Y87.400 F7800.000
G1 X78.600 Y86.600 F7800.000
G1 X121.400 Y86.600 E7.31260 F1863.334
G1 X121.400 Y113.400 E7.86713
G1 X78.600 Y113.400 E8.75273
G1 X78.600 Y86.660 E9.30603
G1 X78.200 Y86.200 F7800.000
G1 X121.800 Y86.200 E10.20818 F1304.334
G1 X121.800 Y113.800 E10.77927
G1 X78.200 Y113.800 E11.68142
G1 X78.200 Y86.260 E12.25127
G1 X78.546 Y86.400 F7800.000
G1 X79.034 Y87.034 F7800.000
G1 X79.200 Y87.000 E12.25340 F931.667
G1 X120.800 Y87.000 E12.77614
G1 X120.966 Y87.034 E12.77827
G1 X121.000 Y87.200 E12.78040
G1 X121.000 Y112.800 E13.10209
G1 X120.966 Y112.966 E13.10421
G1 X120.800 Y113.000 E13.10634
G1 X79.200 Y113.000 E13.62909
G1 X79.034 Y112.966 E13.63121
G1 X79.000 Y112.800 E13.63334
G1 X79.000 Y87.200 E13.95503
G1 X79.022 Y87.093 E13.95640
G1 F1800.000 E12.95640
G92 E0
G1 Z3.350 F7800.000
G1 X79.400 Y87.400 F7800.000
G1 E1.00000 F1800.000
G1 X120.600 Y87.400 E1.85249 F1863.334
G1 X120.600 Y112.600 E2.37392
G1 X79.400 Y112.600 E3.22642
G1 X79.400 Y87.460 E3.74660
G1 X79.800 Y87.800 F7800.000
G1 X120.200 Y87.800 E4.58255 F1304.334
G1 X120.200 Y112.200 E5.08742
G1 X79.800 Y112.200 E5.92336
G1 X79.800 Y87.860 E6.42700
G1 X79.800 Y87.400 F7800.000
G1 X78.600 Y86.600 F7800.000
G1 X121.400 Y86.600 E7.31260 F1863.334
G1 X121.400 Y113.400 E7.86713
G1 X78.600 Y113.400 E8.75273
G1 X78.600 Y86.660 E9.30603
G1 X78.200 Y86.200 F7800.000
G1 X121.800 Y86.200 E10.20818 F1304.334
G1 X121.800 Y113.800 E10.77927
G1 X78.200 Y113.800 E11.68142
G1 X78.200 Y86.260 E12.25127
G1 X78.546 Y86.400 F7800.000
G1 X79.034 Y87.034 F7800.000
G1 X79.200 Y87.000 E12.25340 F931.667
G1 X120.800 Y87.000 E12.77614
G1 X120.966 Y87.034 E12.77827
G1 X121.000 Y87.200 E12.78040
G1 X121.000 Y112.800 E13.10209
G1 X120.966 Y112.966 E13.10421
G1 X120.800 Y113.000 E13.10634
G1 X79.200 Y113.000 E13.62909
G1 X79.034 Y112.966 E13.63121
G1 X79.000 Y112.800 E13.63334
G1 X79.000 Y87.200 E13.95503
G1 X79.022 Y87.093 E13.95640
G1 F1800.000 E12.95640
G92 E0
G1 Z3.650 F7800.000
G1 X79.400 Y87.400 F7800.000
G1 E1.00000 F1800.000
G1 X120.600 Y87.400 E1.85249 F1863.334
G1 X120.600 Y112.600 E2.37392
G1 X79.400 Y112.600 E3.22642
G1 X79.400 Y87.460 E3.74660
G1 X79.800 Y87.800 F7800.000
G1 X120.200 Y87.800 E4.58255 F1304.334
G1 X120.200 Y112.200 E5.08742
G1 X79.800 Y112.200 E5.92336
G1 X79.800 Y87.860 E6.42700
G1 X79.800 Y87.400 F7800.000
G1 X78.600 Y86.600 F7800.000
G1 X121.400 Y86.600 E7.31260 F1863.334
G1 X121.400 Y113.400 E7.86713
G1 X78.600 Y113.400 E8.75273
G1 X78.600 Y86.660 E9.30603
G1 X78.200 Y86.200 F7800.000
G1 X121.800 Y86.200 E10.20818 F1304.334
G1 X121.800 Y113.800 E10.77927
G1 X78.200 Y113.800 E11.68142
G1 X78.200 Y86.260 E12.25127
G1 X78.546 Y86.400 F7800.000
G1 X79.034 Y87.034 F7800.000
G1 X79.200 Y87.000 E12.25340 F931.667
G1 X120.800 Y87.000 E12.77614
G1 X120.966 Y87.034 E12.77827
G1 X121.000 Y87.200 E12.78040
G1 X121.000 Y112.800 E13.10209
G1 X120.966 Y112.966 E13.10421
G1 X120.800 Y113.000 E13.10634
G1 X79.200 Y113.000 E13.62909
G1 X79.034 Y112.966 E13.63121
G1 X79.000 Y112.800 E13.63334
G1 X79.000 Y87.200 E13.95503
G1 X79.022 Y87.093 E13.95640
G1 F1800.000 E12.95640
G92 E0
G1 Z3.950 F7800.000
G1 X79.400 Y87.400 F7800.000
G1 E1.00000 F1800.000
G1 X120.600 Y87.400 E1.85249 F1863.334
G1 X120.600 Y112.600 E2.37392
G1 X79.400 Y112.600 E3.22642
G1 X79.400 Y87.460 E3.74660
G1 X79.800 Y87.800 F7800.000
G1 X120.200 Y87.800 E4.58255 F1304.334
G1 X120.200 Y112.200 E5.08742
G1 X79.800 Y112.200 E5.92336
G1 X79.800 Y87.860 E6.42700
G1 X79.800 Y87.400 F7800.000
G1 X78.600 Y86.600 F7800.000
G1 X121.400 Y86.600 E7.31260 F1863.334
G1 X121.400 Y113.400 E7.86713
G1 X78.600 Y113.400 E8.75273
G1 X78.600 Y86.660 E9.30603
G1 X78.200 Y86.200 F7800.000
G1 X121.800 Y86.200 E10.20818 F1304.334
G1 X121.800 Y113.800 E10.77927
G1 X78.200 Y113.800 E11.68142
G1 X78.200 Y86.260 E12.25127
G1 X78.546 Y86.400 F7800.000
G1 X79.034 Y87.034 F7800.000
G1 X79.200 Y87.000 E12.25340 F931.667
G1 X120.800 Y87.000 E12.77614
G1 X120.966 Y87.034 E12.77827
G1 X121.000 Y87.200 E12.78040
G1 X121.000 Y112.800 E13.10209
G1 X120.966 Y112.966 E13.10421
G1 X120.800 Y113.000 E13.10634
G1 X79.200 Y113.000 E13.62909
G1 X79.034 Y112.966 E13.63121
G1 X79.000 Y112.800 E13.63334
G1 X79.000 Y87.200 E13.95503
G1 X79.022 Y87.093 E13.95640
G1 F1800.000 E12.95640
G92 E0
G1 Z4.250 F7800.000
G1 X79.400 Y87.400 F7800.000
G1 E1.00000 F1800.000
G1 X120.600 Y87.400 E1.85249 F1863.334
G1 X120.600 Y112.600 E2.37392
G1 X79.400 Y112.600 E3.22642
G1 X79.400 Y87.460 E3.74660
G1 X79.800 Y87.800 F7800.000
G1 X120.200 Y87.800 E4.58255 F1304.334
G1 X120.200 Y112.200 E5.08742
G1 X79.800 Y112.200 E5.92336
G1 X79.800 Y87.860 E6.42700
G1 X79.800 Y87.400 F7800.000
G1 X78.600 Y86.600 F7800.000
G1 X121.400 Y86.600 E7.31260 F1863.334
G1 X121.400 Y113.400 E7.86713
G1 X78.600 Y113.400 E8.75273
G1 X78.600 Y86.660 E9.30603
G1 X78.200 Y86.200 F7800.000
G1 X121.800 Y86.200 E10.20818 F1304.334
G1 X121.800 Y113.800 E10.77927
G1 X78.200 Y113.800 E11.68142
G1 X78.200 Y86.260 E12.25127
G1 X78.546 Y86.400 F7800.000
G1 X79.034 Y87.034 F7800.000
