; generated by Slic3r 1.1.7 on 2015-07-02 at 03:08:34

; perimeters extrusion width = 0.40mm
; infill extrusion width = 0.42mm
; solid infill extrusion width = 0.42mm
; top infill extrusion width = 0.42mm

G21 ; set units to millimeters
M107
M190 S65 ; wait for bed temperature to be reached
M104 S215 ; set temperature
G28 ; home all axes

M109 S215 ; wait for temperature to be reached
G90 ; use absolute coordinates
G92 E0
M82 ; use absolute distances for extrusion
G1 F1800.000 E-1.00000
G92 E0
G1 Z0.350 F7800.000
G1 X98.161 Y129.564 F7800.000
G1 E1.00000 F1800.000
G1 X100.000 Y129.072 E1.07304 F720.000
G1 X101.390 Y129.444 E1.12826
G1 X101.839 Y129.564 E1.14608 F720.000
G1 X103.186 Y130.911 E1.21912
G1 X103.678 Y132.750 E1.29216
G1 X103.186 Y134.589 E1.36520
G1 X101.839 Y135.936 E1.43825
G1 X100.000 Y136.428 E1.51129
G1 X98.161 Y135.936 E1.58433
G1 X96.814 Y134.589 E1.65737
G1 X96.322 Y132.750 E1.73041
G1 X96.814 Y130.911 E1.80345
G1 X98.118 Y129.607 E1.87419
G1 X98.490 Y130.134 F7800.000
G1 X99.716 Y129.806 E1.92288 F720.000
G1 X100.000 Y129.730 E1.93417 F720.000
G1 X101.510 Y130.134 E1.99414
G1 X102.616 Y131.240 E2.05412
G1 X103.020 Y132.750 E2.11409
G1 X102.616 Y134.260 E2.17407
G1 X101.510 Y135.366 E2.23404
G1 X100.000 Y135.770 E2.29402
G1 X98.490 Y135.366 E2.35399
G1 X97.384 Y134.260 E2.41397
G1 X96.980 Y132.750 E2.47394
G1 X97.384 Y131.240 E2.53392
G1 X98.447 Y130.177 E2.59159
G1 X98.819 Y130.704 F7800.000
G1 X100.000 Y130.388 E2.63850 F504.000
G1 X101.061 Y130.672 E2.68065
G1 X101.181 Y130.704 E2.68541 F504.000
G1 X102.046 Y131.569 E2.73232
G1 X102.362 Y132.750 E2.77922
G1 X102.046 Y133.931 E2.82613
G1 X101.181 Y134.796 E2.87304
G1 X100.000 Y135.112 E2.91995
G1 X98.819 Y134.796 E2.96686
G1 X97.954 Y133.931 E3.01377
G1 X97.638 Y132.750 E3.06067
G1 X97.954 Y131.569 E3.10758
G1 X98.776 Y130.747 E3.15219
G1 X101.132 Y130.570 F7800.000
G1 F1800.000 E2.15219
G92 E0
G1 X94.556 Y146.613 F7800.000
G1 E1.00000 F1800.000
G1 X89.839 Y145.349 E1.18732 F720.000
G1 X82.401 Y137.911 E1.59084
G1 X79.621 Y127.537 E2.00284
G1 X79.621 Y87.963 E3.52086
G1 X80.885 Y83.245 E3.70823
G1 X90.570 Y57.398 E4.76704
G1 X94.589 Y53.378 E4.98511
G1 X100.000 Y51.928 E5.19999
G1 X105.411 Y53.378 E5.41486
G1 X109.430 Y57.398 E5.63293 F720.000
G1 X119.115 Y83.245 E6.69174
G1 X120.379 Y87.963 E6.87911
G1 X120.379 Y127.537 E8.39714
G1 X117.599 Y137.911 E8.80913
G1 X110.161 Y145.349 E9.21265
G1 X100.000 Y148.072 E9.61616
G1 X94.614 Y146.628 E9.83006
G1 X94.392 Y147.227 F7800.000
G1 X89.510 Y145.919 E10.02391 F720.000
G1 X81.831 Y138.240 E10.44050
G1 X78.986 Y127.620 E10.86223
G1 X78.986 Y87.880 E12.38668
G1 X80.279 Y83.051 E12.57844
G1 X90.023 Y57.046 E13.64372
G1 X94.260 Y52.808 E13.87360
G1 X100.000 Y51.270 E14.10154 F720.000
G1 X105.740 Y52.808 E14.32949
G1 X109.977 Y57.046 E14.55937
G1 X119.721 Y83.051 E15.62465
G1 X121.014 Y87.880 E15.81641
G1 X121.014 Y127.620 E17.34085
G1 X118.169 Y138.240 E17.76259
G1 X110.490 Y145.919 E18.17917
G1 X100.000 Y148.730 E18.59576
G1 X94.450 Y147.242 E18.81618
G1 X94.227 Y147.841 F7800.000
G1 X89.181 Y146.489 E19.01657 F504.000
G1 X81.261 Y138.569 E19.44622
G1 X78.350 Y127.704 E19.87770
G1 X78.350 Y87.796 E21.40857
G1 X79.673 Y82.857 E21.60471
G1 X89.476 Y56.694 E22.67646
G1 X93.931 Y52.238 E22.91816
G1 X100.000 Y50.612 E23.15917
G1 X106.069 Y52.238 E23.40018
G1 X110.524 Y56.694 E23.64188 F504.000
G1 X120.327 Y82.857 E24.71363
G1 X121.650 Y87.796 E24.90977
G1 X121.650 Y127.704 E26.44064
G1 X118.739 Y138.569 E26.87212
G1 X110.819 Y146.489 E27.30177
G1 X100.000 Y149.388 E27.73142
G1 X94.285 Y147.856 E27.95838
G1 X106.262 Y52.589 F7800.000
G1 X105.144 Y53.763 F7800.000
G1 X109.068 Y57.687 E28.17126 F1260.000
G1 X109.608 Y59.127 F7800.000
G1 X103.914 Y53.434 E28.48012 F1260.000
G1 X102.684 Y53.104 E28.52897
G1 X110.147 Y60.567 E28.93381
G1 X110.686 Y62.007 F7800.000
G1 X101.454 Y52.774 E29.43465 F1260.000
G1 X100.224 Y52.445 E29.48349
G1 X111.226 Y63.446 E30.08030
G1 X111.765 Y64.886 F7800.000
G1 X99.420 Y52.540 E30.75005 F1260.000
G1 X98.709 Y52.731 E30.77825
G1 X112.305 Y66.326 E31.51578
G1 X112.844 Y67.766 F7800.000
G1 X97.999 Y52.921 E32.32110 F1260.000
G1 X97.289 Y53.111 E32.34929
G1 X113.384 Y69.205 E33.22239
G1 X113.923 Y70.645 F7800.000
G1 X96.579 Y53.301 E34.16328 F1260.000
G1 X95.869 Y53.492 E34.19148
G1 X114.462 Y72.085 E35.20014
G1 X115.002 Y73.525 F7800.000
G1 X95.159 Y53.682 E36.27659 F1260.000
G1 X94.598 Y54.021 E36.30175
G1 X115.541 Y74.964 E37.43790
G1 X116.081 Y76.404 F7800.000
G1 X94.148 Y54.471 E38.62774 F1260.000
G1 X93.698 Y54.921 E38.65216
G1 X116.620 Y77.844 E39.89569
G1 X117.160 Y79.284 F7800.000
G1 X93.248 Y55.372 E41.19289 F1260.000
G1 X92.797 Y55.822 E41.21732
G1 X117.699 Y80.723 E42.56821
G1 X118.238 Y82.163 F7800.000
G1 X92.347 Y56.272 E43.97279 F1260.000
G1 X91.897 Y56.722 E43.99721
G1 X118.745 Y83.570 E45.45371
G1 X119.075 Y84.800 E45.50255
G1 X91.447 Y57.172 E47.00135
G1 X90.997 Y57.622 E47.02577
G1 X119.404 Y86.030 E48.56687
G1 X119.734 Y87.260 E48.61571
G1 X90.722 Y58.248 E50.18959
G1 X90.476 Y58.903 E50.21642
G1 X119.938 Y88.364 E51.81468
G1 X119.938 Y89.265 E51.84922
G1 X90.231 Y59.558 E53.46079
G1 X89.986 Y60.213 E53.48762
G1 X119.938 Y90.165 E55.11251
G1 X119.938 Y91.065 E55.14705
G1 X89.740 Y60.868 E56.78525
G1 X89.495 Y61.523 E56.81208
G1 X119.938 Y91.966 E58.46359
G1 X119.938 Y92.866 E58.49812
G1 X89.250 Y62.178 E60.16295
G1 X89.004 Y62.833 E60.18978
G1 X119.938 Y93.766 E61.86791
G1 X119.938 Y94.667 E61.90245
G1 X88.759 Y63.487 E63.59390
G1 X88.513 Y64.142 E63.62072
G1 X119.938 Y95.567 E65.32548
G1 X119.938 Y96.467 E65.36002
G1 X88.268 Y64.797 E67.07809
G1 X88.023 Y65.452 E67.10492
G1 X119.938 Y97.368 E68.83630
G1 X119.938 Y98.268 E68.87084
G1 X87.777 Y66.107 E70.61554
G1 X87.532 Y66.762 E70.64237
G1 X119.938 Y99.168 E72.40037
G1 X119.938 Y100.069 E72.43491
G1 X87.286 Y67.417 E74.20623
G1 X87.041 Y68.072 E74.23306
G1 X119.938 Y100.969 E76.01769
G1 X119.938 Y101.869 E76.05223
G1 X86.796 Y68.727 E77.85017
G1 X86.550 Y69.382 E77.87700
G1 X119.938 Y102.770 E79.68825
G1 X119.938 Y103.670 E79.72279
G1 X86.305 Y70.037 E81.54736
G1 X86.060 Y70.692 E81.57419
G1 X119.938 Y104.570 E83.41206
G1 X119.938 Y105.471 E83.44660
G1 X85.814 Y71.347 E85.29779
G1 X85.569 Y72.002 E85.32462
G1 X119.938 Y106.371 E87.18912
G1 X119.938 Y107.271 E87.22366
G1 X85.323 Y72.657 E89.10148
G1 X85.078 Y73.312 E89.12831
G1 X119.938 Y108.172 E91.01943
G1 X119.938 Y109.072 E91.05397
G1 X84.833 Y73.967 E92.95841
G1 X84.587 Y74.622 E92.98524
G1 X119.938 Y109.972 E94.90299
G1 X119.938 Y110.873 E94.93752
G1 X84.342 Y75.276 E96.86859
G1 X84.096 Y75.931 E96.89542
G1 X119.938 Y111.773 E98.83979
G1 X119.938 Y112.673 E98.87433
G1 X83.851 Y76.586 E100.83202
G1 X83.606 Y77.241 E100.85884
G1 X119.938 Y113.574 E102.82984
G1 X119.938 Y114.474 E102.86438
G1 X83.360 Y77.896 E104.84869
G1 X83.115 Y78.551 E104.87552
G1 X119.938 Y115.374 E106.87314
G1 X119.938 Y116.275 E106.90768
G1 X82.869 Y79.206 E108.91861
G1 X82.624 Y79.861 E108.94544
G1 X119.938 Y117.175 E110.96969
G1 X119.938 Y118.075 E111.00423
G1 X82.379 Y80.516 E113.04179
G1 X82.133 Y81.171 E113.06862
G1 X119.938 Y118.976 E115.11949
G1 X119.938 Y119.876 E115.15402
G1 X81.888 Y81.826 E117.21821
G1 X81.643 Y82.481 E117.24504
G1 X119.938 Y120.776 E119.32253
G1 X119.938 Y121.677 E119.35707
G1 X81.397 Y83.136 E121.44787
G1 X81.186 Y83.825 E121.47553
G1 X119.938 Y122.577 E123.57778
G1 X119.938 Y123.477 E123.61231
G1 X80.996 Y84.535 E125.72488
G1 X80.806 Y85.245 E125.75308
G1 X119.938 Y124.378 E127.87596
G1 X119.938 Y125.278 E127.91050
G1 X80.616 Y85.956 E130.04371
G1 X80.425 Y86.666 E130.07190
G1 X119.938 Y126.178 E132.21543
G1 X119.938 Y127.079 E132.24997
G1 X80.235 Y87.376 E134.40382
G1 X80.062 Y88.103 E134.43250
G1 X119.832 Y127.873 E136.59000
G1 X119.642 Y128.583 E136.61820
G1 X80.062 Y89.003 E138.76537
G1 X80.062 Y89.904 E138.79991
G1 X119.452 Y129.293 E140.93677
G1 X119.261 Y130.003 E140.96497
G1 X80.062 Y90.804 E143.09150
G1 X80.062 Y91.704 E143.12604
G1 X119.071 Y130.713 E145.24225
G1 X118.881 Y131.424 E145.27045
G1 X80.062 Y92.605 E147.37635
G1 X80.062 Y93.505 E147.41088
G1 X118.691 Y132.134 E149.50645
G1 X118.500 Y132.844 E149.53465
G1 X80.062 Y94.405 E151.61990
G1 X80.062 Y95.306 E151.65444
G1 X118.310 Y133.554 E153.72937
G1 X118.120 Y134.264 E153.75757
G1 X80.062 Y96.206 E155.82217
G1 X80.062 Y97.106 E155.85671
G1 X117.930 Y134.974 E157.91099
G1 X117.739 Y135.684 E157.93919
G1 X80.062 Y98.007 E159.98316
G1 X80.062 Y98.907 E160.01769
G1 X117.549 Y136.394 E162.05134
G1 X117.359 Y137.104 E162.07954
G1 X80.062 Y99.807 E164.10286
G1 X80.062 Y100.708 E164.13739
G1 X117.106 Y137.752 E166.14701
G1 X116.656 Y138.202 E166.17143
G1 X80.062 Y101.608 E168.15663
G1 X80.062 Y102.508 E168.19117
G1 X116.206 Y138.652 E170.15195
G1 X115.756 Y139.102 E170.17637
G1 X80.062 Y103.409 E172.11272
G1 X80.062 Y104.309 E172.14726
G1 X115.306 Y139.553 E174.05920
G1 X114.855 Y140.003 E174.08362
G1 X80.062 Y105.209 E175.97113
G1 X80.062 Y106.110 E176.00567
G1 X114.405 Y140.453 E177.86876
G1 X113.955 Y140.903 E177.89318
G1 X80.062 Y107.010 E179.73186
G1 X80.062 Y107.910 E179.76639
G1 X101.048 Y128.896 E180.90485
G1 X99.895 Y128.643 E180.95012
G1 X80.062 Y108.811 E182.02603
G1 X80.062 Y109.711 E182.06057
G1 X99.185 Y128.834 E183.09796
G1 X98.475 Y129.024 E183.12616
G1 X80.062 Y110.611 E184.12503
G1 X80.062 Y111.512 E184.15957
G1 X97.826 Y129.276 E185.12325
G1 X97.376 Y129.726 E185.14767
G1 X80.062 Y112.412 E186.08694
G1 X80.062 Y113.312 E186.12147
G1 X96.926 Y130.176 E187.03632
G1 X96.476 Y130.626 E187.06074
G1 X80.062 Y114.213 E187.95116
G1 X80.062 Y115.113 E187.98570
G1 X96.253 Y131.304 E188.86403
G1 X96.063 Y132.014 E188.89223
G1 X80.062 Y116.013 E189.76024
G1 X80.062 Y116.914 E189.79478
G1 X95.872 Y132.724 E190.65247
G1 X96.183 Y133.934 E190.70042
G1 X80.062 Y117.814 E191.57494
G1 X80.062 Y118.714 E191.60948
G1 X107.069 Y145.721 E193.07458
G1 X106.359 Y145.911 E193.10278
G1 X80.062 Y119.615 E194.52936
G1 X80.062 Y120.515 E194.56390
G1 X105.649 Y146.102 E195.95196
G1 X104.939 Y146.292 E195.98016
G1 X80.062 Y121.415 E197.32970
G1 X80.062 Y122.316 E197.36423
G1 X104.229 Y146.482 E198.67525
G1 X103.519 Y146.672 E198.70345
G1 X80.062 Y123.216 E199.97595
G1 X80.062 Y124.116 E200.01049
G1 X102.809 Y146.863 E201.24446
G1 X102.098 Y147.053 E201.27266
G1 X80.062 Y125.017 E202.46812
G1 X80.062 Y125.917 E202.50266
G1 X101.388 Y147.243 E203.65959
G1 X100.678 Y147.433 E203.68779
G1 X80.062 Y126.817 E204.80621
G1 X80.150 Y127.805 E204.84425
G1 X99.945 Y147.600 E205.91813
G1 X98.715 Y147.271 E205.96698
G1 X80.479 Y129.035 E206.95627
G1 X80.809 Y130.265 E207.00511
G1 X97.485 Y146.941 E207.90980
G1 X96.255 Y146.612 E207.95864
G1 X81.138 Y131.495 E208.77874
G1 X81.468 Y132.725 E208.82758
G1 X95.025 Y146.282 E209.56308
G1 X93.796 Y145.953 E209.61192
G1 X81.797 Y133.954 E210.26283
G1 X82.127 Y135.184 E210.31167
G1 X92.566 Y145.623 E210.87798
G1 X91.336 Y145.294 E210.92682
G1 X82.456 Y136.414 E211.40853
G1 X82.786 Y137.644 E211.45737
G1 X90.106 Y144.964 E211.85449
G1 X98.816 Y136.567 F7800.000
G1 X107.779 Y145.531 E212.34074 F1260.000
G1 X108.489 Y145.341 E212.36894
G1 X100.026 Y136.878 E212.82805
G1 X100.736 Y136.688 E212.85625
G1 X109.199 Y145.150 E213.31535
G1 X109.904 Y144.955 E213.34340
G1 X101.446 Y136.497 E213.80220
G1 X102.124 Y136.274 E213.82956
G1 X110.354 Y144.504 E214.27602
G1 X110.804 Y144.054 E214.30044
G1 X102.574 Y135.824 E214.74691
G1 X103.024 Y135.374 E214.77133
G1 X111.254 Y143.604 E215.21780
G1 X111.704 Y143.154 E215.24222
G1 X103.474 Y134.924 E215.68869
G1 X103.726 Y134.275 E215.71538
G1 X112.154 Y142.704 E216.17261
G1 X112.605 Y142.254 E216.19703
G1 X103.916 Y133.565 E216.66837
G1 X104.107 Y132.855 E216.69657
G1 X113.055 Y141.803 E217.18200
G1 X113.505 Y141.353 E217.20642
G1 X103.854 Y131.702 E217.72997
M104 S210 ; set temperature
M140 S60 ; set bed temperature
G1 F1800.000 E216.72997
G92 E0
G1 Z0.650 F7800.000
G1 X98.482 Y135.379 F7800.000
G1 E1.00000 F1800.000
G1 X97.371 Y134.268 E1.03251 F2400.000
G1 X96.965 Y132.750 E1.06502
G1 X97.371 Y131.232 E1.09753
G1 X98.482 Y130.121 E1.13004
G1 X100.000 Y129.715 E1.16255
G1 X101.175 Y130.030 E1.18773
G1 X101.518 Y130.121 E1.19506 F2400.000
G1 X102.629 Y131.232 E1.22757
G1 X103.035 Y132.750 E1.26008
G1 X102.629 Y134.268 E1.29259
G1 X101.518 Y135.379 E1.32510
G1 X100.000 Y135.785 E1.35761
G1 X98.540 Y135.394 E1.38888
G1 X98.689 Y135.020 F7800.000
G1 X97.730 Y134.061 E1.41696 F2400.000
G1 X97.379 Y132.750 E1.44503
G1 X97.730 Y131.439 E1.47311
G1 X98.689 Y130.480 E1.50118
G1 X99.761 Y130.193 E1.52415
G1 X100.000 Y130.129 E1.52926 F2400.000
G1 X101.311 Y130.480 E1.55733
G1 X102.270 Y131.439 E1.58541
G1 X102.621 Y132.750 E1.61348
G1 X102.270 Y134.061 E1.64156
G1 X101.311 Y135.020 E1.66963
G1 X100.000 Y135.371 E1.69771
G1 X98.747 Y135.036 E1.72454
G1 X98.896 Y134.661 F7800.000
G1 X98.089 Y133.854 E1.74818 F1680.000
G1 X97.793 Y132.750 E1.77182
G1 X98.089 Y131.646 E1.79546
G1 X98.896 Y130.839 E1.81910
G1 X100.000 Y130.543 E1.84274
G1 X100.968 Y130.802 E1.86348
G1 X101.104 Y130.839 E1.86637 F1680.000
G1 X101.911 Y131.646 E1.89001
G1 X102.207 Y132.750 E1.91365
G1 X101.911 Y133.854 E1.93729
G1 X101.104 Y134.661 E1.96093
G1 X100.000 Y134.957 E1.98457
G1 X98.954 Y134.677 E2.00697
G1 F1800.000 E1.00697
G92 E0
G1 X101.003 Y130.667 F7800.000
G1 X95.457 Y147.497 F7800.000
G1 E1.00000 F1800.000
G1 X89.518 Y145.906 E1.12723 F2400.000
G1 X81.844 Y138.232 E1.35178
G1 X79.000 Y127.618 E1.57915
G1 X79.000 Y87.882 E2.40137
G1 X80.293 Y83.056 E2.50475
G1 X90.035 Y57.054 E3.07929
G1 X94.268 Y52.821 E3.20314
G1 X100.000 Y51.285 E3.32594
G1 X105.732 Y52.821 E3.44874
G1 X109.965 Y57.054 E3.57259 F2400.000
G1 X119.707 Y83.056 E4.14713
G1 X121.000 Y87.882 E4.25051
G1 X121.000 Y127.618 E5.07273
G1 X118.156 Y138.232 E5.30010
G1 X110.482 Y145.906 E5.52465
G1 X100.000 Y148.715 E5.74919
G1 X95.515 Y147.513 E5.84527
G1 X95.354 Y147.884 F7800.000
G1 X89.311 Y146.265 E5.97472 F2400.000
G1 X81.485 Y138.439 E6.20370
G1 X78.600 Y127.671 E6.43438
G1 X78.600 Y87.829 E7.25877
G1 X79.912 Y82.933 E7.36365
G1 X89.691 Y56.832 E7.94038
G1 X94.061 Y52.463 E8.06825
G1 X100.000 Y50.871 E8.19548 F2400.000
G1 X105.939 Y52.463 E8.32271
G1 X110.309 Y56.832 E8.45058
G1 X120.088 Y82.933 E9.02731
G1 X121.400 Y87.829 E9.13218
G1 X121.400 Y127.671 E9.95658
G1 X118.515 Y138.439 E10.18726
G1 X110.689 Y146.265 E10.41624
G1 X100.000 Y149.129 E10.64522
G1 X95.412 Y147.899 E10.74352
G1 X95.250 Y148.270 F7800.000
G1 X89.104 Y146.623 E10.87518 F1680.000
G1 X81.127 Y138.646 E11.10860
G1 X78.200 Y127.724 E11.34259
G1 X78.200 Y87.776 E12.16916
G1 X79.530 Y82.811 E12.27552
G1 X89.347 Y56.611 E12.85445
G1 X93.854 Y52.104 E12.98633
G1 X100.000 Y50.457 E13.11800
G1 X106.056 Y52.080 E13.24773
G1 X106.146 Y52.104 E13.24967 F1680.000
G1 X110.653 Y56.611 E13.38154
G1 X120.470 Y82.811 E13.96047
G1 X121.800 Y87.776 E14.06683
G1 X121.800 Y127.724 E14.89341
G1 X118.873 Y138.646 E15.12739
G1 X110.896 Y146.623 E15.36081
G1 X100.000 Y149.543 E15.59423
G1 X95.308 Y148.286 E15.69474
G1 X106.127 Y52.141 F7800.000
G1 X94.448 Y53.057 F7800.000
G1 X90.254 Y57.251 E15.82326 F4200.000
G1 X89.899 Y58.199 F7800.000
G1 X95.258 Y52.840 E15.98748 F4200.000
G1 X96.068 Y52.623 E16.00564
G1 X89.544 Y59.147 E16.20555
G1 X89.189 Y60.094 F7800.000
G1 X96.877 Y52.406 E16.44116 F4200.000
G1 X97.687 Y52.189 E16.45932
G1 X88.834 Y61.042 E16.73062
G1 X88.478 Y61.990 F7800.000
G1 X98.497 Y51.972 E17.03761 F4200.000
G1 X99.306 Y51.755 E17.05577
G1 X88.123 Y62.938 E17.39845
G1 X87.768 Y63.886 F7800.000
G1 X100.067 Y51.587 E17.77533 F4200.000
G1 X100.534 Y51.712 E17.78582
G1 X87.413 Y64.834 E18.18790
G1 X87.058 Y65.782 F7800.000
G1 X101.002 Y51.838 E18.61519 F4200.000
G1 X101.469 Y51.963 E18.62567
G1 X86.703 Y66.729 E19.07817
G1 X86.348 Y67.677 F7800.000
G1 X101.937 Y52.088 E19.55587 F4200.000
G1 X102.404 Y52.213 E19.56636
G1 X85.993 Y68.625 E20.06927
G1 X85.637 Y69.573 F7800.000
G1 X102.872 Y52.339 E20.59739 F4200.000
G1 X103.339 Y52.464 E20.60787
G1 X85.282 Y70.521 E21.16120
G1 X84.927 Y71.469 F7800.000
