; generated by Slic3r 1.1.7 on 2015-05-15 at 22:52:55

; perimeters extrusion width = 0.40mm
; infill extrusion width = 0.42mm
; solid infill extrusion width = 0.42mm
; top infill extrusion width = 0.42mm

G21 ; set units to millimeters
M107
M190 S65 ; wait for bed temperature to be reached
M104 S185 ; set temperature
G28 ; home all axes
; G1 Z5 F5000 ; lift nozzle

M109 S185 ; wait for temperature to be reached
G90 ; use absolute coordinates
G92 E0
M82 ; use absolute distances for extrusion
G1 F1800.000 E-1.00000
G92 E0
G1 Z0.350 F7800.000
G1 X70.234 Y67.633 F7800.000
G1 E1.00000 F1800.000
G1 X82.056 Y55.357 E1.53638 F1080.000
G1 X84.403 Y53.494 E1.63068
G1 X87.157 Y52.315 E1.72498
G1 X90.175 Y51.904 E1.82083
G1 X109.825 Y51.904 E2.43927
G1 X112.795 Y52.302 E2.53357
G1 X115.554 Y53.469 E2.62786 F1080.000
G1 X117.944 Y55.357 E2.72372
G1 X143.944 Y82.357 E3.90341
G1 X145.717 Y84.772 E3.99771
G1 X146.791 Y87.569 E4.09201
G1 X147.096 Y90.175 E4.17458
G1 X147.096 Y109.825 E4.79302
G1 X146.698 Y112.795 E4.88732
G1 X145.531 Y115.554 E4.98162
G1 X143.944 Y117.643 E5.06419
G1 X117.944 Y144.643 E6.24389
G1 X115.597 Y146.506 E6.33818
G1 X112.843 Y147.685 E6.43248
G1 X109.825 Y148.096 E6.52833
G1 X90.175 Y148.096 E7.14678
G1 X87.205 Y147.698 E7.24108
G1 X84.445 Y146.531 E7.33538
G1 X82.056 Y144.643 E7.43122
G1 X56.056 Y117.643 E8.61092
G1 X54.283 Y115.228 E8.70521
G1 X53.209 Y112.431 E8.79951
G1 X52.904 Y109.825 E8.88208
G1 X52.904 Y90.175 E9.50053
G1 X53.302 Y87.205 E9.59483
G1 X54.469 Y84.445 E9.68912
G1 X56.056 Y82.357 E9.77169
G1 X70.193 Y67.676 E10.41312
G1 X70.692 Y68.074 F7800.000
G1 X82.514 Y55.798 E10.94950 F1080.000
G1 X84.800 Y53.997 E11.04109
G1 X87.489 Y52.884 E11.13268
G1 X90.175 Y52.539 E11.21790
G1 X109.825 Y52.539 E11.83634
G1 X112.708 Y52.938 E11.92793
G1 X115.375 Y54.102 E12.01952 F1080.000
G1 X117.486 Y55.798 E12.10475
G1 X143.486 Y82.798 E13.28444
G1 X145.199 Y85.150 E13.37603
G1 X146.210 Y87.879 E13.46762
G1 X146.461 Y90.175 E13.54030
G1 X146.461 Y109.825 E14.15874
G1 X146.062 Y112.708 E14.25033
G1 X144.898 Y115.375 E14.34192
G1 X143.486 Y117.202 E14.41460
G1 X117.486 Y144.202 E15.59430
G1 X115.200 Y146.003 E15.68589
G1 X112.511 Y147.116 E15.77748
G1 X109.825 Y147.461 E15.86271
G1 X90.175 Y147.461 E16.48116
G1 X87.292 Y147.062 E16.57274
G1 X84.625 Y145.898 E16.66433
G1 X82.514 Y144.202 E16.74955
G1 X56.514 Y117.202 E17.92925
G1 X54.801 Y114.850 E18.02083
G1 X53.790 Y112.121 E18.11242
G1 X53.539 Y109.825 E18.18510
G1 X53.539 Y90.175 E18.80355
G1 X53.938 Y87.292 E18.89514
G1 X55.102 Y84.625 E18.98673
G1 X56.514 Y82.798 E19.05941
G1 X70.651 Y68.117 E19.70083
G1 F1800.000 E18.70083
G92 E0
G1 X108.204 Y108.204 F7800.000
G1 E1.00000 F1800.000
G1 X91.796 Y108.204 E1.51639 F540.000
G1 X91.796 Y91.796 E2.03278
G1 X108.204 Y91.796 E2.54916
G1 X108.204 Y108.144 E3.06366
G1 X108.839 Y108.839 F7800.000
G1 X91.161 Y108.839 E3.62006 F540.000
G1 X91.161 Y91.161 E4.17646
G1 X108.839 Y91.161 E4.73285
G1 X108.839 Y108.779 E5.28736
G1 X109.475 Y109.475 F7800.000
G1 X90.525 Y109.475 E5.88377 F378.000
G1 X90.525 Y90.525 E6.48017
G1 X109.475 Y90.525 E7.07658
G1 X109.475 Y109.415 E7.67110
G1 X109.129 Y109.275 F7800.000
G1 X92.277 Y107.763 F7800.000
G1 X92.237 Y107.723 E7.67288 F1080.000
G1 X92.237 Y106.812 E7.70155
G1 X93.188 Y107.763 E7.74387
G1 X94.099 Y107.763 E7.77254
G1 X92.237 Y105.901 E7.85541
G1 X92.237 Y104.990 E7.88408
G1 X95.010 Y107.763 E8.00750
G1 X95.921 Y107.763 E8.03617
G1 X92.237 Y104.079 E8.20013
G1 X92.237 Y103.168 E8.22880
G1 X96.832 Y107.763 E8.43330
G1 X97.743 Y107.763 E8.46197
G1 X92.237 Y102.257 E8.70702
G1 X92.237 Y101.346 E8.73569
G1 X98.654 Y107.763 E9.02128
G1 X99.565 Y107.763 E9.04995
G1 X92.237 Y100.435 E9.37609
G1 X92.237 Y99.525 E9.40476
G1 X100.475 Y107.763 E9.77145
G1 X101.386 Y107.763 E9.80011
G1 X92.237 Y98.614 E10.20734
G1 X92.237 Y97.703 E10.23601
G1 X102.297 Y107.763 E10.68379
G1 X103.208 Y107.763 E10.71246
G1 X92.237 Y96.792 E11.20078
G1 X92.237 Y95.881 E11.22944
G1 X104.119 Y107.763 E11.75831
G1 X105.030 Y107.763 E11.78698
G1 X92.237 Y94.970 E12.35639
G1 X92.237 Y94.059 E12.38506
G1 X105.941 Y107.763 E12.99501
G1 X106.852 Y107.763 E13.02368
G1 X92.237 Y93.148 E13.67418
G1 X92.257 Y92.257 E13.70222
G1 X107.743 Y107.743 E14.39149
G1 X107.763 Y106.852 E14.41953
G1 X93.148 Y92.237 E15.07003
G1 X94.059 Y92.237 E15.09870
G1 X107.763 Y105.941 E15.70865
G1 X107.763 Y105.030 E15.73732
G1 X94.970 Y92.237 E16.30673
G1 X95.881 Y92.237 E16.33540
G1 X107.763 Y104.119 E16.86427
G1 X107.763 Y103.208 E16.89293
G1 X96.792 Y92.237 E17.38125
G1 X97.703 Y92.237 E17.40992
G1 X107.763 Y102.297 E17.85770
G1 X107.763 Y101.386 E17.88637
G1 X98.614 Y92.237 E18.29360
G1 X99.525 Y92.237 E18.32226
G1 X107.763 Y100.475 E18.68895
G1 X107.763 Y99.565 E18.71762
G1 X100.435 Y92.237 E19.04376
G1 X101.346 Y92.237 E19.07243
G1 X107.763 Y98.654 E19.35802
G1 X107.763 Y97.743 E19.38669
G1 X102.257 Y92.237 E19.63174
G1 X103.168 Y92.237 E19.66041
G1 X107.763 Y96.832 E19.86491
G1 X107.763 Y95.921 E19.89358
G1 X104.079 Y92.237 E20.05754
G1 X104.990 Y92.237 E20.08621
G1 X107.763 Y95.010 E20.20963
G1 X107.763 Y94.099 E20.23830
G1 X105.901 Y92.237 E20.32117
G1 X106.812 Y92.237 E20.34984
G1 X107.763 Y93.188 E20.39216
G1 X107.763 Y92.277 E20.42083
G1 X107.723 Y92.237 E20.42261
G1 F1800.000 E19.42261
G92 E0
G1 X82.204 Y91.796 F7800.000
G1 E1.00000 F1800.000
G1 X82.204 Y108.204 E1.51639 F540.000
G1 X65.796 Y108.204 E2.03278
G1 X65.796 Y91.796 E2.54916
G1 X82.144 Y91.796 E3.06366
G1 X82.839 Y91.161 F7800.000
G1 X82.839 Y108.839 E3.62006 F540.000
G1 X65.161 Y108.839 E4.17646
G1 X65.161 Y91.161 E4.73285
G1 X82.779 Y91.161 E5.28736
G1 X83.475 Y90.525 F7800.000
G1 X83.475 Y109.475 E5.88377 F378.000
G1 X64.525 Y109.475 E6.48017
G1 X64.525 Y90.525 E7.07658
G1 X83.415 Y90.525 E7.67110
G1 X83.275 Y90.871 F7800.000
G1 X81.723 Y92.237 F7800.000
G1 X81.763 Y92.277 E7.67288 F1080.000
G1 X81.763 Y93.188 E7.70155
G1 X80.812 Y92.237 E7.74387
G1 X79.901 Y92.237 E7.77254
G1 X81.763 Y94.099 E7.85541
G1 X81.763 Y95.010 E7.88408
G1 X78.990 Y92.237 E8.00750
G1 X78.079 Y92.237 E8.03617
G1 X81.763 Y95.921 E8.20013
G1 X81.763 Y96.832 E8.22880
G1 X77.168 Y92.237 E8.43330
G1 X76.257 Y92.237 E8.46197
G1 X81.763 Y97.743 E8.70702
G1 X81.763 Y98.654 E8.73569
G1 X75.346 Y92.237 E9.02128
G1 X74.435 Y92.237 E9.04995
G1 X81.763 Y99.565 E9.37609
G1 X81.763 Y100.475 E9.40476
G1 X73.525 Y92.237 E9.77144
G1 X72.614 Y92.237 E9.80011
G1 X81.763 Y101.386 E10.20734
G1 X81.763 Y102.297 E10.23601
G1 X71.703 Y92.237 E10.68379
G1 X70.792 Y92.237 E10.71246
G1 X81.763 Y103.208 E11.20077
G1 X81.763 Y104.119 E11.22944
G1 X69.881 Y92.237 E11.75831
G1 X68.970 Y92.237 E11.78698
G1 X81.763 Y105.030 E12.35639
G1 X81.763 Y105.941 E12.38506
G1 X68.059 Y92.237 E12.99501
G1 X67.148 Y92.237 E13.02368
G1 X81.763 Y106.852 E13.67418
G1 X81.743 Y107.743 E13.70222
G1 X66.257 Y92.257 E14.39149
G1 X66.237 Y93.148 E14.41953
G1 X80.852 Y107.763 E15.07003
G1 X79.941 Y107.763 E15.09870
G1 X66.237 Y94.059 E15.70865
G1 X66.237 Y94.970 E15.73732
G1 X79.030 Y107.763 E16.30673
G1 X78.119 Y107.763 E16.33540
G1 X66.237 Y95.881 E16.86426
G1 X66.237 Y96.792 E16.89293
G1 X77.208 Y107.763 E17.38125
G1 X76.297 Y107.763 E17.40992
G1 X66.237 Y97.703 E17.85770
G1 X66.237 Y98.614 E17.88637
G1 X75.386 Y107.763 E18.29359
G1 X74.475 Y107.763 E18.32226
G1 X66.237 Y99.525 E18.68895
G1 X66.237 Y100.435 E18.71762
G1 X73.565 Y107.763 E19.04376
G1 X72.654 Y107.763 E19.07243
G1 X66.237 Y101.346 E19.35802
G1 X66.237 Y102.257 E19.38669
G1 X71.743 Y107.763 E19.63174
G1 X70.832 Y107.763 E19.66041
G1 X66.237 Y103.168 E19.86491
G1 X66.237 Y104.079 E19.89358
G1 X69.921 Y107.763 E20.05754
G1 X69.010 Y107.763 E20.08621
G1 X66.237 Y104.990 E20.20963
G1 X66.237 Y105.901 E20.23830
G1 X68.099 Y107.763 E20.32117
G1 X67.188 Y107.763 E20.34984
G1 X66.237 Y106.812 E20.39216
G1 X66.237 Y107.723 E20.42083
G1 X66.277 Y107.763 E20.42261
G1 F1800.000 E19.42261
G92 E0
G1 X91.796 Y81.204 F7800.000
G1 E1.00000 F1800.000
G1 X91.796 Y64.796 E1.51639 F540.000
G1 X108.204 Y64.796 E2.03278
G1 X108.204 Y81.204 E2.54916
G1 X91.856 Y81.204 E3.06366
G1 X91.161 Y81.839 F7800.000
G1 X91.161 Y64.161 E3.62006 F540.000
G1 X108.839 Y64.161 E4.17646
G1 X108.839 Y81.839 E4.73285
G1 X91.221 Y81.839 E5.28736
G1 X90.525 Y82.475 F7800.000
G1 X90.525 Y63.525 E5.88377 F378.000
G1 X109.475 Y63.525 E6.48017
G1 X109.475 Y82.475 E7.07658
G1 X90.585 Y82.475 E7.67110
G1 X90.725 Y82.129 F7800.000
G1 X92.277 Y80.763 F7800.000
G1 X92.237 Y80.723 E7.67288 F1080.000
G1 X92.237 Y79.812 E7.70155
G1 X93.188 Y80.763 E7.74387
G1 X94.099 Y80.763 E7.77254
G1 X92.237 Y78.901 E7.85541
G1 X92.237 Y77.990 E7.88408
G1 X95.010 Y80.763 E8.00750
G1 X95.921 Y80.763 E8.03617
G1 X92.237 Y77.079 E8.20013
G1 X92.237 Y76.168 E8.22880
G1 X96.832 Y80.763 E8.43330
G1 X97.743 Y80.763 E8.46197
G1 X92.237 Y75.257 E8.70702
G1 X92.237 Y74.346 E8.73569
G1 X98.654 Y80.763 E9.02128
G1 X99.565 Y80.763 E9.04995
G1 X92.237 Y73.435 E9.37609
G1 X92.237 Y72.525 E9.40476
G1 X100.475 Y80.763 E9.77145
G1 X101.386 Y80.763 E9.80011
G1 X92.237 Y71.614 E10.20734
G1 X92.237 Y70.703 E10.23601
G1 X102.297 Y80.763 E10.68379
G1 X103.208 Y80.763 E10.71246
G1 X92.237 Y69.792 E11.20078
G1 X92.237 Y68.881 E11.22944
G1 X104.119 Y80.763 E11.75831
G1 X105.030 Y80.763 E11.78698
G1 X92.237 Y67.970 E12.35639
G1 X92.237 Y67.059 E12.38506
G1 X105.941 Y80.763 E12.99501
G1 X106.852 Y80.763 E13.02368
G1 X92.237 Y66.148 E13.67418
G1 X92.257 Y65.257 E13.70222
G1 X107.743 Y80.743 E14.39149
G1 X107.763 Y79.852 E14.41953
G1 X93.148 Y65.237 E15.07003
G1 X94.059 Y65.237 E15.09870
G1 X107.763 Y78.941 E15.70865
G1 X107.763 Y78.030 E15.73732
G1 X94.970 Y65.237 E16.30673
G1 X95.881 Y65.237 E16.33540
G1 X107.763 Y77.119 E16.86427
G1 X107.763 Y76.208 E16.89293
G1 X96.792 Y65.237 E17.38125
G1 X97.703 Y65.237 E17.40992
G1 X107.763 Y75.297 E17.85770
G1 X107.763 Y74.386 E17.88637
G1 X98.614 Y65.237 E18.29360
G1 X99.525 Y65.237 E18.32226
G1 X107.763 Y73.475 E18.68895
G1 X107.763 Y72.565 E18.71762
G1 X100.435 Y65.237 E19.04376
G1 X101.346 Y65.237 E19.07243
G1 X107.763 Y71.654 E19.35802
G1 X107.763 Y70.743 E19.38669
G1 X102.257 Y65.237 E19.63174
G1 X103.168 Y65.237 E19.66041
G1 X107.763 Y69.832 E19.86492
G1 X107.763 Y68.921 E19.89358
G1 X104.079 Y65.237 E20.05754
G1 X104.990 Y65.237 E20.08621
G1 X107.763 Y68.010 E20.20963
G1 X107.763 Y67.099 E20.23830
G1 X105.901 Y65.237 E20.32117
G1 X106.812 Y65.237 E20.34984
G1 X107.763 Y66.188 E20.39216
G1 X107.763 Y65.277 E20.42083
G1 X107.723 Y65.237 E20.42261
G1 F1800.000 E19.42261
G92 E0
G1 X117.796 Y91.796 F7800.000
G1 E1.00000 F1800.000
G1 X134.204 Y91.796 E1.51639 F540.000
G1 X134.204 Y108.204 E2.03278
G1 X117.796 Y108.204 E2.54916
G1 X117.796 Y91.856 E3.06366
G1 X117.161 Y91.161 F7800.000
G1 X134.839 Y91.161 E3.62006 F540.000
G1 X134.839 Y108.839 E4.17646
G1 X117.161 Y108.839 E4.73285
G1 X117.161 Y91.221 E5.28736
G1 X116.525 Y90.525 F7800.000
G1 X135.475 Y90.525 E5.88377 F378.000
G1 X135.475 Y109.475 E6.48017
G1 X116.525 Y109.475 E7.07658
G1 X116.525 Y90.585 E7.67110
G1 X116.871 Y90.725 F7800.000
G1 X133.723 Y92.237 F7800.000
G1 X133.763 Y92.277 E7.67288 F1080.000
G1 X133.763 Y93.188 E7.70155
G1 X132.812 Y92.237 E7.74387
G1 X131.901 Y92.237 E7.77254
G1 X133.763 Y94.099 E7.85541
G1 X133.763 Y95.010 E7.88408
G1 X130.990 Y92.237 E8.00750
G1 X130.079 Y92.237 E8.03617
G1 X133.763 Y95.921 E8.20013
G1 X133.763 Y96.832 E8.22880
G1 X129.168 Y92.237 E8.43330
G1 X128.257 Y92.237 E8.46197
G1 X133.763 Y97.743 E8.70702
G1 X133.763 Y98.654 E8.73569
G1 X127.346 Y92.237 E9.02128
G1 X126.435 Y92.237 E9.04995
G1 X133.763 Y99.565 E9.37609
G1 X133.763 Y100.475 E9.40476
G1 X125.525 Y92.237 E9.77145
G1 X124.614 Y92.237 E9.80012
G1 X133.763 Y101.386 E10.20734
G1 X133.763 Y102.297 E10.23601
G1 X123.703 Y92.237 E10.68379
G1 X122.792 Y92.237 E10.71246
G1 X133.763 Y103.208 E11.20078
G1 X133.763 Y104.119 E11.22945
G1 X121.881 Y92.237 E11.75831
G1 X120.970 Y92.237 E11.78698
G1 X133.763 Y105.030 E12.35639
G1 X133.763 Y105.941 E12.38506
G1 X120.059 Y92.237 E12.99501
G1 X119.148 Y92.237 E13.02368
G1 X133.763 Y106.852 E13.67418
G1 X133.743 Y107.743 E13.70222
G1 X118.257 Y92.257 E14.39149
G1 X118.237 Y93.148 E14.41953
G1 X132.852 Y107.763 E15.07003
G1 X131.941 Y107.763 E15.09870
G1 X118.237 Y94.059 E15.70865
G1 X118.237 Y94.970 E15.73732
G1 X131.030 Y107.763 E16.30673
G1 X130.119 Y107.763 E16.33540
G1 X118.237 Y95.881 E16.86427
G1 X118.237 Y96.792 E16.89294
G1 X129.208 Y107.763 E17.38125
G1 X128.297 Y107.763 E17.40992
G1 X118.237 Y97.703 E17.85770
G1 X118.237 Y98.614 E17.88637
G1 X127.386 Y107.763 E18.29360
G1 X126.475 Y107.763 E18.32227
G1 X118.237 Y99.525 E18.68895
G1 X118.237 Y100.435 E18.71762
G1 X125.565 Y107.763 E19.04376
G1 X124.654 Y107.763 E19.07243
G1 X118.237 Y101.346 E19.35802
G1 X118.237 Y102.257 E19.38669
G1 X123.743 Y107.763 E19.63174
G1 X122.832 Y107.763 E19.66041
G1 X118.237 Y103.168 E19.86492
G1 X118.237 Y104.079 E19.89358
G1 X121.921 Y107.763 E20.05754
G1 X121.010 Y107.763 E20.08621
G1 X118.237 Y104.990 E20.20963
G1 X118.237 Y105.901 E20.23830
G1 X120.099 Y107.763 E20.32117
G1 X119.188 Y107.763 E20.34984
G1 X118.237 Y106.812 E20.39216
G1 X118.237 Y107.723 E20.42083
G1 X118.277 Y107.763 E20.42261
G1 F1800.000 E19.42261
G92 E0
G1 X108.204 Y118.796 F7800.000
G1 E1.00000 F1800.000
G1 X108.204 Y135.204 E1.51639 F540.000
G1 X91.796 Y135.204 E2.03278
G1 X91.796 Y118.796 E2.54916
G1 X108.144 Y118.796 E3.06366
G1 X108.839 Y118.161 F7800.000
G1 X108.839 Y135.839 E3.62006 F540.000
G1 X91.161 Y135.839 E4.17646
G1 X91.161 Y118.161 E4.73285
G1 X108.779 Y118.161 E5.28736
G1 X109.475 Y117.525 F7800.000
G1 X109.475 Y136.475 E5.88377 F378.000
G1 X90.525 Y136.475 E6.48017
G1 X90.525 Y117.525 E7.07658
G1 X109.415 Y117.525 E7.67110
G1 X109.275 Y117.871 F7800.000
G1 X107.723 Y119.237 F7800.000
G1 X107.763 Y119.277 E7.67288 F1080.000
G1 X107.763 Y120.188 E7.70155
G1 X106.812 Y119.237 E7.74387
G1 X105.901 Y119.237 E7.77254
G1 X107.763 Y121.099 E7.85541
G1 X107.763 Y122.010 E7.88408
G1 X104.990 Y119.237 E8.00750
G1 X104.079 Y119.237 E8.03617
G1 X107.763 Y122.921 E8.20013
G1 X107.763 Y123.832 E8.22880
G1 X103.168 Y119.237 E8.43330
G1 X102.257 Y119.237 E8.46197
G1 X107.763 Y124.743 E8.70702
G1 X107.763 Y125.654 E8.73569
G1 X101.346 Y119.237 E9.02128
G1 X100.435 Y119.237 E9.04995
G1 X107.763 Y126.565 E9.37609
G1 X107.763 Y127.475 E9.40476
G1 X99.525 Y119.237 E9.77145
G1 X98.614 Y119.237 E9.80012
G1 X107.763 Y128.386 E10.20734
G1 X107.763 Y129.297 E10.23601
G1 X97.703 Y119.237 E10.68379
G1 X96.792 Y119.237 E10.71246
G1 X107.763 Y130.208 E11.20078
G1 X107.763 Y131.119 E11.22945
G1 X95.881 Y119.237 E11.75831
G1 X94.970 Y119.237 E11.78698
G1 X107.763 Y132.030 E12.35639
G1 X107.763 Y132.941 E12.38506
G1 X94.059 Y119.237 E12.99501
G1 X93.148 Y119.237 E13.02368
G1 X107.763 Y133.852 E13.67418
G1 X107.743 Y134.743 E13.70222
G1 X92.257 Y119.257 E14.39149
G1 X92.237 Y120.148 E14.41953
G1 X106.852 Y134.763 E15.07003
G1 X105.941 Y134.763 E15.09870
G1 X92.237 Y121.059 E15.70865
G1 X92.237 Y121.970 E15.73732
G1 X105.030 Y134.763 E16.30673
G1 X104.119 Y134.763 E16.33540
G1 X92.237 Y122.881 E16.86427
G1 X92.237 Y123.792 E16.89294
G1 X103.208 Y134.763 E17.38125
G1 X102.297 Y134.763 E17.40992
G1 X92.237 Y124.703 E17.85770
G1 X92.237 Y125.614 E17.88637
G1 X101.386 Y134.763 E18.29360
G1 X100.475 Y134.763 E18.32227
G1 X92.237 Y126.525 E18.68895
G1 X92.237 Y127.435 E18.71762
G1 X99.565 Y134.763 E19.04376
G1 X98.654 Y134.763 E19.07243
G1 X92.237 Y128.346 E19.35802
G1 X92.237 Y129.257 E19.38669
G1 X97.743 Y134.763 E19.63174
G1 X96.832 Y134.763 E19.66041
G1 X92.237 Y130.168 E19.86492
G1 X92.237 Y131.079 E19.89359
G1 X95.921 Y134.763 E20.05754
G1 X95.010 Y134.763 E20.08621
G1 X92.237 Y131.990 E20.20963
G1 X92.237 Y132.901 E20.23830
G1 X94.099 Y134.763 E20.32117
G1 X93.188 Y134.763 E20.34984
G1 X92.237 Y133.812 E20.39216
G1 X92.237 Y134.723 E20.42083
G1 X92.277 Y134.763 E20.42261
M104 S180 ; set temperature
M140 S60 ; set bed temperature
G1 F1800.000 E19.42261
G92 E0
G1 Z0.650 F7800.000
G1 X108.500 Y108.500 F7800.000
G1 E1.00000 F1800.000
G1 X91.500 Y108.500 E1.28860 F1800.000
