; generated by Slic3r 1.0.0RC3 on 2014-03-09 at 18:44:03

; layer_height = 0.25
; perimeters = 3
; top_solid_layers = 4
; bottom_solid_layers = 4
; fill_density = 0.4
; perimeter_speed = 30
; infill_speed = 60
; travel_speed = 130
; nozzle_diameter = 0.5
; filament_diameter = 2.94
; extrusion_multiplier = 1
; perimeters extrusion width = 0.50mm
; infill extrusion width = 0.84mm
; solid infill extrusion width = 0.84mm
; top infill extrusion width = 0.84mm

G21 ; set units to millimeters
M107
M190 S110 ; wait for bed temperature to be reached
M104 S220 ; set temperature
G28 ; home all axes
M109 S220 ; wait for temperature to be reached
G90 ; use absolute coordinates
G92 E0
M82 ; use absolute distances for extrusion
G1 F600.000 E-1.00000
G92 E0
G1 Z0.200 F7800.000
G1 X67.932 Y78.529 F7800.000
G1 E1.00000 F600.000
G1 X68.952 Y77.660 E1.01975 F540.000
G1 X69.422 Y77.300 E1.02847
G1 X70.172 Y76.820 E1.04159
G1 X70.622 Y76.579 E1.04910
G1 X71.282 Y76.279 E1.05978
G1 X71.762 Y76.100 E1.06733
G1 X72.482 Y75.889 E1.07838
G1 X91.622 Y71.570 E1.36741
G1 X92.852 Y71.359 E1.38579
G1 X93.592 Y71.279 E1.39675
G1 X94.172 Y71.260 E1.40530
G1 X95.152 Y71.240 E1.41974
G1 X96.342 Y71.279 E1.43728
G1 X97.082 Y71.359 E1.44824
G1 X98.612 Y71.620 E1.47111
G1 X117.502 Y75.880 E1.75635
G1 X118.192 Y76.090 E1.76698
G1 X118.682 Y76.270 E1.77467
G1 X119.372 Y76.579 E1.78581
G1 X119.822 Y76.820 E1.79332
G1 X120.572 Y77.300 E1.80644
G1 X121.042 Y77.660 E1.81516
G1 X122.062 Y78.529 E1.83491
G1 X122.642 Y79.100 E1.84688
G1 X123.122 Y79.749 E1.85879
G1 X123.402 Y80.189 E1.86647
G1 X123.782 Y80.900 E1.87833
G1 X124.202 Y81.900 E1.89431
G1 X124.362 Y82.389 E1.90190
G1 X124.542 Y83.130 E1.91312
G1 X124.632 Y83.630 E1.92060
G1 X124.722 Y84.389 E1.93188
G1 X124.742 Y85.139 E1.94293
G1 X124.672 Y105.630 E2.24476
G1 X124.612 Y106.549 E2.25834
G1 X124.502 Y107.290 E2.26936
G1 X124.392 Y107.790 E2.27690
G1 X124.202 Y108.450 E2.28702
G1 X124.032 Y108.929 E2.29452
G1 X123.752 Y109.590 E2.30508
G1 X123.522 Y110.040 E2.31252
G1 X123.112 Y110.720 E2.32422
G1 X122.822 Y111.130 E2.33162
G1 X122.432 Y111.620 E2.34084
G1 X122.092 Y112.000 E2.34835
G1 X121.372 Y112.670 E2.36284
G1 X120.542 Y113.200 E2.37735
G1 X119.092 Y113.940 E2.40133
G1 X118.452 Y114.209 E2.41156
G1 X117.892 Y114.400 E2.42027
G1 X102.692 Y119.179 E2.65498
G1 X102.012 Y119.340 E2.66527
G1 X101.312 Y119.420 E2.67565
G1 X100.842 Y119.440 E2.68258
G1 X89.262 Y119.440 E2.85316
G1 X88.872 Y119.429 E2.85891
G1 X88.112 Y119.360 E2.87015
G1 X87.372 Y119.179 E2.88137
G1 X71.962 Y114.360 E3.11921
G1 X71.522 Y114.209 E3.12606
G1 X70.882 Y113.940 E3.13629
G1 X70.272 Y113.640 E3.14630
G1 X69.412 Y113.179 E3.16067
G1 X68.602 Y112.650 E3.17493
G1 X67.902 Y112.000 E3.18900
G1 X67.562 Y111.620 E3.19651
G1 X67.172 Y111.130 E3.20573
G1 X66.882 Y110.720 E3.21313
G1 X66.472 Y110.040 E3.22483
G1 X66.242 Y109.590 E3.23227
G1 X65.962 Y108.929 E3.24283
G1 X65.792 Y108.450 E3.25033
G1 X65.602 Y107.790 E3.26045
G1 X65.492 Y107.290 E3.26799
G1 X65.392 Y106.660 E3.27739
G1 X65.312 Y105.630 E3.29261
G1 X65.242 Y85.139 E3.59443
G1 X65.282 Y84.279 E3.60712
G1 X65.362 Y83.630 E3.61676
G1 X65.452 Y83.130 E3.62425
G1 X65.602 Y82.490 E3.63393
G1 X65.752 Y81.999 E3.64148
G1 X66.032 Y81.279 E3.65286
G1 X66.252 Y80.810 E3.66050
G1 X66.592 Y80.189 E3.67092
G1 X66.872 Y79.749 E3.67860
G1 X67.352 Y79.100 E3.69050
G1 X67.879 Y78.582 E3.70138
G1 F600.000 E2.70138
G92 E0
G1 X69.818 Y80.255 F7800.000
G1 E1.00000 F600.000
G1 X70.202 Y80.175 E1.00577 F540.000
G1 X70.320 Y80.114 E1.00773
G1 X71.201 Y79.386 E1.02457
G1 X72.016 Y78.956 E1.03814
G1 X72.847 Y78.641 E1.05123
G1 X73.865 Y78.417 E1.06658
G1 X74.634 Y78.357 E1.07795
G1 X75.439 Y78.391 E1.08982
G1 X76.470 Y78.583 E1.10526
G1 X77.304 Y78.870 E1.11826
G1 X78.073 Y79.254 E1.13092
G1 X78.794 Y79.742 E1.14375
G1 X79.452 Y80.326 E1.15670
G1 X80.168 Y81.135 E1.17262
G1 X80.363 Y81.224 E1.17578
G1 X82.758 Y81.224 E1.21105
G1 X83.170 Y81.510 E1.21845
G1 X83.426 Y81.537 E1.22224
G1 X83.609 Y81.459 E1.22517
G1 X84.733 Y81.463 E1.24172
G1 X84.933 Y81.549 E1.24493
G1 X85.405 Y81.154 E1.25400
G1 X85.256 Y80.518 E1.26362
G1 X85.445 Y80.280 E1.26810
G1 X85.501 Y80.123 E1.27055
G1 X85.507 Y79.620 E1.27795
G1 X85.877 Y79.262 E1.28554
G1 X85.945 Y79.149 E1.28749
G1 X86.090 Y78.635 E1.29535
G1 X86.379 Y78.101 E1.30430
G1 X86.699 Y77.733 E1.31149
G1 X86.819 Y77.562 E1.31455
G1 X87.480 Y76.489 E1.33312
G1 X88.468 Y75.913 E1.34997
G1 X89.383 Y75.333 E1.36592
G1 X90.176 Y74.896 E1.37926
G1 X90.424 Y74.790 E1.38324
G1 X91.996 Y74.305 E1.40746
G1 X93.415 Y74.061 E1.42867
G1 X94.932 Y73.994 E1.45104
G1 X96.364 Y74.042 E1.47214
G1 X97.967 Y74.305 E1.49608
G1 X99.537 Y74.789 E1.52029
G1 X99.783 Y74.895 E1.52423
G1 X100.227 Y75.138 E1.53168
G1 X100.412 Y75.162 E1.53443
G1 X100.661 Y75.102 E1.53821
G1 X101.448 Y75.102 E1.54980
G1 X101.692 Y75.177 E1.55356
G1 X101.886 Y75.160 E1.55642
G1 X102.385 Y74.906 E1.56467
G1 X102.634 Y75.386 E1.57264
G1 X102.883 Y75.468 E1.57649
G1 X103.206 Y76.100 E1.58696
G1 X103.676 Y76.797 E1.59934
G1 X103.734 Y77.030 E1.60288
G1 X104.681 Y78.942 E1.63431
G1 X104.888 Y79.188 E1.63904
G1 X105.242 Y80.128 E1.65385
G1 X105.840 Y81.313 E1.67340
G1 X106.081 Y81.462 E1.67756
G1 X106.408 Y81.463 E1.68237
G1 X106.575 Y81.534 E1.68505
G1 X106.832 Y81.508 E1.68886
G1 X107.242 Y81.224 E1.69622
G1 X109.636 Y81.224 E1.73149
G1 X109.832 Y81.135 E1.73465
G1 X110.548 Y80.326 E1.75057
G1 X111.206 Y79.742 E1.76352
G1 X111.927 Y79.254 E1.77635
G1 X112.865 Y78.802 E1.79169
G1 X113.530 Y78.583 E1.80201
G1 X114.381 Y78.412 E1.81478
G1 X115.193 Y78.359 E1.82678
G1 X115.482 Y78.362 E1.83103
G1 X116.316 Y78.445 E1.84338
G1 X116.979 Y78.590 E1.85338
G1 X117.812 Y78.880 E1.86637
G1 X118.804 Y79.387 E1.88278
G1 X119.137 Y79.680 E1.88930
G1 X119.489 Y79.941 E1.89576
G1 X119.676 Y80.110 E1.89948
G1 X119.796 Y80.171 E1.90147
G1 X120.175 Y80.249 E1.90717
G1 X121.128 Y81.739 E1.93321
G1 X121.511 Y82.528 E1.94613
G1 X121.786 Y83.359 E1.95902
G1 X121.950 Y84.204 E1.97171
G1 X122.003 Y85.074 E1.98454
G1 X121.919 Y86.133 E2.00020
G1 X121.726 Y86.975 E2.01291
G1 X121.419 Y87.808 E2.02600
G1 X121.103 Y88.427 E2.03624
G1 X120.626 Y89.142 E2.04890
G1 X119.336 Y90.601 E2.07758
G1 X118.662 Y90.629 E2.08753
G1 X118.559 Y90.655 E2.08909
G1 X117.688 Y91.077 E2.10335
G1 X117.061 Y91.292 E2.11310
G1 X116.244 Y91.468 E2.12542
G1 X115.412 Y91.535 E2.13771
G1 X114.580 Y91.492 E2.14998
G1 X113.759 Y91.340 E2.16229
G1 X113.252 Y91.179 E2.17012
G1 X113.143 Y91.167 E2.17174
G1 X112.703 Y91.215 E2.17825
G1 X112.122 Y90.802 E2.18875
G1 X111.934 Y90.727 E2.19173
G1 X111.839 Y90.602 E2.19405
G1 X111.410 Y90.297 E2.20181
G1 X111.084 Y90.011 E2.20819
G1 X109.770 Y89.485 E2.22904
G1 X109.460 Y89.176 E2.23549
G1 X109.249 Y89.101 E2.23878
G1 X109.059 Y89.120 E2.24160
G1 X107.491 Y89.120 E2.26469
G1 X107.253 Y89.264 E2.26880
G1 X107.211 Y89.343 E2.27012
G1 X106.914 Y89.638 E2.27628
G1 X106.851 Y89.741 E2.27807
G1 X106.785 Y89.952 E2.28131
G1 X106.704 Y90.033 E2.28301
G1 X106.639 Y90.144 E2.28490
G1 X106.397 Y90.891 E2.29647
G1 X106.389 Y91.253 E2.30180
G1 X106.074 Y92.173 E2.31613
G1 X105.355 Y93.062 E2.33297
G1 X104.348 Y93.590 E2.34972
G1 X103.986 Y93.617 E2.35506
G1 X103.734 Y93.843 E2.36005
G1 X103.569 Y94.703 E2.37296
G1 X103.517 Y94.782 E2.37435
G1 X103.482 Y94.953 E2.37691
G1 X101.962 Y96.211 E2.40598
G1 X102.006 Y96.731 E2.41367
G1 X102.476 Y97.004 E2.42167
G1 X103.084 Y98.006 E2.43894
G1 X103.415 Y98.382 E2.44632
G1 X103.734 Y98.802 E2.45409
G1 X103.971 Y99.292 E2.46211
G1 X104.080 Y99.708 E2.46845
G1 X104.145 Y99.823 E2.47039
G1 X104.518 Y100.201 E2.47821
G1 X104.513 Y100.642 E2.48470
G1 X104.574 Y100.812 E2.48736
G1 X104.680 Y100.936 E2.48977
G1 X104.568 Y101.619 E2.49995
G1 X105.003 Y101.984 E2.50833
G1 X105.375 Y101.855 E2.51413
G1 X106.314 Y101.857 E2.52795
G1 X106.650 Y101.976 E2.53321
G1 X106.886 Y101.946 E2.53672
G1 X107.271 Y101.686 E2.54357
G1 X107.732 Y101.686 E2.55035
G1 X107.985 Y101.627 E2.55418
G1 X109.786 Y101.627 E2.58071
G1 X109.974 Y101.547 E2.58373
G1 X110.756 Y100.728 E2.60041
G1 X111.291 Y100.268 E2.61079
G1 X112.162 Y99.707 E2.62605
G1 X112.953 Y99.346 E2.63886
G1 X113.624 Y99.131 E2.64925
G1 X113.833 Y99.082 E2.65241
G1 X114.625 Y98.959 E2.66420
G1 X115.510 Y98.920 E2.67725
G1 X116.194 Y98.979 E2.68737
G1 X117.032 Y99.147 E2.69997
G1 X117.860 Y99.432 E2.71286
G1 X118.791 Y99.911 E2.72828
G1 X119.357 Y100.305 E2.73845
G1 X120.004 Y100.877 E2.75115
G1 X120.679 Y101.674 E2.76655
G1 X121.140 Y102.411 E2.77935
G1 X121.499 Y103.199 E2.79210
G1 X121.709 Y103.854 E2.80224
G1 X121.895 Y104.886 E2.81769
G1 X121.927 Y105.573 E2.82782
G1 X121.867 Y106.436 E2.84056
G1 X121.646 Y107.459 E2.85598
G1 X121.343 Y108.268 E2.86870
G1 X121.028 Y108.881 E2.87885
G1 X120.430 Y109.741 E2.89428
G1 X119.224 Y111.072 E2.92074
G1 X118.751 Y111.077 E2.92770
G1 X118.641 Y111.103 E2.92938
G1 X117.670 Y111.574 E2.94527
G1 X116.875 Y111.835 E2.95759
G1 X116.172 Y111.967 E2.96812
G1 X115.437 Y112.030 E2.97899
G1 X115.229 Y112.032 E2.98205
G1 X114.384 Y111.964 E2.99455
G1 X113.744 Y111.835 E3.00416
G1 X113.247 Y111.678 E3.01184
G1 X113.137 Y111.666 E3.01347
G1 X112.690 Y111.718 E3.02009
G1 X112.097 Y111.297 E3.03080
G1 X111.902 Y111.220 E3.03390
G1 X111.805 Y111.090 E3.03628
G1 X111.243 Y110.677 E3.04656
G1 X110.777 Y110.241 E3.05596
G1 X110.213 Y109.563 E3.06895
G1 X109.944 Y109.458 E3.07321
G1 X109.322 Y109.579 E3.08253
G1 X109.059 Y109.605 E3.08643
G1 X107.326 Y109.605 E3.11195
G1 X107.051 Y109.828 E3.11717
G1 X106.966 Y110.228 E3.12320
G1 X106.765 Y110.488 E3.12804
G1 X106.721 Y110.574 E3.12946
G1 X106.531 Y111.172 E3.13871
G1 X106.530 Y111.445 E3.14274
G1 X106.273 Y112.352 E3.15662
G1 X105.669 Y113.208 E3.17205
G1 X104.826 Y113.774 E3.18701
G1 X104.032 Y113.956 E3.19900
G1 X103.826 Y114.170 E3.20338
G1 X103.659 Y115.040 E3.21643
G1 X103.603 Y115.132 E3.21802
G1 X103.540 Y115.439 E3.22264
G1 X102.060 Y116.668 E3.25097
G1 X101.158 Y116.693 E3.26427
G1 X95.496 Y116.693 E3.34768
G1 X95.363 Y116.562 E3.35041
G1 X95.181 Y116.488 E3.35331
G1 X94.798 Y116.488 E3.35895
G1 X94.614 Y116.564 E3.36188
G1 X94.486 Y116.693 E3.36457
G1 X90.615 Y116.705 E3.42159
G1 X88.015 Y116.678 E3.45988
G1 X86.514 Y115.435 E3.48859
G1 X86.453 Y115.129 E3.49319
G1 X86.407 Y115.052 E3.49451
G1 X86.235 Y114.164 E3.50783
G1 X86.000 Y113.943 E3.51260
G1 X85.520 Y113.881 E3.51972
G1 X84.647 Y113.422 E3.53425
G1 X83.950 Y112.647 E3.54961
G1 X83.589 Y111.779 E3.56346
G1 X83.549 Y111.228 E3.57159
G1 X83.359 Y110.648 E3.58058
G1 X83.302 Y110.550 E3.58225
G1 X83.192 Y110.431 E3.58464
G1 X83.122 Y110.186 E3.58839
G1 X83.054 Y110.073 E3.59033
G1 X82.831 Y109.857 E3.59492
G1 X82.756 Y109.733 E3.59705
G1 X82.527 Y109.605 E3.60091
G1 X80.942 Y109.605 E3.62426
G1 X80.681 Y109.579 E3.62813
G1 X80.052 Y109.458 E3.63756
G1 X79.794 Y109.551 E3.64160
G1 X79.207 Y110.243 E3.65496
G1 X78.740 Y110.678 E3.66437
G1 X78.180 Y111.089 E3.67460
G1 X78.083 Y111.220 E3.67700
G1 X77.886 Y111.298 E3.68012
G1 X77.293 Y111.718 E3.69082
G1 X76.848 Y111.667 E3.69742
G1 X76.737 Y111.678 E3.69906
G1 X76.246 Y111.834 E3.70666
G1 X75.422 Y111.988 E3.71900
G1 X74.548 Y112.030 E3.73190
G1 X73.658 Y111.945 E3.74506
G1 X72.936 Y111.787 E3.75595
G1 X72.316 Y111.575 E3.76560
G1 X71.340 Y111.101 E3.78158
G1 X71.230 Y111.075 E3.78324
G1 X70.769 Y111.069 E3.79004
G1 X69.460 Y109.603 E3.81898
G1 X68.971 Y108.880 E3.83185
G1 X68.657 Y108.266 E3.84200
G1 X68.304 Y107.285 E3.85737
G1 X68.133 Y106.442 E3.87003
G1 X68.074 Y105.758 E3.88015
G1 X68.125 Y104.703 E3.89571
G1 X68.291 Y103.855 E3.90842
G1 X68.500 Y103.201 E3.91855
G1 X68.947 Y102.255 E3.93396
G1 X69.333 Y101.668 E3.94431
G1 X69.836 Y101.043 E3.95613
G1 X69.985 Y100.885 E3.95931
G1 X70.505 Y100.415 E3.96964
G1 X71.205 Y99.913 E3.98233
G1 X72.139 Y99.432 E3.99781
G1 X72.966 Y99.147 E4.01070
G1 X73.803 Y98.979 E4.02328
G1 X74.494 Y98.920 E4.03349
G1 X75.362 Y98.951 E4.04628
G1 X76.391 Y99.136 E4.06168
G1 X77.047 Y99.347 E4.07183
G1 X77.836 Y99.707 E4.08460
G1 X78.713 Y100.270 E4.09996
G1 X79.366 Y100.837 E4.11271
G1 X80.004 Y101.537 E4.12665
G1 X80.196 Y101.622 E4.12974
G1 X82.028 Y101.628 E4.15673
G1 X82.272 Y101.686 E4.16043
G1 X82.722 Y101.686 E4.16705
G1 X83.112 Y101.948 E4.17397
G1 X83.346 Y101.978 E4.17745
G1 X83.699 Y101.855 E4.18296
G1 X83.950 Y101.855 E4.18665
G1 X84.191 Y101.708 E4.19081
G1 X84.801 Y100.512 E4.21060
G1 X84.805 Y100.451 E4.21149
G1 X85.105 Y99.679 E4.22369
G1 X85.315 Y99.431 E4.22849
G1 X85.482 Y99.108 E4.23384
G1 X85.496 Y98.894 E4.23700
G1 X86.045 Y97.981 E4.25269
G1 X86.108 Y97.798 E4.25555
G1 X86.506 Y96.961 E4.26919
G1 X86.561 Y96.913 E4.27028
G1 X86.783 Y96.480 E4.27743
G1 X87.065 Y96.296 E4.28239
G1 X87.154 Y96.195 E4.28437
G1 X87.288 Y95.922 E4.28886
G1 X87.216 Y95.582 E4.29398
G1 X86.455 Y94.953 E4.30852
G1 X86.420 Y94.782 E4.31109
G1 X86.370 Y94.705 E4.31245
G1 X86.204 Y93.842 E4.32538
G1 X85.952 Y93.617 E4.33037
G1 X85.619 Y93.592 E4.33528
G1 X84.658 Y93.114 E4.35109
G1 X83.936 Y92.297 E4.36715
G1 X83.583 Y91.420 E4.38107
G1 X83.552 Y90.921 E4.38844
G1 X83.265 Y90.022 E4.40235
G1 X83.222 Y89.936 E4.40375
G1 X83.064 Y89.731 E4.40757
G1 X82.953 Y89.325 E4.41378
G1 X82.684 Y89.120 E4.41876
G1 X80.943 Y89.120 E4.44440
G1 X80.751 Y89.101 E4.44725
G1 X80.540 Y89.176 E4.45054
G1 X80.230 Y89.485 E4.45699
G1 X78.977 Y89.991 E4.47689
G1 X78.605 Y90.298 E4.48400
G1 X78.175 Y90.602 E4.49176
G1 X78.080 Y90.728 E4.49408
G1 X77.892 Y90.803 E4.49707
G1 X77.311 Y91.215 E4.50756
G1 X76.871 Y91.167 E4.51407
G1 X76.762 Y91.179 E4.51569
G1 X76.256 Y91.340 E4.52351
G1 X75.435 Y91.492 E4.53581
G1 X74.603 Y91.535 E4.54808
G1 X73.772 Y91.468 E4.56036
G1 X73.131 Y91.340 E4.57000
G1 X72.336 Y91.080 E4.58231
G1 X71.438 Y90.647 E4.59700
G1 X71.341 Y90.621 E4.59849
G1 X70.648 Y90.580 E4.60871
G1 X69.485 Y89.283 E4.63437
G1 X68.897 Y88.427 E4.64966
G1 X68.510 Y87.642 E4.66256
G1 X68.277 Y86.987 E4.67280
G1 X68.055 Y85.955 E4.68836
G1 X67.997 Y85.086 E4.70118
G1 X68.030 Y84.383 E4.71154
G1 X68.214 Y83.359 E4.72688
G1 X68.489 Y82.528 E4.73977
G1 X68.784 Y81.898 E4.75001
G1 X69.778 Y80.318 E4.77751
G1 X70.126 Y80.701 F7800.000
G1 X70.437 Y80.636 E4.78218 F540.000
G1 X70.555 Y80.576 E4.78414
G1 X70.838 Y80.320 E4.78976
G1 X71.169 Y80.077 E4.79580
G1 X71.486 Y79.801 E4.80199
G1 X72.234 Y79.407 E4.81445
G1 X73.002 Y79.117 E4.82654
G1 X73.923 Y78.914 E4.84043
G1 X74.645 Y78.857 E4.85110
G1 X75.397 Y78.889 E4.86219
G1 X76.330 Y79.063 E4.87616
G1 X77.101 Y79.327 E4.88818
G1 X77.812 Y79.681 E4.89987
G1 X78.480 Y80.131 E4.91174
G1 X78.981 Y80.563 E4.92148
G1 X79.942 Y81.635 E4.94269
G1 X80.138 Y81.724 E4.94586
G1 X82.601 Y81.724 E4.98214
G1 X83.000 Y82.001 E4.98930
G1 X83.146 Y82.047 E4.99155
G1 X83.453 Y82.047 E4.99607
G1 X83.552 Y82.027 E4.99755
G1 X83.710 Y81.960 E5.00008
G1 X84.629 Y81.962 E5.01362
G1 X84.777 Y82.026 E5.01599
G1 X84.876 Y82.047 E5.01749
G1 X85.690 Y82.047 E5.02948
G1 X85.982 Y81.758 E5.03553
G1 X85.979 Y81.413 E5.04061
G1 X85.798 Y80.639 E5.05231
G1 X85.943 Y80.456 E5.05575
G1 X85.999 Y80.300 E5.05820
G1 X86.004 Y79.835 E5.06505
G1 X86.321 Y79.528 E5.07155
G1 X86.389 Y79.414 E5.07349
G1 X86.556 Y78.824 E5.08253
G1 X86.793 Y78.387 E5.08985
G1 X87.095 Y78.040 E5.09663
G1 X87.238 Y77.836 E5.10030
G1 X87.840 Y76.858 E5.11722
G1 X88.729 Y76.340 E5.13237
G1 X89.631 Y75.767 E5.14812
G1 X90.396 Y75.346 E5.16098
G1 X90.599 Y75.259 E5.16423
G1 X92.097 Y74.795 E5.18733
G1 X93.483 Y74.557 E5.20805
G1 X94.941 Y74.494 E5.22954
G1 X96.329 Y74.541 E5.25000
G1 X97.866 Y74.795 E5.27294
G1 X99.363 Y75.258 E5.29603
G1 X99.564 Y75.345 E5.29926
G1 X100.156 Y75.669 E5.30920
G1 X100.341 Y75.694 E5.31195
G1 X100.721 Y75.602 E5.31770
G1 X101.373 Y75.602 E5.32731
G1 X101.739 Y75.714 E5.33295
G1 X101.933 Y75.698 E5.33581
G1 X102.169 Y75.577 E5.33973
G1 X102.416 Y76.053 E5.34762
G1 X102.659 Y76.133 E5.35140
G1 X102.774 Y76.354 E5.35507
G1 X103.207 Y76.997 E5.36649
G1 X103.266 Y77.232 E5.37005
G1 X104.264 Y79.224 E5.40288
G1 X104.452 Y79.450 E5.40721
G1 X104.773 Y80.305 E5.42066
G1 X105.135 Y81.026 E5.43256
G1 X105.081 Y81.054 E5.43345
G1 X104.944 Y81.418 E5.43919
