; generated by Slic3r 1.0.0RC3 on 2014-03-23 at 13:53:48

; layer_height = 0.4
; perimeters = 3
; top_solid_layers = 6
; bottom_solid_layers = 6
; fill_density = 0.4
; perimeter_speed = 30
; infill_speed = 60
; travel_speed = 130
; nozzle_diameter = 0.5
; filament_diameter = 2.94
; extrusion_multiplier = 1
; perimeters extrusion width = 0.50mm
; infill extrusion width = 0.53mm
; solid infill extrusion width = 0.53mm
; top infill extrusion width = 0.53mm

G21 ; set units to millimeters
M107
M190 S110 ; wait for bed temperature to be reached
M104 S220 ; set temperature
G28 ; home all axes
M84 ; disable motors
M109 S220 ; wait for temperature to be reached
G90 ; use absolute coordinates
G92 E0
M82 ; use absolute distances for extrusion
G1 F600.000 E-1.00000
G92 E0
G1 Z0.200 F7800.000
G1 X46.220 Y8.090 F7800.000
G1 E1.00000 F600.000
G1 X46.720 Y6.660 E1.02232 F540.000
G1 X47.480 Y5.350 E1.04462
G1 X48.480 Y4.200 E1.06707
G1 X49.670 Y3.260 E1.08941
G1 X51.020 Y2.570 E1.11174
G1 X52.480 Y2.140 E1.13416
G1 X53.990 Y2.000 E1.15650
G1 X165.500 Y2.000 E2.79909
G1 X166.890 Y2.120 E2.81964
G1 X168.240 Y2.480 E2.84023
G1 X169.500 Y3.070 E2.86072
G1 X170.640 Y3.870 E2.88123
G1 X171.630 Y4.860 E2.90186
G1 X172.430 Y6.000 E2.92237
G1 X173.020 Y7.260 E2.94287
G1 X173.380 Y8.610 E2.96345
G1 X173.500 Y10.000 E2.98400
G1 X173.500 Y60.000 E3.72052
G1 X173.440 Y60.960 E3.73469
G1 X173.270 Y61.910 E3.74891
G1 X143.770 Y181.910 E5.56919
G1 X143.270 Y183.340 E5.59150
G1 X142.510 Y184.650 E5.61381
G1 X141.510 Y185.800 E5.63626
G1 X140.320 Y186.740 E5.65860
G1 X138.970 Y187.430 E5.68093
G1 X137.510 Y187.860 E5.70335
G1 X136.000 Y188.000 E5.72569
G1 X24.500 Y188.000 E7.36813
G1 X23.110 Y187.880 E7.38869
G1 X21.760 Y187.520 E7.40927
G1 X20.500 Y186.930 E7.42976
G1 X19.360 Y186.130 E7.45028
G1 X18.370 Y185.140 E7.47090
G1 X17.570 Y184.000 E7.49141
G1 X16.980 Y182.740 E7.51191
G1 X16.620 Y181.390 E7.53249
G1 X16.500 Y180.000 E7.55304
G1 X16.500 Y130.000 E8.28956
G1 X16.560 Y129.040 E8.30373
G1 X16.730 Y128.090 E8.31795
G1 X46.202 Y8.163 E10.13709
G1 X46.710 Y8.210 F7800.000
G1 X47.180 Y6.870 E10.15801 F540.000
G1 X47.890 Y5.640 E10.17893
G1 X48.820 Y4.560 E10.19992
G1 X49.940 Y3.690 E10.22081
G1 X51.210 Y3.030 E10.24190
G1 X52.570 Y2.630 E10.26278
G1 X53.990 Y2.500 E10.28378
G1 X165.500 Y2.500 E11.92637
G1 X166.960 Y2.640 E11.94798
G1 X168.370 Y3.070 E11.96969
G1 X169.670 Y3.760 E11.99137
G1 X170.800 Y4.700 E12.01302
G1 X171.740 Y5.830 E12.03467
G1 X172.430 Y7.130 E12.05635
G1 X172.860 Y8.540 E12.07807
G1 X173.000 Y10.000 E12.09967
G1 X173.000 Y60.000 E12.83620
G1 X172.950 Y60.900 E12.84947
G1 X172.780 Y61.790 E12.86282
G1 X143.280 Y181.790 E14.68310
G1 X142.810 Y183.130 E14.70402
G1 X142.100 Y184.360 E14.72494
G1 X141.170 Y185.440 E14.74593
G1 X140.050 Y186.310 E14.76683
G1 X138.780 Y186.970 E14.78791
G1 X137.420 Y187.370 E14.80879
G1 X136.000 Y187.500 E14.82979
G1 X24.500 Y187.500 E16.47224
G1 X23.040 Y187.360 E16.49384
G1 X21.630 Y186.930 E16.51556
G1 X20.330 Y186.240 E16.53724
G1 X19.200 Y185.300 E16.55889
G1 X18.260 Y184.170 E16.58054
G1 X17.570 Y182.870 E16.60222
G1 X17.140 Y181.460 E16.62393
G1 X17.000 Y180.000 E16.64554
G1 X17.000 Y130.000 E17.38206
G1 X17.050 Y129.100 E17.39534
G1 X17.220 Y128.210 E17.40869
G1 X46.692 Y8.283 E19.22783
G1 X47.190 Y8.330 F7800.000
G1 X47.630 Y7.080 E19.24735 F540.000
G1 X48.300 Y5.930 E19.26695
G1 X49.170 Y4.930 E19.28648
G1 X50.210 Y4.110 E19.30599
G1 X51.390 Y3.500 E19.32555
G1 X52.670 Y3.130 E19.34518
G1 X53.990 Y3.000 E19.36472
G1 X165.500 Y3.000 E21.00731
G1 X166.870 Y3.130 E21.02758
G1 X168.180 Y3.530 E21.04776
G1 X169.390 Y4.180 E21.06799
G1 X170.450 Y5.050 E21.08819
G1 X171.320 Y6.110 E21.10839
G1 X171.970 Y7.320 E21.12862
G1 X172.370 Y8.630 E21.14880
G1 X172.500 Y10.000 E21.16907
G1 X172.500 Y60.000 E21.90559
G1 X172.450 Y60.840 E21.91799
G1 X172.300 Y61.670 E21.93041
G1 X142.800 Y181.670 E23.75069
G1 X142.360 Y182.920 E23.77021
G1 X141.690 Y184.070 E23.78982
G1 X140.820 Y185.070 E23.80934
G1 X139.780 Y185.890 E23.82885
G1 X138.600 Y186.500 E23.84842
G1 X137.320 Y186.870 E23.86805
G1 X136.000 Y187.000 E23.88758
G1 X24.500 Y187.000 E25.53003
G1 X23.130 Y186.870 E25.55030
G1 X21.820 Y186.470 E25.57048
G1 X20.610 Y185.820 E25.59071
G1 X19.550 Y184.950 E25.61091
G1 X18.680 Y183.890 E25.63111
G1 X18.030 Y182.680 E25.65134
G1 X17.630 Y181.370 E25.67152
G1 X17.500 Y180.000 E25.69179
G1 X17.500 Y130.000 E26.42831
G1 X17.550 Y129.160 E26.44071
G1 X17.700 Y128.330 E26.45313
G1 X47.172 Y8.403 E28.27227
G1 X47.680 Y8.450 F7800.000
G1 X48.170 Y7.100 E28.29343 F540.000
G1 X48.950 Y5.890 E28.31463
G1 X49.980 Y4.880 E28.33588
G1 X51.200 Y4.130 E28.35698
G1 X52.560 Y3.660 E28.37817
G1 X53.990 Y3.500 E28.39937
G1 X165.500 Y3.500 E30.04196
G1 X166.770 Y3.620 E30.06075
G1 X167.990 Y3.990 E30.07953
G1 X169.110 Y4.600 E30.09832
G1 X170.100 Y5.400 E30.11707
G1 X170.900 Y6.390 E30.13582
G1 X171.510 Y7.510 E30.15460
G1 X171.880 Y8.730 E30.17338
G1 X172.000 Y10.000 E30.19217
G1 X172.000 Y60.000 E30.92869
G1 X171.950 Y60.780 E30.94021
G1 X171.810 Y61.550 E30.95174
G1 X142.310 Y181.550 E32.77202
G1 X141.820 Y182.900 E32.79317
G1 X141.040 Y184.110 E32.81438
G1 X140.010 Y185.120 E32.83563
G1 X138.790 Y185.870 E32.85672
G1 X137.430 Y186.340 E32.87792
G1 X136.000 Y186.500 E32.89912
G1 X24.500 Y186.500 E34.54156
G1 X23.230 Y186.380 E34.56035
G1 X22.010 Y186.010 E34.57913
G1 X20.890 Y185.400 E34.59792
G1 X19.900 Y184.600 E34.61667
G1 X19.100 Y183.610 E34.63541
G1 X18.490 Y182.490 E34.65420
G1 X18.120 Y181.270 E34.67298
G1 X18.000 Y180.000 E34.69177
G1 X18.000 Y130.000 E35.42829
G1 X18.050 Y129.220 E35.43981
G1 X18.190 Y128.450 E35.45133
G1 X47.662 Y8.523 E37.27048
G1 F600.000 E36.27048
G92 E0
G1 X70.750 Y11.250 F7800.000
G1 E1.00000 F600.000
G1 X73.250 Y11.250 E1.03683 F540.000
G1 X73.250 Y56.249 E1.69968
G1 X161.750 Y56.249 E3.00332
G1 X161.750 Y11.250 E3.66618
G1 X164.250 Y11.250 E3.70300
G1 X164.250 Y58.750 E4.40270
G1 X134.751 Y58.750 E4.83723
G1 X134.751 Y178.750 E6.60488
G1 X132.250 Y178.750 E6.64173
G1 X132.250 Y58.750 E8.40938
G1 X103.250 Y58.750 E8.83656
G1 X103.250 Y61.751 E8.88077
G1 X100.750 Y61.751 E8.91759
G1 X100.750 Y58.750 E8.96180
G1 X70.750 Y58.750 E9.40371
G1 X70.750 Y11.325 E10.10230
G1 F600.000 E9.10230
G92 E0
G1 X131.750 Y179.250 F7800.000
G1 E1.00000 F600.000
G1 X131.750 Y59.250 E2.76765 F540.000
G1 X103.750 Y59.250 E3.18010
G1 X103.750 Y62.251 E3.22431
G1 X100.250 Y62.251 E3.27587
G1 X100.250 Y59.250 E3.32007
G1 X70.250 Y59.250 E3.76199
G1 X70.250 Y10.750 E4.47641
G1 X73.750 Y10.750 E4.52797
G1 X73.750 Y55.749 E5.19082
G1 X161.250 Y55.749 E6.47974
G1 X161.250 Y10.750 E7.14259
G1 X164.750 Y10.750 E7.19415
G1 X164.750 Y59.250 E7.90857
G1 X135.251 Y59.250 E8.34311
G1 X135.251 Y179.250 E10.11076
G1 X131.825 Y179.250 E10.16122
G1 X131.250 Y179.750 F7800.000
G1 X131.250 Y59.750 E11.92888 F378.000
G1 X104.250 Y59.750 E12.32660
G1 X104.250 Y62.751 E12.37080
G1 X99.750 Y62.751 E12.43709
G1 X99.750 Y59.750 E12.48130
G1 X69.750 Y59.750 E12.92321
G1 X69.750 Y10.250 E13.65237
G1 X74.250 Y10.250 E13.71865
G1 X74.250 Y55.249 E14.38151
G1 X160.750 Y55.249 E15.65569
G1 X160.750 Y10.250 E16.31854
G1 X165.250 Y10.250 E16.38483
G1 X165.250 Y59.750 E17.11399
G1 X135.751 Y59.750 E17.54852
G1 X135.751 Y179.750 E19.31617
G1 X131.325 Y179.750 E19.38137
G1 X131.500 Y179.317 F7800.000
G1 X132.627 Y178.393 F7800.000
G1 X132.607 Y178.373 E19.38180 F1080.000
G1 X132.607 Y177.637 E19.39309
G1 X133.363 Y178.393 E19.40949
G1 X134.099 Y178.393 E19.42078
G1 X132.607 Y176.901 E19.45315
G1 X132.607 Y176.165 E19.46444
G1 X134.394 Y177.952 E19.50320
G1 X134.394 Y177.216 E19.51449
G1 X132.607 Y175.428 E19.55325
G1 X132.607 Y174.692 E19.56454
G1 X134.394 Y176.479 E19.60331
G1 X134.394 Y175.743 E19.61460
G1 X132.607 Y173.956 E19.65336
G1 X132.607 Y173.220 E19.66465
G1 X134.394 Y175.007 E19.70341
G1 X134.394 Y174.271 E19.71470
G1 X132.607 Y172.484 E19.75346
G1 X132.607 Y171.747 E19.76475
G1 X134.394 Y173.535 E19.80351
G1 X134.394 Y172.798 E19.81480
G1 X132.607 Y171.011 E19.85357
G1 X132.607 Y170.275 E19.86486
G1 X134.394 Y172.062 E19.90362
G1 X134.394 Y171.326 E19.91491
G1 X132.607 Y169.539 E19.95367
G1 X132.607 Y168.803 E19.96496
G1 X134.394 Y170.590 E20.00372
G1 X134.394 Y169.854 E20.01501
G1 X132.607 Y168.067 E20.05377
G1 X132.607 Y167.330 E20.06507
G1 X134.394 Y169.118 E20.10383
G1 X134.394 Y168.381 E20.11512
G1 X132.607 Y166.594 E20.15388
G1 X132.607 Y165.858 E20.16517
G1 X134.394 Y167.645 E20.20393
G1 X134.394 Y166.909 E20.21522
G1 X132.607 Y165.122 E20.25398
G1 X132.607 Y164.386 E20.26527
G1 X134.394 Y166.173 E20.30404
G1 X134.394 Y165.437 E20.31533
G1 X132.607 Y163.649 E20.35409
G1 X132.607 Y162.913 E20.36538
G1 X134.394 Y164.701 E20.40414
G1 X134.394 Y163.964 E20.41543
G1 X132.607 Y162.177 E20.45419
G1 X132.607 Y161.441 E20.46548
G1 X134.394 Y163.228 E20.50424
G1 X134.394 Y162.492 E20.51553
G1 X132.607 Y160.705 E20.55430
G1 X132.607 Y159.969 E20.56559
G1 X134.394 Y161.756 E20.60435
G1 X134.394 Y161.020 E20.61564
G1 X132.607 Y159.232 E20.65440
G1 X132.607 Y158.496 E20.66569
G1 X134.394 Y160.283 E20.70445
G1 X134.394 Y159.547 E20.71574
G1 X132.607 Y157.760 E20.75450
G1 X132.607 Y157.024 E20.76579
G1 X134.394 Y158.811 E20.80456
G1 X134.394 Y158.075 E20.81585
G1 X132.607 Y156.288 E20.85461
G1 X132.607 Y155.551 E20.86590
G1 X134.394 Y157.339 E20.90466
G1 X134.394 Y156.603 E20.91595
G1 X132.607 Y154.815 E20.95471
G1 X132.607 Y154.079 E20.96600
G1 X134.394 Y155.866 E21.00476
G1 X134.394 Y155.130 E21.01605
G1 X132.607 Y153.343 E21.05482
G1 X132.607 Y152.607 E21.06611
G1 X134.394 Y154.394 E21.10487
G1 X134.394 Y153.658 E21.11616
G1 X132.607 Y151.871 E21.15492
G1 X132.607 Y151.134 E21.16621
G1 X134.394 Y152.922 E21.20497
G1 X134.394 Y152.185 E21.21626
G1 X132.607 Y150.398 E21.25502
G1 X132.607 Y149.662 E21.26631
G1 X134.394 Y151.449 E21.30508
G1 X134.394 Y150.713 E21.31637
G1 X132.607 Y148.926 E21.35513
G1 X132.607 Y148.190 E21.36642
G1 X134.394 Y149.977 E21.40518
G1 X134.394 Y149.241 E21.41647
G1 X132.607 Y147.453 E21.45523
G1 X132.607 Y146.717 E21.46652
G1 X134.394 Y148.505 E21.50528
G1 X134.394 Y147.768 E21.51657
G1 X132.607 Y145.981 E21.55534
G1 X132.607 Y145.245 E21.56663
G1 X134.394 Y147.032 E21.60539
G1 X134.394 Y146.296 E21.61668
G1 X132.607 Y144.509 E21.65544
G1 X132.607 Y143.773 E21.66673
G1 X134.394 Y145.560 E21.70549
G1 X134.394 Y144.824 E21.71678
G1 X132.607 Y143.036 E21.75554
G1 X132.607 Y142.300 E21.76684
G1 X134.394 Y144.087 E21.80560
G1 X134.394 Y143.351 E21.81689
G1 X132.607 Y141.564 E21.85565
G1 X132.607 Y140.828 E21.86694
G1 X134.394 Y142.615 E21.90570
G1 X134.394 Y141.879 E21.91699
G1 X132.607 Y140.092 E21.95575
G1 X132.607 Y139.355 E21.96704
G1 X134.394 Y141.143 E22.00581
G1 X134.394 Y140.407 E22.01710
G1 X132.607 Y138.619 E22.05586
G1 X132.607 Y137.883 E22.06715
G1 X134.394 Y139.670 E22.10591
G1 X134.394 Y138.934 E22.11720
G1 X132.607 Y137.147 E22.15596
G1 X132.607 Y136.411 E22.16725
G1 X134.394 Y138.198 E22.20601
G1 X134.394 Y137.462 E22.21730
G1 X132.607 Y135.675 E22.25607
G1 X132.607 Y134.938 E22.26736
G1 X134.394 Y136.726 E22.30612
G1 X134.394 Y135.989 E22.31741
G1 X132.607 Y134.202 E22.35617
G1 X132.607 Y133.466 E22.36746
G1 X134.394 Y135.253 E22.40622
G1 X134.394 Y134.517 E22.41751
G1 X132.607 Y132.730 E22.45627
G1 X132.607 Y131.994 E22.46756
G1 X134.394 Y133.781 E22.50633
G1 X134.394 Y133.045 E22.51762
G1 X132.607 Y131.257 E22.55638
G1 X132.607 Y130.521 E22.56767
G1 X134.394 Y132.309 E22.60643
G1 X134.394 Y131.572 E22.61772
G1 X132.607 Y129.785 E22.65648
G1 X132.607 Y129.049 E22.66777
G1 X134.394 Y130.836 E22.70653
G1 X134.394 Y130.100 E22.71782
G1 X132.607 Y128.313 E22.75659
G1 X132.607 Y127.577 E22.76788
G1 X134.394 Y129.364 E22.80664
G1 X134.394 Y128.628 E22.81793
G1 X132.607 Y126.840 E22.85669
G1 X132.607 Y126.104 E22.86798
G1 X134.394 Y127.891 E22.90674
G1 X134.394 Y127.155 E22.91803
G1 X132.607 Y125.368 E22.95679
G1 X132.607 Y124.632 E22.96808
G1 X134.394 Y126.419 E23.00685
G1 X134.394 Y125.683 E23.01814
G1 X132.607 Y123.896 E23.05690
G1 X132.607 Y123.160 E23.06819
G1 X134.394 Y124.947 E23.10695
G1 X134.394 Y124.211 E23.11824
G1 X132.607 Y122.423 E23.15700
G1 X132.607 Y121.687 E23.16829
G1 X134.394 Y123.474 E23.20705
G1 X134.394 Y122.738 E23.21834
G1 X132.607 Y120.951 E23.25711
G1 X132.607 Y120.215 E23.26840
G1 X134.394 Y122.002 E23.30716
G1 X134.394 Y121.266 E23.31845
G1 X132.607 Y119.479 E23.35721
G1 X132.607 Y118.742 E23.36850
G1 X134.394 Y120.530 E23.40726
G1 X134.394 Y119.793 E23.41855
G1 X132.607 Y118.006 E23.45731
G1 X132.607 Y117.270 E23.46861
G1 X134.394 Y119.057 E23.50737
G1 X134.394 Y118.321 E23.51866
G1 X132.607 Y116.534 E23.55742
G1 X132.607 Y115.798 E23.56871
G1 X134.394 Y117.585 E23.60747
G1 X134.394 Y116.849 E23.61876
G1 X132.607 Y115.062 E23.65752
G1 X132.607 Y114.325 E23.66881
G1 X134.394 Y116.113 E23.70758
G1 X134.394 Y115.376 E23.71887
G1 X132.607 Y113.589 E23.75763
G1 X132.607 Y112.853 E23.76892
G1 X134.394 Y114.640 E23.80768
G1 X134.394 Y113.904 E23.81897
G1 X132.607 Y112.117 E23.85773
G1 X132.607 Y111.381 E23.86902
G1 X134.394 Y113.168 E23.90778
G1 X134.394 Y112.432 E23.91907
G1 X132.607 Y110.644 E23.95784
G1 X132.607 Y109.908 E23.96913
G1 X134.394 Y111.695 E24.00789
G1 X134.394 Y110.959 E24.01918
G1 X132.607 Y109.172 E24.05794
G1 X132.607 Y108.436 E24.06923
G1 X134.394 Y110.223 E24.10799
G1 X134.394 Y109.487 E24.11928
G1 X132.607 Y107.700 E24.15804
G1 X132.607 Y106.964 E24.16933
G1 X134.394 Y108.751 E24.20810
G1 X134.394 Y108.015 E24.21939
G1 X132.607 Y106.227 E24.25815
G1 X132.607 Y105.491 E24.26944
G1 X134.394 Y107.278 E24.30820
G1 X134.394 Y106.542 E24.31949
G1 X132.607 Y104.755 E24.35825
G1 X132.607 Y104.019 E24.36954
G1 X134.394 Y105.806 E24.40830
G1 X134.394 Y105.070 E24.41959
G1 X132.607 Y103.283 E24.45836
G1 X132.607 Y102.546 E24.46965
G1 X134.394 Y104.334 E24.50841
G1 X134.394 Y103.597 E24.51970
G1 X132.607 Y101.810 E24.55846
G1 X132.607 Y101.074 E24.56975
G1 X134.394 Y102.861 E24.60851
G1 X134.394 Y102.125 E24.61980
G1 X132.607 Y100.338 E24.65856
G1 X132.607 Y99.602 E24.66985
G1 X134.394 Y101.389 E24.70862
G1 X134.394 Y100.653 E24.71991
G1 X132.607 Y98.866 E24.75867
G1 X132.607 Y98.129 E24.76996
G1 X134.394 Y99.917 E24.80872
G1 X134.394 Y99.180 E24.82001
G1 X132.607 Y97.393 E24.85877
G1 X132.607 Y96.657 E24.87006
G1 X134.394 Y98.444 E24.90882
G1 X134.394 Y97.708 E24.92011
G1 X132.607 Y95.921 E24.95888
G1 X132.607 Y95.185 E24.97017
G1 X134.394 Y96.972 E25.00893
G1 X134.394 Y96.236 E25.02022
G1 X132.607 Y94.448 E25.05898
G1 X132.607 Y93.712 E25.07027
G1 X134.394 Y95.499 E25.10903
G1 X134.394 Y94.763 E25.12032
G1 X132.607 Y92.976 E25.15909
G1 X132.607 Y92.240 E25.17038
G1 X134.394 Y94.027 E25.20914
G1 X134.394 Y93.291 E25.22043
G1 X132.607 Y91.504 E25.25919
G1 X132.607 Y90.768 E25.27048
G1 X134.394 Y92.555 E25.30924
G1 X134.394 Y91.819 E25.32053
G1 X132.607 Y90.031 E25.35929
G1 X132.607 Y89.295 E25.37058
G1 X134.394 Y91.082 E25.40935
G1 X134.394 Y90.346 E25.42064
G1 X132.607 Y88.559 E25.45940
G1 X132.607 Y87.823 E25.47069
G1 X134.394 Y89.610 E25.50945
G1 X134.394 Y88.874 E25.52074
G1 X132.607 Y87.087 E25.55950
G1 X132.607 Y86.350 E25.57079
G1 X134.394 Y88.138 E25.60955
G1 X134.394 Y87.401 E25.62084
G1 X132.607 Y85.614 E25.65961
G1 X132.607 Y84.878 E25.67090
G1 X134.394 Y86.665 E25.70966
G1 X134.394 Y85.929 E25.72095
G1 X132.607 Y84.142 E25.75971
G1 X132.607 Y83.406 E25.77100
G1 X134.394 Y85.193 E25.80976
G1 X134.394 Y84.457 E25.82105
G1 X132.607 Y82.670 E25.85981
G1 X132.607 Y81.933 E25.87110
G1 X134.394 Y83.721 E25.90987
G1 X134.394 Y82.984 E25.92116
G1 X132.607 Y81.197 E25.95992
G1 X132.607 Y80.461 E25.97121
G1 X134.394 Y82.248 E26.00997
G1 X134.394 Y81.512 E26.02126
G1 X132.607 Y79.725 E26.06002
G1 X132.607 Y78.989 E26.07131
G1 X134.394 Y80.776 E26.11007
G1 X134.394 Y80.040 E26.12136
G1 X132.607 Y78.252 E26.16013
G1 X132.607 Y77.516 E26.17142
G1 X134.394 Y79.303 E26.21018
G1 X134.394 Y78.567 E26.22147
G1 X132.607 Y76.780 E26.26023
G1 X132.607 Y76.044 E26.27152
G1 X134.394 Y77.831 E26.31028
G1 X134.394 Y77.095 E26.32157
G1 X132.607 Y75.308 E26.36033
