; generated by Slic3r 0.9.9 on 2014-02-02 at 17:17:03

; layer_height = 0.1
; perimeters = 3
; top_solid_layers = 6
; bottom_solid_layers = 3
; fill_density = 0.4
; perimeter_speed = 30
; infill_speed = 60
; travel_speed = 130
; nozzle_diameter = 0.5
; filament_diameter = 2.94
; extrusion_multiplier = 1
; perimeters extrusion width = 0.85mm
; infill extrusion width = 1.98mm
; solid infill extrusion width = 0.85mm
; top infill extrusion width = 0.85mm
; first layer extrusion width = 0.40mm

G21 ; set units to millimeters
M190 S120 ; wait for bed temperature to be reached
M104 S195 ; set temperature
G28 ; home all axes
M109 S195 ; wait for temperature to be reached
G90 ; use absolute coordinates
G92 E0
M82 ; use absolute distances for extrusion
M106 S89
G1 F1800.000 E-1.25000
G92 E0
G1 Z0.200 F7800.000
G1 X59.950 Y80.760
G1 F1800.000 E1.25000
G1 X60.200 Y80.580 F540.000 E1.25383
G1 X60.960 Y80.110 E1.26492
G1 X61.500 Y79.840 E1.27242
G1 X62.340 Y79.510 E1.28362
G1 X62.920 Y79.340 E1.29113
G1 X63.500 Y79.210 E1.29851
G1 X63.800 Y79.160 E1.30228
G1 X64.700 Y79.080 E1.31350
G1 X125.300 Y79.080 E2.06595
G1 X126.200 Y79.160 E2.07717
G1 X126.500 Y79.210 E2.08094
G1 X127.080 Y79.340 E2.08832
G1 X127.660 Y79.510 E2.09583
G1 X128.220 Y79.720 E2.10325
G1 X128.770 Y79.970 E2.11076
G1 X129.300 Y80.260 E2.11826
G1 X129.800 Y80.580 E2.12563
G1 X130.280 Y80.940 E2.13308
G1 X130.740 Y81.340 E2.14065
G1 X131.160 Y81.760 E2.14802
G1 X131.740 Y82.450 E2.15921
G1 X131.920 Y82.700 E2.16304
G1 X132.390 Y83.460 E2.17413
G1 X132.660 Y84.000 E2.18163
G1 X132.890 Y84.560 E2.18915
G1 X133.080 Y85.130 E2.19661
G1 X133.230 Y85.710 E2.20405
G1 X133.340 Y86.300 E2.21150
G1 X133.420 Y87.200 E2.22272
G1 X133.420 Y102.800 E2.41642
G1 X133.340 Y103.700 E2.42764
G1 X133.290 Y104.000 E2.43141
G1 X133.160 Y104.580 E2.43879
G1 X132.990 Y105.160 E2.44630
G1 X132.660 Y106.000 E2.45750
G1 X132.390 Y106.540 E2.46500
G1 X131.920 Y107.300 E2.47609
G1 X131.740 Y107.550 E2.47992
G1 X131.160 Y108.240 E2.49111
G1 X130.740 Y108.660 E2.49849
G1 X130.050 Y109.240 E2.50968
G1 X129.800 Y109.420 E2.51350
G1 X129.040 Y109.890 E2.52460
G1 X128.500 Y110.160 E2.53210
G1 X127.940 Y110.390 E2.53961
G1 X127.370 Y110.580 E2.54707
G1 X126.790 Y110.730 E2.55451
G1 X126.200 Y110.840 E2.56196
G1 X125.600 Y110.900 E2.56945
G1 X125.300 Y110.920 E2.57318
G1 X64.700 Y110.920 E3.32563
G1 X63.800 Y110.840 E3.33685
G1 X63.500 Y110.790 E3.34062
G1 X62.920 Y110.660 E3.34800
G1 X62.340 Y110.490 E3.35551
G1 X61.500 Y110.160 E3.36671
G1 X60.960 Y109.890 E3.37421
G1 X60.200 Y109.420 E3.38531
G1 X59.950 Y109.240 E3.38913
G1 X59.260 Y108.660 E3.40032
G1 X58.840 Y108.240 E3.40770
G1 X58.260 Y107.550 E3.41889
G1 X58.080 Y107.300 E3.42272
G1 X57.610 Y106.540 E3.43381
G1 X57.340 Y106.000 E3.44131
G1 X57.110 Y105.440 E3.44882
G1 X56.920 Y104.870 E3.45628
G1 X56.770 Y104.290 E3.46372
G1 X56.660 Y103.700 E3.47117
G1 X56.600 Y103.100 E3.47866
G1 X56.580 Y102.800 E3.48240
G1 X56.580 Y87.200 E3.67609
G1 X56.660 Y86.300 E3.68731
G1 X56.770 Y85.710 E3.69476
G1 X57.010 Y84.840 E3.70597
G1 X57.340 Y84.000 E3.71718
G1 X57.760 Y83.200 E3.72840
G1 X58.260 Y82.450 E3.73959
G1 X58.840 Y81.760 E3.75078
G1 X59.260 Y81.340 E3.75815
G1 X59.900 Y80.799 E3.76856
G1 F1800.000 E2.51856
G92 E0
G1 X62.469 Y81.389 F7800.000
G1 F1800.000 E1.25000
G1 X127.531 Y81.389 F540.000 E2.05786
G1 X131.111 Y84.969 E2.12072
G1 X131.111 Y105.031 E2.36983
G1 X127.531 Y108.611 E2.43269
G1 X62.469 Y108.611 E3.24054
G1 X58.889 Y105.031 E3.30340
G1 X58.889 Y84.969 E3.55251
G1 X62.424 Y81.434 E3.61459
G1 X62.643 Y81.810 F7800.000
G1 X127.357 Y81.810 F540.000 E4.41811
G1 X130.690 Y85.143 E4.47664
G1 X130.690 Y104.857 E4.72141
G1 X127.357 Y108.190 E4.77994
G1 X62.643 Y108.190 E5.58346
G1 X59.310 Y104.857 E5.64198
G1 X59.310 Y85.143 E5.88676
G1 X62.599 Y81.855 E5.94450
G1 X62.818 Y82.232 F7800.000
G1 X127.182 Y82.232 F540.000 E6.74368
G1 X130.268 Y85.318 E6.79787
G1 X130.268 Y104.682 E7.03831
G1 X127.182 Y107.768 E7.09250
G1 X62.818 Y107.768 E7.89169
G1 X59.732 Y104.682 E7.94588
G1 X59.732 Y85.318 E8.18632
G1 X62.773 Y82.276 E8.23972
G1 X62.992 Y82.653 F7800.000
G1 X127.008 Y82.653 F540.000 E9.03457
G1 X129.847 Y85.492 E9.08443
G1 X129.847 Y104.508 E9.32053
G1 X127.008 Y107.347 E9.37039
G1 X62.992 Y107.347 E10.16524
G1 X60.153 Y104.508 E10.21509
G1 X60.153 Y85.492 E10.45120
G1 X62.948 Y82.698 E10.50027
G1 X63.167 Y83.075 F7800.000
G1 X126.833 Y83.075 F540.000 E11.29078
G1 X129.425 Y85.667 E11.33630
G1 X129.425 Y104.333 E11.56807
G1 X126.833 Y106.925 E11.61359
G1 X63.167 Y106.925 E12.40411
G1 X60.575 Y104.333 E12.44963
G1 X60.575 Y85.667 E12.68139
G1 X63.122 Y83.119 E12.72613
G1 X63.342 Y83.496 F7800.000
G1 X126.658 Y83.496 F540.000 E13.51231
G1 X129.004 Y85.842 E13.55349
G1 X129.004 Y104.158 E13.78093
G1 X126.658 Y106.504 E13.82211
G1 X63.342 Y106.504 E14.60829
G1 X60.996 Y104.158 E14.64948
G1 X60.996 Y85.842 E14.87691
G1 X63.297 Y83.541 E14.91731
G1 X63.516 Y83.918 F7800.000
G1 X126.484 Y83.918 F540.000 E15.69915
G1 X128.582 Y86.016 E15.73600
G1 X128.582 Y103.984 E15.95910
G1 X126.484 Y106.082 E15.99595
G1 X63.516 Y106.082 E16.77779
G1 X61.418 Y103.984 E16.81464
G1 X61.418 Y86.016 E17.03774
G1 X63.471 Y83.962 E17.07381
G1 X63.691 Y84.339 F7800.000
G1 X126.309 Y84.339 F540.000 E17.85132
G1 X128.161 Y86.191 E17.88383
G1 X128.161 Y103.809 E18.10259
G1 X126.309 Y105.661 E18.13511
G1 X63.691 Y105.661 E18.91262
G1 X61.839 Y103.809 E18.94513
G1 X61.839 Y86.191 E19.16389
G1 X63.646 Y84.384 E19.19562
G1 X63.865 Y84.761 F7800.000
G1 X126.135 Y84.761 F540.000 E19.96880
G1 X127.739 Y86.365 E19.99698
G1 X127.739 Y103.635 E20.21140
G1 X126.135 Y105.239 E20.23958
G1 X63.865 Y105.239 E21.01276
G1 X62.261 Y103.635 E21.04094
G1 X62.261 Y86.365 E21.25536
G1 X63.821 Y84.805 E21.28276
G1 X64.040 Y85.182 F7800.000
G1 X125.960 Y85.182 F540.000 E22.05160
G1 X127.318 Y86.540 E22.07544
G1 X127.318 Y103.460 E22.28553
G1 X125.960 Y104.818 E22.30938
G1 X64.040 Y104.818 E23.07822
G1 X62.682 Y103.460 E23.10206
G1 X62.682 Y86.540 E23.31215
G1 X63.995 Y85.227 E23.33521
G1 X64.214 Y85.603 F7800.000
G1 X125.786 Y85.603 F540.000 E24.09971
G1 X126.897 Y86.714 E24.11922
G1 X126.897 Y103.286 E24.32498
G1 X125.786 Y104.397 E24.34449
G1 X64.214 Y104.397 E25.10899
G1 X63.103 Y103.286 E25.12850
G1 X63.103 Y86.714 E25.33426
G1 X64.170 Y85.648 E25.35298
G1 X64.389 Y86.025 F7800.000
G1 X125.611 Y86.025 F540.000 E26.11315
G1 X126.475 Y86.889 E26.12832
G1 X126.475 Y103.111 E26.32974
G1 X125.611 Y103.975 E26.34492
G1 X64.389 Y103.975 E27.10509
G1 X63.525 Y103.111 E27.12026
G1 X63.525 Y86.889 E27.32168
G1 X64.344 Y86.070 E27.33607
G1 X64.564 Y86.446 F7800.000
G1 X125.436 Y86.446 F540.000 E28.09190
G1 X126.054 Y87.064 E28.10274
G1 X126.054 Y102.936 E28.29983
G1 X125.436 Y103.554 E28.31067
G1 X64.564 Y103.554 E29.06650
G1 X63.946 Y102.936 E29.07734
G1 X63.946 Y87.064 E29.27442
G1 X64.519 Y86.491 E29.28448
G1 X64.738 Y86.868 F7800.000
G1 X125.262 Y86.868 F540.000 E30.03597
G1 X125.632 Y87.238 E30.04248
G1 X125.632 Y102.762 E30.23523
G1 X125.262 Y103.132 E30.24173
G1 X64.738 Y103.132 E30.99323
G1 X64.368 Y102.762 E30.99973
G1 X64.368 Y87.238 E31.19248
G1 X64.693 Y86.913 E31.19820
G1 X64.913 Y87.289 F7800.000
G1 X125.087 Y87.289 F540.000 E31.94536
G1 X125.211 Y87.413 E31.94753
G1 X125.211 Y102.587 E32.13595
G1 X125.087 Y102.711 E32.13812
G1 X64.913 Y102.711 E32.88528
G1 X64.789 Y102.587 E32.88745
G1 X64.789 Y87.413 E33.07586
G1 X64.868 Y87.334 E33.07724
G1 X65.211 Y87.711 F7800.000
G1 X124.789 Y87.711 F378.000 E33.81701
G1 X124.789 Y102.289 E33.99802
G1 X65.211 Y102.289 E34.73778
G1 X65.211 Y87.774 E34.91801
G1 X65.576 Y87.921 F7800.000
G1 X65.632 Y88.132
G1 X124.368 Y88.132 F540.000 E35.64731
G1 X124.368 Y101.868 E35.81786
G1 X65.632 Y101.868 E36.54715
G1 X65.632 Y88.195 E36.71692
G1 X123.946 Y101.446 F7800.000
G1 X66.054 Y101.446 F540.000 E37.43575
G1 X66.054 Y88.554 E37.59583
G1 X123.946 Y88.554 E38.31466
G1 X123.946 Y101.383 E38.47396
G1 X123.641 Y88.859 F7800.000
G1 X123.641 Y89.459 F1080.000 E38.48145
G1 X123.041 Y88.859 E38.49205
G1 X122.441 Y88.859 E38.49954
G1 X123.641 Y90.059 E38.52073
G1 X123.641 Y90.658 E38.52823
G1 X121.842 Y88.859 E38.56001
G1 X121.242 Y88.859 E38.56750
G1 X123.641 Y91.258 E38.60989
G1 X123.641 Y91.858 E38.61738
G1 X120.642 Y88.859 E38.67035
G1 X120.043 Y88.859 E38.67785
G1 X123.641 Y92.457 E38.74142
G1 X123.641 Y93.057 E38.74891
G1 X119.443 Y88.859 E38.82308
G1 X118.843 Y88.859 E38.83057
G1 X123.641 Y93.657 E38.91533
G1 X123.641 Y94.256 E38.92282
G1 X118.244 Y88.859 E39.01817
G1 X117.644 Y88.859 E39.02567
G1 X123.641 Y94.856 E39.13162
G1 X123.641 Y95.456 E39.13911
G1 X117.044 Y88.859 E39.25565
G1 X116.445 Y88.859 E39.26314
G1 X123.641 Y96.055 E39.39028
G1 X123.641 Y96.655 E39.39778
G1 X115.845 Y88.859 E39.53551
G1 X115.245 Y88.859 E39.54300
G1 X123.641 Y97.255 E39.69133
G1 X123.641 Y97.855 E39.69882
G1 X114.645 Y88.859 E39.85775
G1 X114.046 Y88.859 E39.86524
G1 X123.641 Y98.454 E40.03476
G1 X123.641 Y99.054 E40.04225
G1 X113.446 Y88.859 E40.22236
G1 X112.846 Y88.859 E40.22985
G1 X123.641 Y99.654 E40.42056
G1 X123.641 Y100.253 E40.42805
G1 X112.247 Y88.859 E40.62936
G1 X111.647 Y88.859 E40.63685
G1 X123.641 Y100.853 E40.84874
G1 X123.329 Y101.141 E40.85405
G1 X111.047 Y88.859 E41.07103
G1 X110.448 Y88.859 E41.07852
G1 X122.730 Y101.141 E41.29551
G1 X122.130 Y101.141 E41.30300
G1 X109.848 Y88.859 E41.51998
G1 X109.248 Y88.859 E41.52748
G1 X121.530 Y101.141 E41.74446
G1 X120.930 Y101.141 E41.75195
G1 X108.649 Y88.859 E41.96894
G1 X108.049 Y88.859 E41.97643
G1 X120.331 Y101.141 E42.19342
G1 X119.731 Y101.141 E42.20091
G1 X107.449 Y88.859 E42.41789
G1 X106.850 Y88.859 E42.42538
G1 X119.131 Y101.141 E42.64237
G1 X118.532 Y101.141 E42.64986
G1 X106.250 Y88.859 E42.86685
G1 X105.650 Y88.859 E42.87434
G1 X117.932 Y101.141 E43.09132
G1 X117.332 Y101.141 E43.09881
G1 X105.051 Y88.859 E43.31580
G1 X104.451 Y88.859 E43.32329
G1 X116.733 Y101.141 E43.54028
G1 X116.133 Y101.141 E43.54777
G1 X103.851 Y88.859 E43.76475
G1 X103.252 Y88.859 E43.77224
G1 X115.533 Y101.141 E43.98923
G1 X114.934 Y101.141 E43.99672
G1 X102.652 Y88.859 E44.21371
G1 X102.052 Y88.859 E44.22120
G1 X114.334 Y101.141 E44.43818
G1 X113.734 Y101.141 E44.44567
G1 X101.452 Y88.859 E44.66266
G1 X100.853 Y88.859 E44.67015
G1 X113.135 Y101.141 E44.88714
G1 X112.535 Y101.141 E44.89463
G1 X100.253 Y88.859 E45.11161
G1 X99.653 Y88.859 E45.11911
G1 X111.935 Y101.141 E45.33609
G1 X111.336 Y101.141 E45.34358
G1 X99.054 Y88.859 E45.56057
G1 X98.454 Y88.859 E45.56806
G1 X110.736 Y101.141 E45.78504
G1 X110.136 Y101.141 E45.79254
G1 X97.854 Y88.859 E46.00952
G1 X97.255 Y88.859 E46.01701
G1 X109.536 Y101.141 E46.23400
G1 X108.937 Y101.141 E46.24149
G1 X96.655 Y88.859 E46.45847
G1 X96.055 Y88.859 E46.46597
G1 X108.337 Y101.141 E46.68295
G1 X107.737 Y101.141 E46.69044
G1 X95.456 Y88.859 E46.90743
G1 X94.856 Y88.859 E46.91492
G1 X107.138 Y101.141 E47.13191
G1 X106.538 Y101.141 E47.13940
G1 X94.256 Y88.859 E47.35638
G1 X93.657 Y88.859 E47.36387
G1 X105.938 Y101.141 E47.58086
G1 X105.339 Y101.141 E47.58835
G1 X93.057 Y88.859 E47.80534
G1 X92.457 Y88.859 E47.81283
G1 X104.739 Y101.141 E48.02981
G1 X104.139 Y101.141 E48.03730
G1 X91.858 Y88.859 E48.25429
G1 X91.258 Y88.859 E48.26178
G1 X103.540 Y101.141 E48.47877
G1 X102.940 Y101.141 E48.48626
G1 X90.658 Y88.859 E48.70324
G1 X90.058 Y88.859 E48.71073
G1 X102.340 Y101.141 E48.92772
G1 X101.741 Y101.141 E48.93521
G1 X89.459 Y88.859 E49.15220
G1 X88.859 Y88.859 E49.15969
G1 X101.141 Y101.141 E49.37667
G1 X100.541 Y101.141 E49.38417
G1 X88.259 Y88.859 E49.60115
G1 X87.660 Y88.859 E49.60864
G1 X99.942 Y101.141 E49.82563
G1 X99.342 Y101.141 E49.83312
G1 X87.060 Y88.859 E50.05010
G1 X86.460 Y88.859 E50.05760
G1 X98.742 Y101.141 E50.27458
G1 X98.143 Y101.141 E50.28207
G1 X85.861 Y88.859 E50.49906
G1 X85.261 Y88.859 E50.50655
G1 X97.543 Y101.141 E50.72353
G1 X96.943 Y101.141 E50.73103
G1 X84.661 Y88.859 E50.94801
G1 X84.062 Y88.859 E50.95550
G1 X96.343 Y101.141 E51.17249
G1 X95.744 Y101.141 E51.17998
G1 X83.462 Y88.859 E51.39697
G1 X82.862 Y88.859 E51.40446
G1 X95.144 Y101.141 E51.62144
G1 X94.544 Y101.141 E51.62893
G1 X82.263 Y88.859 E51.84592
G1 X81.663 Y88.859 E51.85341
G1 X93.945 Y101.141 E52.07040
G1 X93.345 Y101.141 E52.07789
G1 X81.063 Y88.859 E52.29487
G1 X80.464 Y88.859 E52.30236
G1 X92.745 Y101.141 E52.51935
G1 X92.146 Y101.141 E52.52684
G1 X79.864 Y88.859 E52.74383
G1 X79.264 Y88.859 E52.75132
G1 X91.546 Y101.141 E52.96830
G1 X90.946 Y101.141 E52.97579
G1 X78.664 Y88.859 E53.19278
G1 X78.065 Y88.859 E53.20027
G1 X90.347 Y101.141 E53.41726
G1 X89.747 Y101.141 E53.42475
G1 X77.465 Y88.859 E53.64173
G1 X76.865 Y88.859 E53.64922
G1 X89.147 Y101.141 E53.86621
G1 X88.548 Y101.141 E53.87370
G1 X76.266 Y88.859 E54.09069
G1 X75.666 Y88.859 E54.09818
G1 X87.948 Y101.141 E54.31516
G1 X87.348 Y101.141 E54.32266
G1 X75.066 Y88.859 E54.53964
G1 X74.467 Y88.859 E54.54713
G1 X86.749 Y101.141 E54.76412
G1 X86.149 Y101.141 E54.77161
G1 X73.867 Y88.859 E54.98859
G1 X73.267 Y88.859 E54.99609
G1 X85.549 Y101.141 E55.21307
G1 X84.949 Y101.141 E55.22056
G1 X72.668 Y88.859 E55.43755
G1 X72.068 Y88.859 E55.44504
G1 X84.350 Y101.141 E55.66202
G1 X83.750 Y101.141 E55.66952
G1 X71.468 Y88.859 E55.88650
G1 X70.869 Y88.859 E55.89399
G1 X83.150 Y101.141 E56.11098
G1 X82.551 Y101.141 E56.11847
G1 X70.269 Y88.859 E56.33545
G1 X69.669 Y88.859 E56.34295
G1 X81.951 Y101.141 E56.55993
G1 X81.351 Y101.141 E56.56742
G1 X69.070 Y88.859 E56.78441
G1 X68.470 Y88.859 E56.79190
G1 X80.752 Y101.141 E57.00889
G1 X80.152 Y101.141 E57.01638
G1 X67.870 Y88.859 E57.23336
G1 X67.271 Y88.859 E57.24085
G1 X79.552 Y101.141 E57.45784
G1 X78.953 Y101.141 E57.46533
G1 X66.671 Y88.859 E57.68232
G1 X66.359 Y89.147 E57.68762
G1 X78.353 Y101.141 E57.89952
G1 X77.753 Y101.141 E57.90701
G1 X66.359 Y89.747 E58.10831
G1 X66.359 Y90.346 E58.11580
G1 X77.154 Y101.141 E58.30651
G1 X76.554 Y101.141 E58.31400
G1 X66.359 Y90.946 E58.49412
G1 X66.359 Y91.546 E58.50161
G1 X75.954 Y101.141 E58.67113
G1 X75.355 Y101.141 E58.67862
G1 X66.359 Y92.145 E58.83754
G1 X66.359 Y92.745 E58.84503
G1 X74.755 Y101.141 E58.99336
G1 X74.155 Y101.141 E59.00085
G1 X66.359 Y93.345 E59.13859
G1 X66.359 Y93.945 E59.14608
G1 X73.555 Y101.141 E59.27322
G1 X72.956 Y101.141 E59.28071
G1 X66.359 Y94.544 E59.39726
G1 X66.359 Y95.144 E59.40475
G1 X72.356 Y101.141 E59.51070
G1 X71.756 Y101.141 E59.51819
G1 X66.359 Y95.744 E59.61355
G1 X66.359 Y96.343 E59.62104
G1 X71.157 Y101.141 E59.70580
G1 X70.557 Y101.141 E59.71329
G1 X66.359 Y96.943 E59.78746
G1 X66.359 Y97.543 E59.79495
G1 X69.957 Y101.141 E59.85852
G1 X69.358 Y101.141 E59.86601
G1 X66.359 Y98.142 E59.91899
G1 X66.359 Y98.742 E59.92648
G1 X68.758 Y101.141 E59.96887
G1 X68.158 Y101.141 E59.97636
G1 X66.359 Y99.342 E60.00815
G1 X66.359 Y99.941 E60.01564
G1 X67.559 Y101.141 E60.03683
G1 X66.959 Y101.141 E60.04432
G1 X66.359 Y100.541 E60.05492
G1 X66.359 Y101.141 E60.06241
M106 S255
G1 F1800.000 E58.81241
G92 E0
G1 Z0.300 F7800.000
G1 X122.929 Y100.429
G1 F1800.000 E1.25000
G1 X67.071 Y100.429 F1656.075 E1.93172
G1 X67.071 Y89.571 E2.06423
G1 X122.929 Y89.571 E2.74596
G1 X122.929 Y100.304 E2.87695
G1 X123.757 Y101.257 F7800.000
G1 X66.243 Y101.257 F1656.075 E3.57890
G1 X66.243 Y88.743 E3.73164
G1 X123.757 Y88.743 E4.43359
G1 X123.757 Y101.133 E4.58480
G1 X124.586 Y102.086 F7800.000
G1 X65.414 Y102.086 F1159.252 E5.30698
G1 X65.414 Y87.914 E5.47994
G1 X124.586 Y87.914 E6.20211
G1 X124.586 Y101.961 E6.37355
G1 X123.868 Y101.671 F7800.000
G1 X122.328 Y99.828
G1 X121.137 Y99.828 F3312.150 E6.38833
G1 X122.328 Y98.637 E6.40922
G1 X122.328 Y97.446 E6.42400
G1 X119.946 Y99.828 E6.46579
G1 X118.755 Y99.828 E6.48056
G1 X122.328 Y96.255 E6.54325
G1 X122.328 Y95.064 E6.55802
G1 X117.564 Y99.828 E6.64160
G1 X116.373 Y99.828 E6.65637
G1 X122.328 Y93.873 E6.76084
G1 X122.328 Y92.682 E6.77562
G1 X115.182 Y99.828 E6.90098
G1 X113.991 Y99.828 E6.91576
G1 X122.328 Y91.491 E7.06201
G1 X122.328 Y90.300 E7.07679
G1 X112.800 Y99.828 E7.24394
G1 X111.609 Y99.828 E7.25871
G1 X121.265 Y90.172 E7.42812
G1 X120.074 Y90.172 E7.44289
