; generated by Slic3r 1.0.0RC3 on 2014-03-06 at 18:54:23

; layer_height = 0.25
; perimeters = 3
; top_solid_layers = 4
; bottom_solid_layers = 4
; fill_density = 0.4
; perimeter_speed = 30
; infill_speed = 60
; travel_speed = 130
; nozzle_diameter = 0.5
; filament_diameter = 2.94
; extrusion_multiplier = 1
; perimeters extrusion width = 0.50mm
; infill extrusion width = 0.84mm
; solid infill extrusion width = 0.84mm
; top infill extrusion width = 0.84mm

G21 ; set units to millimeters
M107
M190 S110 ; wait for bed temperature to be reached
M104 S220 ; set temperature
G28 ; home all axes
M109 S220 ; wait for temperature to be reached
G90 ; use absolute coordinates
G92 E0
M82 ; use absolute distances for extrusion
G1 F600.000 E-1.00000
G92 E0
G1 Z0.200 F7800.000
G1 X56.999 Y83.629 F7800.000
G1 E1.00000 F600.000
G1 X58.039 Y82.969 E1.01814 F540.000
G1 X59.209 Y82.569 E1.03636
G1 X60.429 Y82.429 E1.05445
G1 X129.569 Y82.429 E2.07291
G1 X130.789 Y82.569 E2.09100
G1 X131.959 Y82.969 E2.10921
G1 X132.999 Y83.629 E2.12736
G1 X133.869 Y84.499 E2.14548
G1 X134.529 Y85.539 E2.16362
G1 X134.929 Y86.709 E2.18184
G1 X135.069 Y87.929 E2.19993
G1 X135.069 Y102.069 E2.40822
G1 X134.929 Y103.289 E2.42630
G1 X134.529 Y104.459 E2.44452
G1 X133.869 Y105.499 E2.46266
G1 X132.999 Y106.369 E2.48079
G1 X131.959 Y107.029 E2.49893
G1 X130.789 Y107.429 E2.51714
G1 X129.569 Y107.569 E2.53523
G1 X60.429 Y107.569 E3.55370
G1 X59.209 Y107.429 E3.57179
G1 X58.039 Y107.029 E3.59000
G1 X56.999 Y106.369 E3.60814
G1 X56.129 Y105.499 E3.62627
G1 X55.469 Y104.459 E3.64441
G1 X55.069 Y103.289 E3.66263
G1 X54.929 Y102.069 E3.68071
G1 X54.929 Y87.929 E3.88900
G1 X55.069 Y86.709 E3.90709
G1 X55.469 Y85.539 E3.92531
G1 X56.129 Y84.499 E3.94345
G1 X56.946 Y83.682 E3.96047
G1 F600.000 E2.96047
G92 E0
G1 X112.679 Y86.790 F7800.000
G1 E1.00000 F600.000
G1 X114.290 Y85.179 E1.03356 F540.000
G1 X130.710 Y85.179 E1.27544
G1 X132.321 Y86.790 E1.30900
G1 X132.321 Y103.210 E1.55087
G1 X130.710 Y104.821 E1.58443
G1 X114.290 Y104.821 E1.82631
G1 X112.679 Y103.210 E1.85987
G1 X112.679 Y86.865 E2.10064
G1 X113.179 Y86.997 F7800.000
G1 X114.497 Y85.679 E2.12810 F540.000
G1 X130.503 Y85.679 E2.36388
G1 X131.821 Y86.997 E2.39133
G1 X131.821 Y103.003 E2.62711
G1 X130.503 Y104.321 E2.65457
G1 X114.497 Y104.321 E2.89034
G1 X113.179 Y103.003 E2.91780
G1 X113.179 Y87.072 E3.15247
G1 X113.679 Y87.204 F7800.000
G1 X114.704 Y86.179 E3.17383 F540.000
G1 X130.296 Y86.179 E3.40350
G1 X131.321 Y87.204 E3.42486
G1 X131.321 Y102.796 E3.65453
G1 X130.296 Y103.821 E3.67589
G1 X114.704 Y103.821 E3.90556
G1 X113.679 Y102.796 E3.92692
G1 X113.679 Y87.279 E4.15549
G1 X114.179 Y87.411 F7800.000
G1 X114.911 Y86.679 E4.17074 F540.000
G1 X130.089 Y86.679 E4.39432
G1 X130.821 Y87.411 E4.40957
G1 X130.821 Y102.589 E4.63314
G1 X130.089 Y103.321 E4.64840
G1 X114.911 Y103.321 E4.87197
G1 X114.179 Y102.589 E4.88723
G1 X114.179 Y87.486 E5.10969
G1 X114.679 Y87.618 F7800.000
G1 X115.118 Y87.179 E5.11885 F540.000
G1 X129.882 Y87.179 E5.33632
G1 X130.321 Y87.618 E5.34547
G1 X130.321 Y102.382 E5.56294
G1 X129.882 Y102.821 E5.57210
G1 X115.118 Y102.821 E5.78957
G1 X114.679 Y102.382 E5.79872
G1 X114.679 Y87.693 E6.01509
G1 X115.179 Y87.825 F7800.000
G1 X115.325 Y87.679 E6.01814 F540.000
G1 X129.675 Y87.679 E6.22951
G1 X129.821 Y87.825 E6.23256
G1 X129.821 Y102.175 E6.44393
G1 X129.675 Y102.321 E6.44698
G1 X115.325 Y102.321 E6.65835
G1 X115.179 Y102.175 E6.66140
G1 X115.179 Y87.900 E6.87167
G1 F600.000 E5.87167
G92 E0
G1 X77.321 Y86.790 F7800.000
G1 E1.00000 F600.000
G1 X77.321 Y103.210 E1.24188 F540.000
G1 X75.710 Y104.821 E1.27544
G1 X59.290 Y104.821 E1.51731
G1 X57.679 Y103.210 E1.55087
G1 X57.679 Y86.790 E1.79275
G1 X59.290 Y85.179 E1.82631
G1 X75.710 Y85.179 E2.06819
G1 X77.268 Y86.737 E2.10064
G1 X76.821 Y86.997 F7800.000
G1 X76.821 Y103.003 E2.33642 F540.000
G1 X75.503 Y104.321 E2.36388
G1 X59.497 Y104.321 E2.59965
G1 X58.179 Y103.003 E2.62711
G1 X58.179 Y86.997 E2.86289
G1 X59.497 Y85.679 E2.89034
G1 X75.503 Y85.679 E3.12612
G1 X76.768 Y86.944 E3.15247
G1 X76.321 Y87.204 F7800.000
G1 X76.321 Y102.796 E3.38215 F540.000
G1 X75.296 Y103.821 E3.40350
G1 X59.704 Y103.821 E3.63318
G1 X58.679 Y102.796 E3.65453
G1 X58.679 Y87.204 E3.88421
G1 X59.704 Y86.179 E3.90556
G1 X75.296 Y86.179 E4.13524
G1 X76.268 Y87.151 E4.15549
G1 X75.821 Y87.411 F7800.000
G1 X75.821 Y102.589 E4.37906 F540.000
G1 X75.089 Y103.321 E4.39432
G1 X59.911 Y103.321 E4.61789
G1 X59.179 Y102.589 E4.63314
G1 X59.179 Y87.411 E4.85672
G1 X59.911 Y86.679 E4.87197
G1 X75.089 Y86.679 E5.09555
G1 X75.768 Y87.358 E5.10969
G1 X75.321 Y87.618 F7800.000
G1 X75.321 Y102.382 E5.32717 F540.000
G1 X74.882 Y102.821 E5.33632
G1 X60.118 Y102.821 E5.55379
G1 X59.679 Y102.382 E5.56294
G1 X59.679 Y87.618 E5.78042
G1 X60.118 Y87.179 E5.78957
G1 X74.882 Y87.179 E6.00704
G1 X75.268 Y87.565 E6.01509
G1 X74.821 Y87.825 F7800.000
G1 X74.821 Y102.175 E6.22646 F540.000
G1 X74.675 Y102.321 E6.22951
G1 X60.325 Y102.321 E6.44088
G1 X60.179 Y102.175 E6.44393
G1 X60.179 Y87.825 E6.65530
G1 X60.325 Y87.679 E6.65835
G1 X74.675 Y87.679 E6.86972
G1 X74.768 Y87.772 E6.87167
G1 F600.000 E5.87167
G92 E0
G1 X115.679 Y88.179 F7800.000
G1 E1.00000 F600.000
G1 X129.321 Y88.179 E1.20095 F378.000
G1 X129.321 Y101.821 E1.40191
G1 X115.679 Y101.821 E1.60286
G1 X115.679 Y88.254 E1.80271
G1 X116.112 Y88.429 F7800.000
G1 F600.000 E0.80271
G92 E0
G1 X128.821 Y101.321 F7800.000
G1 E1.00000 F600.000
G1 X116.179 Y101.321 E1.18622 F540.000
G1 X116.179 Y88.679 E1.37245
G1 X128.821 Y88.679 E1.55867
G1 X128.821 Y101.246 E1.74379
G1 X128.321 Y100.821 F7800.000
G1 X116.679 Y100.821 E1.91529 F540.000
G1 X116.679 Y89.179 E2.08678
G1 X128.321 Y89.179 E2.25827
G1 X128.321 Y100.746 E2.42866
G1 F600.000 E1.42866
G92 E0
G1 X127.904 Y89.616 F7800.000
G1 E1.00000 F600.000
G1 X127.884 Y89.596 E1.00067 F1080.000
G1 X126.749 Y89.596 E1.02754
G1 X127.904 Y90.751 E1.06620
G1 X127.904 Y91.887 E1.09307
G1 X125.613 Y89.596 E1.16973
G1 X124.477 Y89.596 E1.19660
G1 X127.904 Y93.023 E1.31126
G1 X127.904 Y94.158 E1.33812
G1 X123.342 Y89.596 E1.49078
G1 X122.206 Y89.596 E1.51764
G1 X127.904 Y95.294 E1.70829
G1 X127.904 Y96.430 E1.73516
G1 X121.070 Y89.596 E1.96381
G1 X119.935 Y89.596 E1.99068
G1 X127.904 Y97.565 E2.25732
G1 X127.904 Y98.701 E2.28419
G1 X118.799 Y89.596 E2.58882
G1 X117.663 Y89.596 E2.61569
G1 X127.904 Y99.837 E2.95833
G1 X127.337 Y100.404 E2.97732
G1 X117.096 Y90.163 E3.31996
G1 X117.096 Y91.299 E3.34683
G1 X126.201 Y100.404 E3.65147
G1 X125.065 Y100.404 E3.67833
G1 X117.096 Y92.435 E3.94498
G1 X117.096 Y93.570 E3.97184
G1 X123.930 Y100.404 E4.20049
G1 X122.794 Y100.404 E4.22736
G1 X117.096 Y94.706 E4.41801
G1 X117.096 Y95.842 E4.44488
G1 X121.658 Y100.404 E4.59753
G1 X120.523 Y100.404 E4.62440
G1 X117.096 Y96.977 E4.73906
G1 X117.096 Y98.113 E4.76592
G1 X119.387 Y100.404 E4.84258
G1 X118.251 Y100.404 E4.86945
G1 X117.096 Y99.249 E4.90812
G1 X117.096 Y100.384 E4.93498
G1 X117.116 Y100.404 E4.93565
G1 F600.000 E3.93565
G92 E0
G1 X74.321 Y101.821 F7800.000
G1 E1.00000 F600.000
G1 X60.679 Y101.821 E1.20095 F378.000
G1 X60.679 Y88.179 E1.40191
G1 X74.321 Y88.179 E1.60286
G1 X74.321 Y101.746 E1.80271
G1 X73.888 Y101.571 F7800.000
G1 F600.000 E0.80271
G92 E0
G1 X61.179 Y101.321 F7800.000
G1 E1.00000 F600.000
G1 X61.179 Y88.679 E1.18622 F540.000
G1 X73.821 Y88.679 E1.37245
G1 X73.821 Y101.321 E1.55867
G1 X61.254 Y101.321 E1.74379
G1 X61.679 Y100.821 F7800.000
G1 X61.679 Y89.179 E1.91529 F540.000
G1 X73.321 Y89.179 E2.08678
G1 X73.321 Y100.821 E2.25827
G1 X61.754 Y100.821 E2.42866
G1 X62.116 Y100.404 F7800.000
G1 X62.096 Y100.384 E2.42933 F1080.000
G1 X62.096 Y99.249 E2.45620
G1 X63.251 Y100.404 E2.49486
G1 X64.387 Y100.404 E2.52173
G1 X62.096 Y98.113 E2.59839
G1 X62.096 Y96.977 E2.62526
G1 X65.523 Y100.404 E2.73992
G1 X66.658 Y100.404 E2.76679
G1 X62.096 Y95.842 E2.91944
G1 X62.096 Y94.706 E2.94631
G1 X67.794 Y100.404 E3.13696
G1 X68.930 Y100.404 E3.16382
G1 X62.096 Y93.570 E3.39247
G1 X62.096 Y92.435 E3.41934
G1 X70.065 Y100.404 E3.68598
G1 X71.201 Y100.404 E3.71285
G1 X62.096 Y91.299 E4.01749
G1 X62.096 Y90.163 E4.04435
G1 X72.337 Y100.404 E4.38699
G1 X72.904 Y99.837 E4.40599
G1 X62.663 Y89.596 E4.74862
G1 X63.799 Y89.596 E4.77549
G1 X72.904 Y98.701 E5.08013
G1 X72.904 Y97.565 E5.10700
G1 X64.935 Y89.596 E5.37364
G1 X66.070 Y89.596 E5.40051
G1 X72.904 Y96.430 E5.62915
G1 X72.904 Y95.294 E5.65602
G1 X67.206 Y89.596 E5.84667
G1 X68.342 Y89.596 E5.87354
G1 X72.904 Y94.158 E6.02619
G1 X72.904 Y93.023 E6.05306
G1 X69.477 Y89.596 E6.16772
G1 X70.613 Y89.596 E6.19458
G1 X72.904 Y91.887 E6.27125
G1 X72.904 Y90.751 E6.29811
G1 X71.749 Y89.596 E6.33678
G1 X72.884 Y89.596 E6.36365
G1 X72.904 Y89.616 E6.36431
G1 F600.000 E5.36431
G92 E0
G1 Z0.450 F7800.000
G1 X125.356 Y89.694 F7800.000
G1 X124.806 Y92.694 F7800.000
G1 X120.444 Y92.944 F7800.000
G1 E1.00000 F600.000
G1 X124.556 Y92.944 E1.07572 F600.000
G1 X124.556 Y97.056 E1.15145
G1 X120.444 Y97.056 E1.22717
G1 X120.444 Y93.019 E1.30151
G1 X119.944 Y92.444 F7800.000
G1 X125.056 Y92.444 E1.39565 F600.000
G1 X125.056 Y97.556 E1.48979
G1 X119.944 Y97.556 E1.58392
G1 X119.944 Y92.519 E1.67668
G1 X119.444 Y91.944 F7800.000
G1 X125.556 Y91.944 E1.78923 F600.000
G1 X125.556 Y98.056 E1.90178
G1 X119.444 Y98.056 E2.01433
G1 X119.444 Y92.019 E2.12550
G1 X119.877 Y92.194 F7800.000
G1 X120.880 Y93.360 F7800.000
G1 X120.860 Y93.380 E2.12646 F600.000
G1 X120.860 Y94.684 E2.17071
G1 X122.184 Y93.360 E2.23426
G1 X123.488 Y93.360 E2.27851
G1 X120.860 Y95.988 E2.40464
G1 X121.512 Y96.640 E2.43594
G1 X124.140 Y94.012 E2.56207
G1 X124.140 Y95.316 E2.60632
G1 X122.816 Y96.640 E2.66987
G1 X124.120 Y96.640 E2.71412
G1 X124.140 Y96.620 E2.71508
G1 F600.000 E1.71508
G92 E0
G1 X69.556 Y97.056 F7800.000
G1 E1.00000 F600.000
G1 X65.444 Y97.056 E1.07572 F600.000
G1 X65.444 Y92.944 E1.15145
G1 X69.556 Y92.944 E1.22717
G1 X69.556 Y96.981 E1.30151
G1 X64.944 Y97.556 F7800.000
G1 X64.944 Y92.444 E1.39565 F600.000
G1 X70.056 Y92.444 E1.48979
G1 X70.056 Y97.556 E1.58392
G1 X65.019 Y97.556 E1.67668
G1 X64.444 Y98.056 F7800.000
G1 X64.444 Y91.944 E1.78923 F600.000
G1 X70.556 Y91.944 E1.90178
G1 X70.556 Y98.056 E2.01433
G1 X64.519 Y98.056 E2.12550
G1 X64.694 Y97.623 F7800.000
G1 X65.880 Y93.360 F7800.000
G1 X65.860 Y93.380 E2.12646 F600.000
G1 X65.860 Y94.684 E2.17071
G1 X67.184 Y93.360 E2.23426
G1 X68.488 Y93.360 E2.27851
G1 X65.860 Y95.988 E2.40464
G1 X66.512 Y96.640 E2.43594
G1 X69.140 Y94.012 E2.56207
G1 X69.140 Y95.316 E2.60632
G1 X67.816 Y96.640 E2.66987
G1 X69.120 Y96.640 E2.71412
G1 X69.140 Y96.620 E2.71508
M106 S255
G1 F600.000 E1.71508
G92 E0
G1 Z0.700 F7800.000
G1 X120.465 Y97.035 F7800.000
G1 E1.00000 F600.000
G1 X120.465 Y92.965 E1.07496 F600.000
G1 X124.535 Y92.965 E1.14991
G1 X124.535 Y97.035 E1.22487
G1 X120.540 Y97.035 E1.29844
G1 X125.035 Y97.535 F7800.000
G1 X119.965 Y97.535 E1.39181 F600.000
G1 X119.965 Y92.465 E1.48518
G1 X125.035 Y92.465 E1.57855
G1 X125.035 Y97.460 E1.67054
G1 X125.535 Y98.035 F7800.000
G1 X119.465 Y98.035 E1.78232 F600.000
G1 X119.465 Y91.965 E1.89411
G1 X125.535 Y91.965 E2.00589
G1 X125.535 Y97.960 E2.11629
G1 X125.102 Y97.785 F7800.000
G1 X120.901 Y96.619 F7800.000
G1 X120.881 Y96.599 E2.11724 F600.000
G1 X120.881 Y95.312 E2.16037
G1 X122.188 Y96.619 E2.22231
G1 X123.475 Y96.619 E2.26544
G1 X120.881 Y94.025 E2.38838
G1 X121.525 Y93.381 E2.41888
G1 X124.119 Y95.975 E2.54182
G1 X124.119 Y94.688 E2.58495
G1 X122.812 Y93.381 E2.64689
G1 X124.099 Y93.381 E2.69002
G1 X124.119 Y93.401 E2.69097
G1 F600.000 E1.69097
G92 E0
G1 X69.535 Y92.965 F7800.000
G1 E1.00000 F600.000
G1 X69.535 Y97.035 E1.07496 F600.000
G1 X65.465 Y97.035 E1.14991
G1 X65.465 Y92.965 E1.22487
G1 X69.460 Y92.965 E1.29844
G1 X70.035 Y92.465 F7800.000
G1 X70.035 Y97.535 E1.39181 F600.000
G1 X64.965 Y97.535 E1.48518
G1 X64.965 Y92.465 E1.57855
G1 X69.960 Y92.465 E1.67054
G1 X70.535 Y91.965 F7800.000
G1 X70.535 Y98.035 E1.78232 F600.000
G1 X64.465 Y98.035 E1.89411
G1 X64.465 Y91.965 E2.00589
G1 X70.460 Y91.965 E2.11629
G1 X70.285 Y92.398 F7800.000
G1 X69.119 Y93.401 F7800.000
G1 X69.099 Y93.381 E2.11724 F600.000
G1 X67.812 Y93.381 E2.16037
G1 X69.119 Y94.688 E2.22231
G1 X69.119 Y95.975 E2.26544
G1 X66.525 Y93.381 E2.38838
G1 X65.881 Y94.025 E2.41888
G1 X68.475 Y96.619 E2.54182
G1 X67.188 Y96.619 E2.58495
G1 X65.881 Y95.312 E2.64689
G1 X65.881 Y96.599 E2.69002
G1 X65.901 Y96.619 E2.69097
G1 F600.000 E1.69097
G92 E0
G1 Z0.950 F7800.000
G1 X120.485 Y97.015 F7800.000
G1 E1.00000 F600.000
G1 X120.485 Y92.985 E1.07419 F600.000
G1 X124.515 Y92.985 E1.14838
G1 X124.515 Y97.015 E1.22257
G1 X120.560 Y97.015 E1.29538
G1 X125.015 Y92.485 F7800.000
G1 X125.015 Y97.515 E1.38798 F600.000
G1 X119.985 Y97.515 E1.48058
G1 X119.985 Y92.485 E1.57318
G1 X124.940 Y92.485 E1.66440
G1 X125.515 Y91.985 F7800.000
G1 X125.515 Y98.015 E1.77542 F600.000
G1 X119.485 Y98.015 E1.88643
G1 X119.485 Y91.985 E1.99745
G1 X125.440 Y91.985 E2.10708
G1 X125.265 Y92.418 F7800.000
G1 X124.098 Y96.578 F7800.000
G1 X124.078 Y96.598 E2.10802 F600.000
G1 X122.808 Y96.598 E2.15004
G1 X124.098 Y95.308 E2.21040
G1 X124.098 Y94.037 E2.25242
G1 X121.537 Y96.598 E2.37221
G1 X120.902 Y95.963 E2.40192
G1 X123.463 Y93.402 E2.52171
G1 X122.192 Y93.402 E2.56373
G1 X120.902 Y94.692 E2.62409
G1 X120.902 Y93.422 E2.66611
G1 X120.922 Y93.402 E2.66705
G1 F600.000 E1.66705
G92 E0
G1 X69.515 Y92.985 F7800.000
G1 E1.00000 F600.000
G1 X69.515 Y97.015 E1.07419 F600.000
G1 X65.485 Y97.015 E1.14838
G1 X65.485 Y92.985 E1.22257
G1 X69.440 Y92.985 E1.29538
G1 X64.985 Y92.485 F7800.000
G1 X70.015 Y92.485 E1.38798 F600.000
G1 X70.015 Y97.515 E1.48058
G1 X64.985 Y97.515 E1.57318
G1 X64.985 Y92.560 E1.66440
G1 X64.485 Y91.985 F7800.000
G1 X70.515 Y91.985 E1.77542 F600.000
G1 X70.515 Y98.015 E1.88643
G1 X64.485 Y98.015 E1.99745
G1 X64.485 Y92.060 E2.10708
G1 X64.918 Y92.235 F7800.000
G1 X65.922 Y93.402 F7800.000
G1 X65.902 Y93.422 E2.10802 F600.000
G1 X65.902 Y94.692 E2.15004
G1 X67.192 Y93.402 E2.21040
G1 X68.463 Y93.402 E2.25242
G1 X65.902 Y95.963 E2.37221
G1 X66.537 Y96.598 E2.40192
G1 X69.098 Y94.037 E2.52171
G1 X69.098 Y95.308 E2.56373
G1 X67.808 Y96.598 E2.62409
G1 X69.078 Y96.598 E2.66611
G1 X69.098 Y96.578 E2.66705
G1 F600.000 E1.66705
G92 E0
G1 Z1.200 F7800.000
G1 X120.506 Y96.994 F7800.000
G1 E1.00000 F600.000
G1 X120.506 Y93.006 E1.07342 F600.000
G1 X124.494 Y93.006 E1.14684
G1 X124.494 Y96.994 E1.22027
G1 X120.581 Y96.994 E1.29231
G1 X124.994 Y97.494 F7800.000
G1 X120.006 Y97.494 E1.38414 F600.000
G1 X120.006 Y92.506 E1.47598
G1 X124.994 Y92.506 E1.56781
G1 X124.994 Y97.419 E1.65827
G1 X125.494 Y97.994 F7800.000
G1 X119.506 Y97.994 E1.76851 F600.000
G1 X119.506 Y92.006 E1.87876
G1 X125.494 Y92.006 E1.98901
G1 X125.494 Y97.919 E2.09788
G1 X125.061 Y97.744 F7800.000
G1 X120.943 Y96.577 F7800.000
G1 X120.923 Y96.557 E2.09880 F600.000
G1 X120.923 Y95.303 E2.13972
G1 X122.197 Y96.577 E2.19852
G1 X123.450 Y96.577 E2.23945
G1 X120.923 Y94.050 E2.35612
G1 X121.550 Y93.423 E2.38506
G1 X124.077 Y95.950 E2.50174
G1 X124.077 Y94.697 E2.54266
G1 X122.803 Y93.423 E2.60146
G1 X124.057 Y93.423 E2.64239
G1 X124.077 Y93.443 E2.64331
G1 F600.000 E1.64331
G92 E0
G1 X69.494 Y93.006 F7800.000
G1 E1.00000 F600.000
G1 X69.494 Y96.994 E1.07342 F600.000
G1 X65.506 Y96.994 E1.14684
G1 X65.506 Y93.006 E1.22027
G1 X69.419 Y93.006 E1.29231
G1 X65.006 Y92.506 F7800.000
G1 X69.994 Y92.506 E1.38414 F600.000
G1 X69.994 Y97.494 E1.47598
G1 X65.006 Y97.494 E1.56781
G1 X65.006 Y92.581 E1.65827
G1 X64.506 Y92.006 F7800.000
G1 X70.494 Y92.006 E1.76851 F600.000
G1 X70.494 Y97.994 E1.87876
G1 X64.506 Y97.994 E1.98901
G1 X64.506 Y92.081 E2.09788
G1 X64.939 Y92.256 F7800.000
G1 X69.077 Y93.443 F7800.000
G1 X69.057 Y93.423 E2.09880 F600.000
G1 X67.803 Y93.423 E2.13973
G1 X69.077 Y94.697 E2.19852
G1 X69.077 Y95.950 E2.23945
G1 X66.550 Y93.423 E2.35613
G1 X65.923 Y94.050 E2.38506
G1 X68.450 Y96.577 E2.50174
G1 X67.197 Y96.577 E2.54266
G1 X65.923 Y95.303 E2.60146
G1 X65.923 Y96.557 E2.64239
G1 X65.943 Y96.577 E2.64331
G1 F600.000 E1.64331
G92 E0
G1 Z1.450 F7800.000
G1 X120.527 Y96.973 F7800.000
