; generated by Slic3r 1.0.0RC3 on 2014-03-08 at 22:37:28

; layer_height = 0.25
; perimeters = 3
; top_solid_layers = 4
; bottom_solid_layers = 4
; fill_density = 0.4
; perimeter_speed = 30
; infill_speed = 60
; travel_speed = 130
; nozzle_diameter = 0.5
; filament_diameter = 2.94
; extrusion_multiplier = 1
; perimeters extrusion width = 0.50mm
; infill extrusion width = 0.84mm
; solid infill extrusion width = 0.84mm
; top infill extrusion width = 0.84mm

G21 ; set units to millimeters
M107
M190 S110 ; wait for bed temperature to be reached
M104 S220 ; set temperature
G28 ; home all axes
M109 S220 ; wait for temperature to be reached
G90 ; use absolute coordinates
G92 E0
M82 ; use absolute distances for extrusion
G1 F600.000 E-1.00000
G92 E0
G1 Z0.200 F7800.000
G1 X61.020 Y38.370 F7800.000
G1 E1.00000 F600.000
G1 X61.630 Y37.390 E1.01700 F540.000
G1 X62.010 Y36.860 E1.02661
G1 X62.700 Y35.990 E1.04297
G1 X63.200 Y35.430 E1.05403
G1 X64.040 Y34.620 E1.07121
G1 X64.550 Y34.190 E1.08104
G1 X65.480 Y33.490 E1.09819
G1 X66.030 Y33.120 E1.10795
G1 X67.030 Y32.540 E1.12498
G1 X67.660 Y32.230 E1.13532
G1 X68.730 Y31.780 E1.15242
G1 X69.350 Y31.560 E1.16211
G1 X70.470 Y31.240 E1.17927
G1 X71.120 Y31.100 E1.18907
G1 X72.260 Y30.920 E1.20607
G1 X72.870 Y30.860 E1.21510
G1 X73.990 Y30.810 E1.23161
G1 X116.190 Y30.810 E1.85323
G1 X116.770 Y30.840 E1.86179
G1 X117.920 Y30.940 E1.87879
G1 X118.620 Y31.050 E1.88923
G1 X119.760 Y31.300 E1.90642
G1 X120.430 Y31.490 E1.91668
G1 X121.520 Y31.880 E1.93373
G1 X122.130 Y32.140 E1.94350
G1 X123.170 Y32.660 E1.96063
G1 X123.740 Y32.990 E1.97033
G1 X124.710 Y33.630 E1.98745
G1 X125.250 Y34.030 E1.99735
G1 X126.130 Y34.780 E2.01438
G1 X126.630 Y35.280 E2.02480
G1 X127.410 Y36.140 E2.04190
G1 X127.840 Y36.670 E2.05195
G1 X128.500 Y37.610 E2.06887
G1 X128.850 Y38.170 E2.07860
G1 X129.400 Y39.190 E2.09567
G1 X129.690 Y39.820 E2.10589
G1 X130.110 Y40.910 E2.12309
G1 X130.300 Y41.510 E2.13236
G1 X130.590 Y42.630 E2.14941
G1 X130.730 Y43.350 E2.16021
G1 X130.870 Y44.500 E2.17728
G1 X130.910 Y44.970 E2.18422
G1 X130.930 Y45.560 E2.19292
G1 X130.930 Y144.430 E3.64932
G1 X130.910 Y145.020 E3.65801
G1 X130.730 Y146.640 E3.68202
G1 X130.590 Y147.360 E3.69283
G1 X130.300 Y148.480 E3.70987
G1 X130.110 Y149.080 E3.71914
G1 X129.690 Y150.170 E3.73635
G1 X129.400 Y150.800 E3.74656
G1 X128.850 Y151.820 E3.76363
G1 X128.500 Y152.380 E3.77336
G1 X127.830 Y153.330 E3.79049
G1 X127.410 Y153.850 E3.80033
G1 X126.630 Y154.710 E3.81743
G1 X126.130 Y155.210 E3.82785
G1 X125.250 Y155.960 E3.84488
G1 X124.760 Y156.330 E3.85393
G1 X123.710 Y157.020 E3.87244
G1 X123.170 Y157.330 E3.88161
G1 X122.130 Y157.850 E3.89873
G1 X121.520 Y158.110 E3.90850
G1 X120.430 Y158.500 E3.92556
G1 X119.760 Y158.690 E3.93581
G1 X118.620 Y158.940 E3.95301
G1 X117.920 Y159.050 E3.96344
G1 X116.770 Y159.150 E3.98045
G1 X116.190 Y159.180 E3.98900
G1 X73.990 Y159.180 E4.61063
G1 X72.870 Y159.130 E4.62714
G1 X72.260 Y159.070 E4.63617
G1 X71.120 Y158.890 E4.65317
G1 X70.470 Y158.750 E4.66297
G1 X69.350 Y158.430 E4.68012
G1 X68.730 Y158.210 E4.68981
G1 X67.660 Y157.760 E4.70691
G1 X67.030 Y157.450 E4.71726
G1 X66.030 Y156.870 E4.73428
G1 X65.480 Y156.500 E4.74405
G1 X64.550 Y155.800 E4.76120
G1 X64.040 Y155.370 E4.77102
G1 X63.200 Y154.560 E4.78821
G1 X62.710 Y154.010 E4.79906
G1 X61.990 Y153.100 E4.81615
G1 X61.630 Y152.600 E4.82523
G1 X61.020 Y151.620 E4.84223
G1 X60.700 Y151.020 E4.85225
G1 X60.210 Y149.960 E4.86945
G1 X59.960 Y149.320 E4.87957
G1 X59.610 Y148.220 E4.89658
G1 X59.450 Y147.580 E4.90630
G1 X59.230 Y146.430 E4.92354
G1 X59.140 Y145.730 E4.93394
G1 X59.060 Y144.240 E4.95592
G1 X59.060 Y45.740 E6.40687
G1 X59.140 Y44.260 E6.42870
G1 X59.230 Y43.560 E6.43910
G1 X59.450 Y42.410 E6.45634
G1 X59.600 Y41.810 E6.46545
G1 X59.970 Y40.650 E6.48339
G1 X60.210 Y40.030 E6.49318
G1 X60.700 Y38.970 E6.51038
G1 X60.985 Y38.436 E6.51930
G1 F600.000 E5.51930
G92 E0
G1 X63.308 Y39.912 F7800.000
G1 E1.00000 F600.000
G1 X64.106 Y38.643 E1.02209 F540.000
G1 X64.940 Y37.606 E1.04170
G1 X66.010 Y36.554 E1.06379
G1 X67.201 Y35.642 E1.08588
G1 X68.494 Y34.883 E1.10798
G1 X69.871 Y34.289 E1.13007
G1 X71.311 Y33.868 E1.15216
G1 X72.780 Y33.630 E1.17409
G1 X73.967 Y33.567 E1.19160
G1 X116.042 Y33.567 E1.81137
G1 X116.495 Y33.580 E1.81805
G1 X117.785 Y33.699 E1.83713
G1 X119.252 Y34.010 E1.85923
G1 X120.670 Y34.499 E1.88132
G1 X122.164 Y35.243 E1.90591
G1 X123.409 Y36.080 E1.92800
G1 X124.541 Y37.064 E1.95010
G1 X125.437 Y38.047 E1.96970
G1 X125.850 Y38.612 E1.98000
G1 X126.402 Y39.409 E1.99428
G1 X127.031 Y40.582 E2.01389
G1 X127.583 Y41.976 E2.03598
G1 X127.959 Y43.428 E2.05807
G1 X128.151 Y44.893 E2.07983
G1 X128.183 Y45.727 E2.09213
G1 X128.183 Y144.273 E3.54375
G1 X128.160 Y144.984 E3.55423
G1 X127.959 Y146.572 E3.57781
G1 X127.583 Y148.024 E3.59990
G1 X127.031 Y149.418 E3.62199
G1 X126.313 Y150.735 E3.64409
G1 X125.437 Y151.953 E3.66618
G1 X124.419 Y153.054 E3.68828
G1 X123.274 Y154.022 E3.71037
G1 X122.018 Y154.842 E3.73246
G1 X120.670 Y155.501 E3.75456
G1 X119.252 Y155.990 E3.77665
G1 X117.785 Y156.301 E3.79874
G1 X116.396 Y156.426 E3.81929
G1 X73.967 Y156.433 E4.44428
G1 X72.925 Y156.385 E4.45964
G1 X71.311 Y156.132 E4.48371
G1 X69.871 Y155.711 E4.50581
G1 X68.494 Y155.117 E4.52790
G1 X67.201 Y154.358 E4.54999
G1 X66.010 Y153.446 E4.57209
G1 X64.940 Y152.394 E4.59418
G1 X64.008 Y151.219 E4.61628
G1 X63.228 Y149.938 E4.63837
G1 X62.610 Y148.572 E4.66046
G1 X62.165 Y147.139 E4.68256
G1 X61.900 Y145.665 E4.70461
G1 X61.817 Y144.293 E4.72486
G1 X61.817 Y45.707 E6.17708
G1 X61.921 Y44.168 E6.19980
G1 X62.207 Y42.697 E6.22188
G1 X62.671 Y41.270 E6.24398
G1 X63.272 Y39.978 E6.26497
G1 X63.741 Y40.162 F7800.000
G1 X64.505 Y38.944 E6.28616 F540.000
G1 X65.320 Y37.931 E6.30530
G1 X66.347 Y36.924 E6.32649
G1 X67.490 Y36.050 E6.34768
G1 X68.731 Y35.324 E6.36886
G1 X70.052 Y34.755 E6.39005
G1 X71.433 Y34.354 E6.41124
G1 X72.844 Y34.126 E6.43228
G1 X73.973 Y34.067 E6.44894
G1 X116.034 Y34.067 E7.06852
G1 X116.458 Y34.079 E7.07476
G1 X117.723 Y34.196 E7.09349
G1 X119.130 Y34.495 E7.11467
G1 X120.617 Y35.019 E7.13790
G1 X121.901 Y35.668 E7.15909
G1 X123.095 Y36.470 E7.18027
G1 X124.182 Y37.412 E7.20146
G1 X125.058 Y38.372 E7.22061
G1 X125.442 Y38.901 E7.23023
G1 X125.969 Y39.659 E7.24383
G1 X126.584 Y40.805 E7.26298
G1 X127.111 Y42.143 E7.28417
G1 X127.470 Y43.535 E7.30536
G1 X127.653 Y44.943 E7.32627
G1 X127.683 Y45.731 E7.33789
G1 X127.683 Y144.269 E8.78938
G1 X127.661 Y144.956 E8.79951
G1 X127.470 Y146.465 E8.82191
G1 X127.111 Y147.857 E8.84310
G1 X126.584 Y149.196 E8.86429
G1 X125.896 Y150.459 E8.88547
G1 X125.058 Y151.628 E8.90666
G1 X124.082 Y152.685 E8.92785
G1 X122.985 Y153.614 E8.94903
G1 X121.781 Y154.401 E8.97022
G1 X120.490 Y155.035 E8.99141
G1 X119.130 Y155.505 E9.01260
G1 X117.723 Y155.804 E9.03378
G1 X116.377 Y155.926 E9.05370
G1 X73.973 Y155.933 E9.67832
G1 X72.963 Y155.886 E9.69323
G1 X71.433 Y155.646 E9.71603
G1 X70.052 Y155.245 E9.73722
G1 X68.731 Y154.676 E9.75840
G1 X67.490 Y153.950 E9.77959
G1 X66.347 Y153.076 E9.80078
G1 X65.320 Y152.069 E9.82196
G1 X64.425 Y150.943 E9.84315
G1 X63.675 Y149.716 E9.86434
G1 X63.082 Y148.405 E9.88552
G1 X62.654 Y147.032 E9.90671
G1 X62.398 Y145.619 E9.92787
G1 X62.317 Y144.285 E9.94755
G1 X62.317 Y45.715 E11.39954
G1 X62.415 Y44.245 E11.42123
G1 X62.688 Y42.833 E11.44241
G1 X63.132 Y41.465 E11.46360
G1 X63.706 Y40.228 E11.48368
G1 X64.123 Y40.507 F7800.000
G1 X64.842 Y39.333 E11.50396 F540.000
G1 X65.700 Y38.257 E11.52424
G1 X66.684 Y37.294 E11.54452
G1 X67.779 Y36.459 E11.56480
G1 X68.968 Y35.765 E11.58508
G1 X70.233 Y35.222 E11.60536
G1 X71.555 Y34.839 E11.62564
G1 X72.907 Y34.622 E11.64581
G1 X73.979 Y34.567 E11.66162
G1 X116.009 Y34.567 E12.28074
G1 X116.420 Y34.577 E12.28680
G1 X117.662 Y34.692 E12.30517
G1 X119.008 Y34.980 E12.32545
G1 X120.309 Y35.432 E12.34573
G1 X121.638 Y36.093 E12.36759
G1 X122.782 Y36.859 E12.38787
G1 X123.823 Y37.760 E12.40815
G1 X124.678 Y38.698 E12.42685
G1 X125.034 Y39.190 E12.43579
G1 X125.535 Y39.909 E12.44871
G1 X126.136 Y41.027 E12.46741
G1 X126.639 Y42.309 E12.48769
G1 X126.981 Y43.642 E12.50797
G1 X127.155 Y44.993 E12.52803
G1 X127.183 Y45.735 E12.53897
G1 X127.183 Y144.265 E13.99035
G1 X127.162 Y144.928 E14.00013
G1 X126.981 Y146.358 E14.02135
G1 X126.639 Y147.691 E14.04163
G1 X126.136 Y148.973 E14.06191
G1 X125.479 Y150.182 E14.08219
G1 X124.678 Y151.302 E14.10247
G1 X123.745 Y152.315 E14.12275
G1 X122.695 Y153.206 E14.14303
G1 X121.544 Y153.961 E14.16331
G1 X120.309 Y154.568 E14.18359
G1 X119.008 Y155.020 E14.20387
G1 X117.662 Y155.308 E14.22415
G1 X116.357 Y155.426 E14.24344
G1 X73.979 Y155.433 E14.86770
G1 X73.000 Y155.387 E14.88214
G1 X71.555 Y155.161 E14.90368
G1 X70.233 Y154.778 E14.92396
G1 X68.968 Y154.235 E14.94424
G1 X67.779 Y153.541 E14.96452
G1 X66.684 Y152.706 E14.98480
G1 X65.700 Y151.743 E15.00508
G1 X64.842 Y150.667 E15.02535
G1 X64.123 Y149.493 E15.04563
G1 X63.554 Y148.239 E15.06591
G1 X63.143 Y146.925 E15.08619
G1 X62.897 Y145.572 E15.10645
G1 X62.817 Y144.277 E15.12556
G1 X62.817 Y45.723 E16.57732
G1 X62.897 Y44.428 E16.59642
G1 X63.143 Y43.075 E16.61668
G1 X63.554 Y41.761 E16.63696
G1 X64.092 Y40.576 E16.65614
G1 X64.571 Y40.730 F7800.000
G1 X65.259 Y39.610 E16.67551 F540.000
G1 X66.080 Y38.582 E16.69488
G1 X67.021 Y37.663 E16.71425
G1 X68.068 Y36.867 E16.73363
G1 X69.204 Y36.205 E16.75300
G1 X70.414 Y35.688 E16.77237
G1 X71.677 Y35.324 E16.79175
G1 X72.971 Y35.118 E16.81104
G1 X73.985 Y35.067 E16.82600
G1 X116.006 Y35.067 E17.44499
G1 X116.383 Y35.076 E17.45055
G1 X117.600 Y35.189 E17.46855
G1 X118.886 Y35.465 E17.48792
G1 X120.128 Y35.898 E17.50730
G1 X121.374 Y36.519 E17.52780
G1 X122.468 Y37.249 E17.54718
G1 X123.464 Y38.108 E17.56655
G1 X124.298 Y39.023 E17.58479
G1 X124.626 Y39.478 E17.59305
G1 X125.102 Y40.160 E17.60530
G1 X125.688 Y41.250 E17.62354
G1 X126.167 Y42.475 E17.64291
G1 X126.493 Y43.749 E17.66228
G1 X126.658 Y45.044 E17.68150
G1 X126.683 Y45.740 E17.69176
G1 X126.683 Y144.260 E19.14301
G1 X126.662 Y144.900 E19.15244
G1 X126.493 Y146.251 E19.17249
G1 X126.167 Y147.525 E19.19186
G1 X125.688 Y148.750 E19.21124
G1 X125.062 Y149.906 E19.23061
G1 X124.298 Y150.977 E19.24998
G1 X123.408 Y151.945 E19.26936
G1 X122.468 Y152.751 E19.28760
G1 X122.003 Y153.065 E19.29586
G1 X121.308 Y153.520 E19.30810
G1 X120.199 Y154.072 E19.32634
G1 X118.960 Y154.513 E19.34572
G1 X117.677 Y154.799 E19.36509
G1 X116.383 Y154.924 E19.38423
G1 X116.019 Y154.933 E19.38960
G1 X73.985 Y154.933 E20.00877
G1 X73.037 Y154.889 E20.02276
G1 X71.677 Y154.676 E20.04303
G1 X70.414 Y154.312 E20.06240
G1 X69.204 Y153.795 E20.08177
G1 X68.068 Y153.133 E20.10115
G1 X67.021 Y152.337 E20.12052
G1 X66.080 Y151.418 E20.13989
G1 X65.259 Y150.390 E20.15927
G1 X64.571 Y149.270 E20.17864
G1 X64.026 Y148.073 E20.19801
G1 X63.631 Y146.818 E20.21738
G1 X63.395 Y145.526 E20.23674
G1 X63.317 Y144.270 E20.25528
G1 X63.317 Y45.730 E21.70680
G1 X63.395 Y44.474 E21.72534
G1 X63.631 Y43.182 E21.74469
G1 X64.026 Y41.927 E21.76407
G1 X64.540 Y40.799 E21.78234
G1 X65.019 Y40.953 F7800.000
G1 X65.676 Y39.886 E21.80080 F540.000
G1 X66.460 Y38.908 E21.81927
G1 X67.358 Y38.033 E21.83773
G1 X68.357 Y37.275 E21.85620
G1 X69.441 Y36.646 E21.87467
G1 X70.594 Y36.155 E21.89313
G1 X71.799 Y35.809 E21.91160
G1 X73.034 Y35.614 E21.93002
G1 X73.991 Y35.567 E21.94413
G1 X116.004 Y35.567 E22.56299
G1 X116.346 Y35.575 E22.56804
G1 X117.539 Y35.685 E22.58568
G1 X118.764 Y35.951 E22.60415
G1 X119.990 Y36.383 E22.62329
G1 X121.111 Y36.944 E22.64176
G1 X122.154 Y37.639 E22.66023
G1 X123.104 Y38.456 E22.67869
G1 X123.918 Y39.349 E22.69648
G1 X124.218 Y39.767 E22.70406
G1 X124.669 Y40.410 E22.71563
G1 X125.240 Y41.473 E22.73341
G1 X125.696 Y42.641 E22.75188
G1 X126.004 Y43.856 E22.77034
G1 X126.160 Y45.094 E22.78872
G1 X126.183 Y45.744 E22.79830
G1 X126.183 Y144.256 E24.24943
G1 X126.163 Y144.872 E24.25851
G1 X126.004 Y146.144 E24.27738
G1 X125.696 Y147.359 E24.29585
G1 X125.240 Y148.527 E24.31431
G1 X124.645 Y149.630 E24.33278
G1 X123.918 Y150.651 E24.35124
G1 X123.071 Y151.576 E24.36971
G1 X122.154 Y152.361 E24.38750
G1 X121.111 Y153.056 E24.40596
G1 X119.990 Y153.617 E24.42443
G1 X118.809 Y154.037 E24.44289
G1 X117.585 Y154.308 E24.46136
G1 X116.346 Y154.425 E24.47969
G1 X116.011 Y154.433 E24.48462
G1 X73.991 Y154.433 E25.10360
G1 X73.074 Y154.390 E25.11712
G1 X71.799 Y154.191 E25.13613
G1 X70.594 Y153.845 E25.15459
G1 X69.441 Y153.354 E25.17306
G1 X68.357 Y152.725 E25.19152
G1 X67.358 Y151.967 E25.20999
G1 X66.460 Y151.092 E25.22846
G1 X65.676 Y150.114 E25.24692
G1 X65.019 Y149.047 E25.26539
G1 X64.497 Y147.907 E25.28385
G1 X64.120 Y146.711 E25.30232
G1 X63.893 Y145.479 E25.32078
G1 X63.817 Y144.262 E25.33874
G1 X63.817 Y45.738 E26.79003
G1 X63.893 Y44.521 E26.80800
G1 X64.120 Y43.289 E26.82646
G1 X64.497 Y42.093 E26.84492
G1 X64.987 Y41.022 E26.86228
G1 X65.467 Y41.176 F7800.000
G1 X66.093 Y40.162 E26.87984 F540.000
G1 X66.840 Y39.233 E26.89740
G1 X67.695 Y38.403 E26.91496
G1 X68.646 Y37.684 E26.93252
G1 X69.678 Y37.087 E26.95008
G1 X70.775 Y36.621 E26.96764
G1 X71.921 Y36.294 E26.98520
G1 X73.111 Y36.109 E27.00294
G1 X73.997 Y36.067 E27.01600
G1 X116.001 Y36.067 E27.63474
G1 X116.309 Y36.073 E27.63928
G1 X117.477 Y36.182 E27.65656
G1 X118.642 Y36.436 E27.67412
G1 X119.767 Y36.831 E27.69168
G1 X120.848 Y37.369 E27.70946
G1 X121.841 Y38.028 E27.72702
G1 X122.745 Y38.805 E27.74458
G1 X123.538 Y39.674 E27.76192
G1 X123.810 Y40.056 E27.76882
G1 X124.236 Y40.660 E27.77970
G1 X124.792 Y41.696 E27.79703
G1 X125.224 Y42.808 E27.81459
G1 X125.515 Y43.963 E27.83215
G1 X125.663 Y45.144 E27.84968
G1 X125.683 Y45.748 E27.85858
G1 X125.683 Y144.252 E29.30959
G1 X125.664 Y144.845 E29.31832
G1 X125.515 Y146.037 E29.33601
G1 X125.224 Y147.192 E29.35357
G1 X124.792 Y148.304 E29.37113
G1 X124.228 Y149.353 E29.38869
G1 X123.538 Y150.326 E29.40625
G1 X122.734 Y151.206 E29.42381
G1 X121.841 Y151.972 E29.44114
G1 X120.848 Y152.631 E29.45870
G1 X119.781 Y153.163 E29.47626
G1 X118.657 Y153.560 E29.49382
G1 X117.493 Y153.816 E29.51138
G1 X116.309 Y153.927 E29.52889
G1 X116.004 Y153.933 E29.53339
G1 X73.997 Y153.933 E30.15217
G1 X73.111 Y153.891 E30.16523
G1 X71.921 Y153.706 E30.18297
G1 X70.775 Y153.379 E30.20053
G1 X69.678 Y152.913 E30.21809
G1 X68.646 Y152.316 E30.23565
G1 X67.695 Y151.597 E30.25321
G1 X66.840 Y150.767 E30.27077
G1 X66.093 Y149.838 E30.28833
G1 X65.467 Y148.824 E30.30588
G1 X64.969 Y147.740 E30.32344
G1 X64.613 Y146.619 E30.34078
G1 X64.393 Y145.447 E30.35833
G1 X64.317 Y144.254 E30.37595
G1 X64.317 Y45.746 E31.82702
G1 X64.391 Y44.568 E31.84441
G1 X64.609 Y43.396 E31.86196
G1 X64.969 Y42.260 E31.87952
G1 X65.435 Y41.245 E31.89598
G1 X65.911 Y41.406 F7800.000
G1 X66.506 Y40.445 E31.91263 F378.000
G1 X67.215 Y39.565 E31.92928
G1 X68.026 Y38.778 E31.94593
G1 X68.929 Y38.096 E31.96258
G1 X69.908 Y37.531 E31.97924
G1 X70.949 Y37.091 E31.99589
G1 X72.036 Y36.781 E32.01254
G1 X73.155 Y36.608 E32.02923
G1 X74.006 Y36.567 E32.04177
G1 X115.998 Y36.567 E32.66034
G1 X116.276 Y36.572 E32.66442
G1 X117.408 Y36.677 E32.68118
G1 X118.513 Y36.919 E32.69783
G1 X119.579 Y37.295 E32.71448
G1 X120.591 Y37.799 E32.73113
G1 X121.533 Y38.423 E32.74779
G1 X122.391 Y39.159 E32.76444
G1 X122.681 Y39.477 E32.77077
G1 X123.153 Y39.994 E32.78109
G1 X123.806 Y40.917 E32.79774
G1 X124.341 Y41.913 E32.81439
G1 X124.749 Y42.967 E32.83104
G1 X125.025 Y44.063 E32.84769
G1 X125.164 Y45.189 E32.86441
G1 X125.183 Y45.754 E32.87273
G1 X125.183 Y144.246 E34.32357
G1 X125.164 Y144.811 E34.33189
G1 X125.025 Y145.937 E34.34861
G1 X124.749 Y147.033 E34.36526
G1 X124.341 Y148.087 E34.38191
G1 X123.806 Y149.083 E34.39856
G1 X123.153 Y150.006 E34.41521
G1 X122.391 Y150.841 E34.43186
G1 X121.533 Y151.577 E34.44852
G1 X120.591 Y152.201 E34.46517
G1 X119.579 Y152.705 E34.48182
G1 X118.513 Y153.081 E34.49847
G1 X117.408 Y153.323 E34.51512
G1 X116.129 Y153.432 E34.53403
G1 X74.006 Y153.433 E35.15453
G1 X73.155 Y153.392 E35.16707
G1 X72.036 Y153.219 E35.18376
G1 X70.949 Y152.909 E35.20041
G1 X69.908 Y152.469 E35.21706
G1 X68.929 Y151.904 E35.23371
