; generated by Slic3r 0.9.9 on 2014-01-18 at 19:30:59

; layer_height = 0.4
; perimeters = 3
; top_solid_layers = 3
; bottom_solid_layers = 3
; fill_density = 0.4
; perimeter_speed = 30
; infill_speed = 60
; travel_speed = 130
; nozzle_diameter = 0.5
; filament_diameter = 3
; extrusion_multiplier = 1
; perimeters extrusion width = 0.53mm
; infill extrusion width = 0.53mm
; solid infill extrusion width = 0.53mm
; top infill extrusion width = 0.53mm
; first layer extrusion width = 0.60mm

G21 ; set units to millimeters
M190 S110 ; wait for bed temperature to be reached
M104 S205 ; set temperature
G28 ; home all axes
M109 S205 ; wait for temperature to be reached
G90 ; use absolute coordinates
G92 E0
M82 ; use absolute distances for extrusion
M106 S89
G1 F1800.000 E-4.00000
G92 E0
G1 Z0.300 F7800.000
G1 X67.790 Y74.330
G1 F1800.000 E4.00000
G1 X69.230 Y73.120 F540.000 E4.04618
G1 X69.470 Y72.930 E4.05370
G1 X69.980 Y72.580 E4.06889
G1 X70.240 Y72.420 E4.07638
G1 X70.710 Y72.180 E4.08934
G1 X72.640 Y71.280 E4.14163
G1 X73.250 Y71.060 E4.15755
G1 X73.890 Y70.900 E4.17375
G1 X75.980 Y70.500 E4.22600
G1 X76.480 Y70.440 E4.23836
G1 X76.990 Y70.420 E4.25090
G1 X112.990 Y70.420 E5.13484
G1 X113.500 Y70.440 E5.14737
G1 X114.250 Y70.540 E5.16595
G1 X116.100 Y70.900 E5.21223
G1 X116.420 Y70.970 E5.22027
G1 X117.050 Y71.160 E5.23643
G1 X117.650 Y71.410 E5.25239
G1 X119.340 Y72.210 E5.29830
G1 X119.640 Y72.360 E5.30653
G1 X120.210 Y72.710 E5.32296
G1 X120.820 Y73.170 E5.34172
G1 X122.200 Y74.330 E5.38598
G1 X122.680 Y74.770 E5.40197
G1 X122.900 Y75.010 E5.40997
G1 X123.300 Y75.510 E5.42569
G1 X124.400 Y77.030 E5.47176
G1 X124.760 Y77.580 E5.48790
G1 X125.060 Y78.160 E5.50393
G1 X125.190 Y78.460 E5.51196
G1 X125.880 Y80.200 E5.55792
G1 X126.090 Y80.840 E5.57446
G1 X126.240 Y81.490 E5.59084
G1 X126.520 Y83.700 E5.64554
G1 X126.570 Y84.500 E5.66522
G1 X126.570 Y105.490 E6.18061
G1 X126.520 Y106.290 E6.20029
G1 X126.270 Y108.290 E6.24978
G1 X126.160 Y108.900 E6.26500
G1 X126.080 Y109.200 E6.27262
G1 X125.880 Y109.790 E6.28792
G1 X125.060 Y111.830 E6.34190
G1 X124.760 Y112.410 E6.35794
G1 X124.400 Y112.960 E6.37408
G1 X123.300 Y114.480 E6.42015
G1 X122.900 Y114.980 E6.43587
G1 X122.680 Y115.220 E6.44386
G1 X122.200 Y115.660 E6.45985
G1 X120.760 Y116.870 E6.50603
G1 X120.500 Y117.080 E6.51424
G1 X119.940 Y117.460 E6.53086
G1 X119.340 Y117.780 E6.54756
G1 X117.650 Y118.580 E6.59347
G1 X117.060 Y118.820 E6.60911
G1 X116.440 Y119.010 E6.62503
G1 X116.130 Y119.080 E6.63283
G1 X114.020 Y119.500 E6.68566
G1 X113.510 Y119.560 E6.69827
G1 X112.990 Y119.580 E6.71104
G1 X76.990 Y119.580 E7.59499
G1 X76.470 Y119.560 E7.60776
G1 X75.950 Y119.500 E7.62062
G1 X73.850 Y119.080 E7.67320
G1 X73.540 Y119.010 E7.68100
G1 X72.930 Y118.820 E7.69669
G1 X72.340 Y118.580 E7.71233
G1 X70.650 Y117.780 E7.75824
G1 X70.050 Y117.460 E7.77494
G1 X69.490 Y117.080 E7.79156
G1 X67.790 Y115.660 E7.84594
G1 X67.310 Y115.220 E7.86193
G1 X67.090 Y114.980 E7.86993
G1 X66.690 Y114.480 E7.88565
G1 X65.590 Y112.960 E7.93172
G1 X65.230 Y112.410 E7.94786
G1 X64.930 Y111.830 E7.96389
G1 X64.800 Y111.530 E7.97192
G1 X64.110 Y109.790 E8.01788
G1 X63.900 Y109.150 E8.03442
G1 X63.750 Y108.500 E8.05080
G1 X63.700 Y108.160 E8.05924
G1 X63.470 Y106.290 E8.10550
G1 X63.420 Y105.490 E8.12518
G1 X63.420 Y84.500 E8.64057
G1 X63.470 Y83.700 E8.66025
G1 X63.700 Y81.830 E8.70651
G1 X63.750 Y81.490 E8.71495
G1 X63.900 Y80.840 E8.73133
G1 X64.110 Y80.200 E8.74787
G1 X64.800 Y78.460 E8.79383
G1 X64.930 Y78.160 E8.80186
G1 X65.230 Y77.580 E8.81789
G1 X65.590 Y77.030 E8.83403
G1 X66.690 Y75.510 E8.88010
G1 X67.090 Y75.010 E8.89583
G1 X67.310 Y74.770 E8.90382
G1 X67.726 Y74.389 E8.91768
G1 F1800.000 E4.91768
G92 E0
G1 X103.554 Y103.054 F7800.000
G1 F1800.000 E4.00000
G1 X104.271 Y102.505 F540.000 E4.02217
G1 X105.105 Y102.159 E4.04434
G1 X106.000 Y102.041 E4.06651
G1 X106.895 Y102.159 E4.08868
G1 X107.729 Y102.505 E4.11085
G1 X108.446 Y103.054 E4.13302
G1 X108.995 Y103.771 E4.15519
G1 X109.341 Y104.605 E4.17737
G1 X109.459 Y105.500 E4.19954
G1 X109.341 Y106.395 E4.22171
G1 X108.995 Y107.229 E4.24388
G1 X108.446 Y107.946 E4.26605
G1 X107.729 Y108.495 E4.28822
G1 X106.895 Y108.841 E4.31039
G1 X106.000 Y108.959 E4.33256
G1 X105.105 Y108.841 E4.35473
G1 X104.271 Y108.495 E4.37690
G1 X103.554 Y107.946 E4.39907
G1 X103.005 Y107.229 E4.42124
G1 X102.659 Y106.395 E4.44341
G1 X102.541 Y105.500 E4.46558
G1 X102.659 Y104.605 E4.48775
G1 X103.005 Y103.771 E4.50993
G1 X103.501 Y103.123 E4.52997
G1 X103.967 Y103.467 F7800.000
G1 X104.562 Y103.010 F540.000 E4.54840
G1 X105.256 Y102.723 E4.56683
G1 X106.000 Y102.625 E4.58526
G1 X106.744 Y102.723 E4.60369
G1 X107.438 Y103.010 E4.62212
G1 X108.033 Y103.467 E4.64055
G1 X108.490 Y104.062 E4.65898
G1 X108.777 Y104.756 E4.67741
G1 X108.875 Y105.500 E4.69584
G1 X108.777 Y106.244 E4.71427
G1 X108.490 Y106.938 E4.73270
G1 X108.033 Y107.533 E4.75113
G1 X107.438 Y107.990 E4.76956
G1 X106.744 Y108.277 E4.78799
G1 X106.000 Y108.375 E4.80642
G1 X105.256 Y108.277 E4.82485
G1 X104.562 Y107.990 E4.84328
G1 X103.967 Y107.533 E4.86171
G1 X103.510 Y106.938 E4.88014
G1 X103.223 Y106.244 E4.89857
G1 X103.125 Y105.500 E4.91700
G1 X103.223 Y104.756 E4.93543
G1 X103.510 Y104.062 E4.95386
G1 X103.914 Y103.536 E4.97016
G1 X104.379 Y103.879 F7800.000
G1 X104.854 Y103.515 F540.000 E4.98485
G1 X105.407 Y103.286 E4.99954
G1 X106.000 Y103.208 E5.01423
G1 X106.593 Y103.286 E5.02892
G1 X107.146 Y103.515 E5.04361
G1 X107.621 Y103.879 E5.05830
G1 X107.985 Y104.354 E5.07299
G1 X108.214 Y104.907 E5.08768
G1 X108.292 Y105.500 E5.10237
G1 X108.214 Y106.093 E5.11706
G1 X107.985 Y106.646 E5.13175
G1 X107.621 Y107.121 E5.14644
G1 X107.146 Y107.485 E5.16113
G1 X106.593 Y107.714 E5.17582
G1 X106.000 Y107.792 E5.19051
G1 X105.407 Y107.714 E5.20520
G1 X104.854 Y107.485 E5.21989
G1 X104.379 Y107.121 E5.23458
G1 X104.015 Y106.646 E5.24927
G1 X103.786 Y106.093 E5.26396
G1 X103.708 Y105.500 E5.27865
G1 X103.786 Y104.907 E5.29334
G1 X104.015 Y104.354 E5.30803
G1 X104.327 Y103.948 E5.32059
G1 X104.254 Y103.315 F7800.000
G1 X87.459 Y105.500
G1 X87.341 Y106.395 F540.000 E5.34276
G1 X86.995 Y107.229 E5.36493
G1 X86.446 Y107.946 E5.38710
G1 X85.729 Y108.495 E5.40927
G1 X84.895 Y108.841 E5.43144
G1 X84.000 Y108.959 E5.45361
G1 X83.105 Y108.841 E5.47578
G1 X82.271 Y108.495 E5.49796
G1 X81.554 Y107.946 E5.52013
G1 X81.005 Y107.229 E5.54230
G1 X80.659 Y106.395 E5.56447
G1 X80.541 Y105.500 E5.58664
G1 X80.659 Y104.605 E5.60881
G1 X81.005 Y103.771 E5.63098
G1 X81.554 Y103.054 E5.65315
G1 X82.271 Y102.505 E5.67532
G1 X83.105 Y102.159 E5.69749
G1 X84.000 Y102.041 E5.71966
G1 X84.895 Y102.159 E5.74183
G1 X85.729 Y102.505 E5.76400
G1 X86.446 Y103.054 E5.78617
G1 X86.995 Y103.771 E5.80834
G1 X87.341 Y104.605 E5.83052
G1 X87.448 Y105.414 E5.85056
G1 X86.875 Y105.500 F7800.000
G1 X86.777 Y106.244 F540.000 E5.86899
G1 X86.490 Y106.938 E5.88742
G1 X86.033 Y107.533 E5.90585
G1 X85.438 Y107.990 E5.92428
G1 X84.744 Y108.277 E5.94271
G1 X84.000 Y108.375 E5.96114
G1 X83.256 Y108.277 E5.97957
G1 X82.562 Y107.990 E5.99800
G1 X81.967 Y107.533 E6.01643
G1 X81.510 Y106.938 E6.03486
G1 X81.223 Y106.244 E6.05329
G1 X81.125 Y105.500 E6.07172
G1 X81.223 Y104.756 E6.09015
G1 X81.510 Y104.062 E6.10858
G1 X81.967 Y103.467 E6.12701
G1 X82.562 Y103.010 E6.14544
G1 X83.256 Y102.723 E6.16387
G1 X84.000 Y102.625 E6.18230
G1 X84.744 Y102.723 E6.20073
G1 X85.438 Y103.010 E6.21916
G1 X86.033 Y103.467 E6.23759
G1 X86.490 Y104.062 E6.25602
G1 X86.777 Y104.756 E6.27445
G1 X86.864 Y105.414 E6.29075
G1 X86.292 Y105.500 F7800.000
G1 X86.214 Y106.093 F540.000 E6.30544
G1 X85.985 Y106.646 E6.32013
G1 X85.621 Y107.121 E6.33482
G1 X85.146 Y107.485 E6.34951
G1 X84.593 Y107.714 E6.36420
G1 X84.000 Y107.792 E6.37889
G1 X83.407 Y107.714 E6.39358
G1 X82.854 Y107.485 E6.40827
G1 X82.379 Y107.121 E6.42296
G1 X82.015 Y106.646 E6.43765
G1 X81.786 Y106.093 E6.45234
G1 X81.708 Y105.500 E6.46703
G1 X81.786 Y104.907 E6.48172
G1 X82.015 Y104.354 E6.49641
G1 X82.379 Y103.879 E6.51110
G1 X82.854 Y103.515 E6.52579
G1 X83.407 Y103.286 E6.54048
G1 X84.000 Y103.208 E6.55517
G1 X84.593 Y103.286 E6.56986
G1 X85.146 Y103.515 E6.58455
G1 X85.621 Y103.879 E6.59924
G1 X85.985 Y104.354 E6.61393
G1 X86.214 Y104.907 E6.62862
G1 X86.280 Y105.414 E6.64118
G1 X86.780 Y105.811 F7800.000
G1 X86.572 Y105.425
G1 X85.797 Y107.297
G1 X77.113 Y112.500
G1 X70.537 Y105.500
G1 X71.458 Y105.500
G1 X71.647 Y103.999 F540.000 E6.67833
G1 X72.201 Y102.591 E6.71548
G1 X73.088 Y101.365 E6.75263
G1 X74.250 Y100.397 E6.78978
G1 X75.616 Y99.746 E6.82692
G1 X77.141 Y99.446 E6.86508
G1 X112.859 Y99.446 E7.74211
G1 X114.384 Y99.746 E7.78027
G1 X115.750 Y100.397 E7.81742
G1 X116.912 Y101.365 E7.85457
G1 X117.799 Y102.591 E7.89172
G1 X118.353 Y103.999 E7.92887
G1 X118.542 Y105.500 E7.96602
G1 X118.353 Y107.001 E8.00317
G1 X117.799 Y108.409 E8.04031
G1 X116.912 Y109.635 E8.07746
G1 X115.750 Y110.603 E8.11461
G1 X114.384 Y111.254 E8.15176
G1 X112.859 Y111.554 E8.18992
G1 X77.141 Y111.554 E9.06695
G1 X75.616 Y111.254 E9.10511
G1 X74.250 Y110.603 E9.14226
G1 X73.088 Y109.635 E9.17941
G1 X72.201 Y108.409 E9.21656
G1 X71.647 Y107.001 E9.25370
G1 X71.469 Y105.586 E9.28872
G1 X70.875 Y105.500 F7800.000
G1 X71.082 Y103.854 F540.000 E9.32945
G1 X71.690 Y102.311 E9.37017
G1 X72.661 Y100.967 E9.41089
G1 X73.935 Y99.905 E9.45162
G1 X75.433 Y99.192 E9.49234
G1 X77.084 Y98.868 E9.53367
G1 X112.916 Y98.868 E10.41346
G1 X114.567 Y99.192 E10.45479
G1 X116.065 Y99.905 E10.49552
G1 X117.339 Y100.967 E10.53624
G1 X118.310 Y102.311 E10.57696
G1 X118.918 Y103.854 E10.61769
G1 X119.125 Y105.500 E10.65841
G1 X118.918 Y107.146 E10.69913
G1 X118.310 Y108.689 E10.73986
G1 X117.339 Y110.033 E10.78058
G1 X116.065 Y111.095 E10.82130
G1 X114.567 Y111.808 E10.86203
G1 X112.916 Y112.132 E10.90336
G1 X77.084 Y112.132 E11.78315
G1 X75.433 Y111.808 E11.82448
G1 X73.935 Y111.095 E11.86520
G1 X72.661 Y110.033 E11.90593
G1 X71.690 Y108.689 E11.94665
G1 X71.082 Y107.146 E11.98737
G1 X70.885 Y105.586 E12.02597
G1 X70.296 Y105.534 F7800.000
G1 X70.517 Y103.710 F378.000 E12.07107
G1 X71.178 Y102.032 E12.11537
G1 X72.235 Y100.569 E12.15967
G1 X73.621 Y99.414 E12.20397
G1 X75.250 Y98.639 E12.24826
G1 X77.028 Y98.289 E12.29276
G1 X112.972 Y98.289 E13.17533
G1 X114.750 Y98.639 E13.21983
G1 X116.379 Y99.414 E13.26412
G1 X117.765 Y100.569 E13.30842
G1 X118.822 Y102.032 E13.35272
G1 X119.471 Y103.678 E13.39618
G1 X119.708 Y105.500 E13.44129
G1 X119.483 Y107.290 E13.48559
G1 X118.822 Y108.968 E13.52988
G1 X117.765 Y110.431 E13.57418
G1 X116.379 Y111.586 E13.61848
G1 X114.750 Y112.361 E13.66278
G1 X112.972 Y112.711 E13.70728
G1 X77.028 Y112.711 E14.58984
G1 X75.250 Y112.361 E14.63434
G1 X73.621 Y111.586 E14.67864
G1 X72.235 Y110.431 E14.72293
G1 X71.178 Y108.968 E14.76723
G1 X70.517 Y107.290 E14.81153
G1 X70.307 Y105.620 E14.85286
G1 X70.808 Y105.264 F7800.000
G1 X73.397 Y109.347
G1 X72.244 Y107.373 F1080.000 E14.90920
G1 X75.701 Y110.830 E15.02967
G1 X76.739 Y111.047 E15.05581
G1 X71.979 Y106.287 E15.22166
G1 X71.895 Y105.382 E15.24406
G1 X77.647 Y111.134 E15.44448
G1 X78.468 Y111.134 E15.46470
G1 X71.987 Y104.653 E15.69053
G1 X72.113 Y103.958 E15.70793
G1 X79.289 Y111.134 E15.95796
G1 X80.110 Y111.134 E15.97819
G1 X72.345 Y103.369 E16.24874
G1 X72.580 Y102.783 E16.26429
G1 X80.931 Y111.134 E16.55527
G1 X81.752 Y111.134 E16.57550
G1 X72.924 Y102.307 E16.88308
G1 X73.269 Y101.830 E16.89757
G1 X82.573 Y111.134 E17.22175
G1 X83.394 Y111.134 E17.24198
G1 X73.678 Y101.419 E17.58050
G1 X74.126 Y101.045 E17.59486
G1 X81.023 Y107.942 E17.83517
G1 X81.558 Y108.477 F7800.000
G1 X84.215 Y111.134 F1080.000 E17.92776
G1 X85.036 Y111.134 E17.94798
G1 X83.175 Y109.273 E18.01283
G1 X84.092 Y109.370 E18.03556
G1 X85.857 Y111.134 E18.09705
G1 X86.678 Y111.134 E18.11728
G1 X84.818 Y109.274 E18.18209
G1 X85.436 Y109.071 E18.19811
G1 X87.499 Y111.134 E18.27001
G1 X88.320 Y111.134 E18.29023
G1 X86.001 Y108.816 E18.37103
G1 X86.466 Y108.459 E18.38545
G1 X89.141 Y111.134 E18.47867
G1 X89.962 Y111.134 E18.49889
G1 X86.887 Y108.060 E18.60603
G1 X87.243 Y107.595 E18.62045
G1 X90.783 Y111.134 E18.74378
G1 X91.604 Y111.134 E18.76400
G1 X87.522 Y107.053 E18.90621
G1 X87.755 Y106.464 E18.92180
G1 X92.425 Y111.134 E19.08451
G1 X93.246 Y111.134 E19.10474
G1 X87.850 Y105.739 E19.29273
G1 X87.798 Y104.866 E19.31427
G1 X94.067 Y111.134 E19.53268
G1 X94.888 Y111.134 E19.55291
G1 X87.397 Y103.643 E19.81392
G1 X85.857 Y102.103 F7800.000
G1 X83.619 Y99.866 F1080.000 E19.89189
G1 X82.798 Y99.866 E19.91211
G1 X84.634 Y101.702 E19.97609
G1 X83.761 Y101.650 E19.99763
G1 X81.977 Y99.866 E20.05979
G1 X81.156 Y99.866 E20.08002
G1 X83.036 Y101.745 E20.14551
G1 X82.447 Y101.978 E20.16110
G1 X80.335 Y99.866 E20.23468
G1 X79.514 Y99.866 E20.25491
G1 X81.905 Y102.257 E20.33821
G1 X81.440 Y102.613 E20.35264
G1 X78.693 Y99.866 E20.44836
G1 X77.872 Y99.866 E20.46859
G1 X81.041 Y103.034 E20.57900
G1 X80.684 Y103.499 E20.59342
G1 X77.073 Y99.887 E20.71927
G1 X76.387 Y100.022 E20.73650
G1 X80.429 Y104.064 E20.87735
G1 X80.226 Y104.682 E20.89337
G1 X75.710 Y100.166 E21.05073
G1 X75.153 Y100.431 E21.06591
G1 X80.130 Y105.408 E21.23932
G1 X80.227 Y106.325 E21.26205
G1 X74.597 Y100.696 E21.45820
G1 X84.440 Y99.866 F7800.000
G1 X95.709 Y111.134 F1080.000 E21.85083
G1 X96.530 Y111.134 E21.87106
G1 X85.261 Y99.866 E22.26369
G1 X86.082 Y99.866 E22.28391
G1 X97.351 Y111.134 E22.67655
G1 X98.171 Y111.134 E22.69677
G1 X86.903 Y99.866 E23.08941
G1 X87.724 Y99.866 E23.10963
G1 X98.992 Y111.134 E23.50226
G1 X99.813 Y111.134 E23.52249
G1 X88.545 Y99.866 E23.91512
G1 X89.366 Y99.866 E23.93535
G1 X100.634 Y111.134 E24.32798
G1 X101.455 Y111.134 E24.34821
G1 X90.187 Y99.866 E24.74084
G1 X91.008 Y99.866 E24.76107
G1 X102.276 Y111.134 E25.15370
G1 X103.097 Y111.134 E25.17392
G1 X91.829 Y99.866 E25.56656
G1 X92.650 Y99.866 E25.58678
G1 X103.918 Y111.134 E25.97941
G1 X104.739 Y111.134 E25.99964
G1 X93.471 Y99.866 E26.39227
G1 X94.291 Y99.866 E26.41250
G1 X105.560 Y111.134 E26.80513
G1 X106.381 Y111.134 E26.82536
G1 X104.143 Y108.897 E26.90333
G1 X105.366 Y109.298 E26.93503
G1 X107.202 Y111.134 E26.99900
G1 X108.023 Y111.134 E27.01923
G1 X106.239 Y109.350 E27.08139
G1 X106.964 Y109.255 E27.09942
G1 X108.844 Y111.134 E27.16491
G1 X109.665 Y111.134 E27.18514
G1 X107.553 Y109.022 E27.25872
G1 X108.095 Y108.743 E27.27374
G1 X110.486 Y111.134 E27.35705
G1 X111.307 Y111.134 E27.37727
G1 X108.560 Y108.387 E27.47300
G1 X108.959 Y107.966 E27.48731
G1 X112.128 Y111.134 E27.59771
G1 X112.927 Y111.113 E27.61742
G1 X109.316 Y107.501 E27.74327
G1 X109.571 Y106.936 E27.75856
G1 X113.613 Y110.978 E27.89941
G1 X114.290 Y110.834 E27.91646
G1 X109.774 Y106.318 E28.07382
G1 X109.870 Y105.592 E28.09185
G1 X114.847 Y110.569 E28.26526
G1 X115.403 Y110.304 E28.28044
G1 X109.773 Y104.675 E28.47659
G1 X108.977 Y103.057 E28.52101
G1 X115.874 Y109.955 E28.76132
G1 X116.322 Y109.581 E28.77568
G1 X106.606 Y99.866 E29.11421
G1 X105.785 Y99.866 E29.13443
G1 X108.443 Y102.523 E29.22703
G1 X106.825 Y101.727 E29.27145
G1 X104.964 Y99.866 E29.33630
G1 X104.143 Y99.866 E29.35652
G1 X105.908 Y101.630 E29.41801
G1 X105.182 Y101.726 E29.43604
G1 X103.322 Y99.866 E29.50085
G1 X102.501 Y99.866 E29.52108
G1 X104.564 Y101.929 E29.59297
G1 X103.999 Y102.184 E29.60826
G1 X101.680 Y99.866 E29.68905
G1 X100.859 Y99.866 E29.70928
G1 X103.534 Y102.541 E29.80249
G1 X103.113 Y102.940 E29.81680
G1 X100.038 Y99.866 E29.92393
G1 X99.217 Y99.866 E29.94416
G1 X102.757 Y103.405 E30.06748
G1 X102.478 Y103.947 E30.08250
G1 X98.396 Y99.866 E30.22470
G1 X97.575 Y99.866 E30.24493
G1 X102.245 Y104.536 E30.40764
G1 X102.150 Y105.261 E30.42566
G1 X96.754 Y99.866 E30.61365
G1 X95.933 Y99.866 E30.63388
G1 X102.202 Y106.134 E30.85228
G1 X102.603 Y107.357 E30.88399
G1 X95.112 Y99.866 E31.14499
G1 X107.427 Y99.866 F7800.000
G1 X116.731 Y109.170 F1080.000 E31.46918
G1 X117.076 Y108.693 E31.48367
G1 X108.248 Y99.866 E31.79125
G1 X109.069 Y99.866 E31.81147
G1 X117.420 Y108.217 E32.10245
G1 X117.655 Y107.630 E32.11801
G1 X109.890 Y99.866 E32.38855
G1 X110.711 Y99.866 E32.40878
