; generated by Slic3r 0.9.9 on 2014-01-11 at 19:13:56

; layer_height = 0.4
; perimeters = 3
; top_solid_layers = 3
; bottom_solid_layers = 3
; fill_density = 0.4
; perimeter_speed = 30
; infill_speed = 60
; travel_speed = 130
; nozzle_diameter = 0.5
; filament_diameter = 3
; extrusion_multiplier = 1
; perimeters extrusion width = 0.53mm
; infill extrusion width = 0.53mm
; solid infill extrusion width = 0.53mm
; top infill extrusion width = 0.53mm
; first layer extrusion width = 1.00mm

G21 ; set units to millimeters
M107
M190 S100 ; wait for bed temperature to be reached
M104 S205 ; set temperature
G28 ; home all axes
M109 S205 ; wait for temperature to be reached
G90 ; use absolute coordinates
G92 E0
M82 ; use absolute distances for extrusion
G1 F1800.000 E-4.00000
G92 E0
G1 Z0.500 F7800.000
G1 X81.791 Y62.090
G1 F1800.000 E4.00000
G1 X82.591 Y61.100 F540.000 E4.08037
G1 X83.181 Y60.520 E4.13262
G1 X84.151 Y59.720 E4.21201
G1 X84.671 Y59.330 E4.25306
G1 X84.941 Y59.160 E4.27320
G1 X85.511 Y58.850 E4.31418
G1 X101.181 Y52.170 E5.38982
G1 X101.461 Y52.070 E5.40860
G1 X102.021 Y51.910 E5.44537
G1 X103.771 Y51.570 E5.55795
G1 X104.061 Y51.520 E5.57653
G1 X104.631 Y51.460 E5.61272
G1 X105.201 Y51.450 E5.64872
G1 X105.781 Y51.480 E5.68539
G1 X106.631 Y51.630 E5.73989
G1 X108.531 Y52.150 E5.86428
G1 X109.351 Y52.430 E5.91900
G1 X124.691 Y58.830 E6.96857
G1 X124.981 Y58.980 E6.98919
G1 X125.551 Y59.320 E7.03110
G1 X126.091 Y59.720 E7.07354
G1 X127.061 Y60.520 E7.15293
G1 X127.651 Y61.100 E7.20517
G1 X128.641 Y62.330 E7.30488
G1 X128.821 Y62.580 E7.32433
G1 X129.151 Y63.100 E7.36322
G1 X129.421 Y63.650 E7.40191
G1 X129.541 Y63.940 E7.42172
G1 X136.171 Y80.890 E8.57101
G1 X136.481 Y81.910 E8.63832
G1 X136.741 Y83.120 E8.71647
G1 X136.841 Y83.890 E8.76551
G1 X136.881 Y85.550 E8.87036
G1 X135.621 Y128.800 E11.60256
G1 X135.561 Y129.350 E11.63750
G1 X135.461 Y129.880 E11.67155
G1 X135.311 Y130.410 E11.70634
G1 X135.131 Y130.930 E11.74108
G1 X135.021 Y131.180 E11.75833
G1 X134.641 Y131.900 E11.80974
G1 X134.171 Y132.580 E11.86194
G1 X133.821 Y132.990 E11.89598
G1 X133.231 Y133.560 E11.94778
G1 X132.801 Y133.900 E11.98239
G1 X132.341 Y134.210 E12.01742
G1 X131.871 Y134.470 E12.05134
G1 X131.121 Y134.800 E12.10308
G1 X130.331 Y135.040 E12.15521
G1 X129.521 Y135.180 E12.20712
G1 X84.501 Y138.530 E15.05779
G1 X83.991 Y138.550 E15.09002
G1 X59.721 Y138.550 E16.62256
G1 X59.451 Y138.530 E16.63966
G1 X58.911 Y138.470 E16.67397
G1 X58.651 Y138.420 E16.69069
G1 X57.861 Y138.220 E16.74215
G1 X57.101 Y137.920 E16.79374
G1 X56.621 Y137.670 E16.82791
G1 X56.391 Y137.540 E16.84460
G1 X55.941 Y137.240 E16.87875
G1 X55.511 Y136.900 E16.91336
G1 X54.931 Y136.340 E16.96427
G1 X54.411 Y135.710 E17.01586
G1 X54.111 Y135.260 E17.05001
G1 X53.851 Y134.790 E17.08392
G1 X53.521 Y134.050 E17.13509
G1 X53.431 Y133.790 E17.15246
G1 X53.231 Y133.000 E17.20392
G1 X53.181 Y132.740 E17.22064
G1 X53.101 Y131.930 E17.27204
G1 X53.101 Y107.370 E18.82289
G1 X53.191 Y106.520 E18.87686
G1 X53.311 Y105.960 E18.91303
G1 X53.571 Y105.140 E18.96735
G1 X53.941 Y104.360 E19.02186
G1 X54.231 Y103.870 E19.05782
G1 X81.361 Y62.660 E22.17333
G1 X81.710 Y62.197 E22.20996
G1 F1800.000 E18.20996
G92 E0
G1 X81.768 Y109.898 F7800.000
G1 F1800.000 E4.00000
G1 X81.768 Y129.435 F540.000 E5.23364
G1 X62.232 Y129.435 E6.46729
G1 X62.232 Y109.898 E7.70093
G1 X81.634 Y109.898 E8.92612
G1 X82.661 Y109.006 F7800.000
G1 X82.661 Y130.328 F540.000 E10.27250
G1 X61.339 Y130.328 E11.61888
G1 X61.339 Y109.006 E12.96527
G1 X82.527 Y109.006 E14.30319
G1 X83.554 Y108.113 F7800.000
G1 X83.554 Y131.220 F378.000 E15.76232
G1 X60.446 Y131.220 E17.22144
G1 X60.446 Y108.113 E18.68056
G1 X83.420 Y108.113 E20.13123
G1 X83.107 Y108.886 F7800.000
G1 X81.121 Y110.545
G1 X81.121 Y111.849 F1080.000 E20.21616
G1 X79.818 Y110.545 E20.33628
G1 X78.515 Y110.545 E20.42120
G1 X81.121 Y113.152 E20.66141
G1 X81.121 Y114.455 E20.74634
G1 X77.212 Y110.545 E21.10665
G1 X75.909 Y110.545 E21.19157
G1 X81.121 Y115.758 E21.67197
G1 X81.121 Y117.061 E21.75690
G1 X74.606 Y110.545 E22.35740
G1 X73.303 Y110.545 E22.44232
G1 X81.121 Y118.364 E23.16292
G1 X81.121 Y119.667 E23.24784
G1 X72.000 Y110.545 E24.08854
G1 X70.697 Y110.545 E24.17346
G1 X81.121 Y120.970 E25.13426
G1 X81.121 Y122.273 E25.21918
G1 X69.394 Y110.545 E26.30007
G1 X68.091 Y110.545 E26.38499
G1 X81.121 Y123.576 E27.58598
G1 X81.121 Y124.879 E27.67090
G1 X66.788 Y110.545 E28.99199
G1 X65.485 Y110.545 E29.07691
G1 X81.121 Y126.182 E30.51810
G1 X81.121 Y127.485 E30.60302
G1 X64.182 Y110.545 E32.16430
G1 X62.879 Y110.546 E32.24921
G1 X81.121 Y128.788 E33.93057
G1 X79.818 Y128.788 E34.01549
G1 X62.879 Y111.849 E35.57677
G1 X62.879 Y113.152 E35.66169
G1 X78.515 Y128.788 E37.10288
G1 X77.212 Y128.788 E37.18780
G1 X62.879 Y114.455 E38.50888
G1 X62.879 Y115.758 E38.59381
G1 X75.909 Y128.788 E39.79480
G1 X74.606 Y128.788 E39.87972
G1 X62.879 Y117.061 E40.96061
G1 X62.879 Y118.364 E41.04553
G1 X73.303 Y128.788 E42.00633
G1 X72.000 Y128.788 E42.09125
G1 X62.879 Y119.667 E42.93195
G1 X62.879 Y120.970 E43.01687
G1 X70.697 Y128.788 E43.73747
G1 X69.394 Y128.788 E43.82239
G1 X62.879 Y122.273 E44.42290
G1 X62.879 Y123.576 E44.50782
G1 X68.091 Y128.788 E44.98822
G1 X66.788 Y128.788 E45.07315
G1 X62.879 Y124.879 E45.43345
G1 X62.879 Y126.182 E45.51838
G1 X65.485 Y128.788 E45.75859
G1 X64.182 Y128.788 E45.84351
G1 X62.879 Y127.485 E45.96363
G1 X62.879 Y128.788 E46.04856
G1 F1800.000 E42.04856
G92 E0
G1 X58.757 Y134.667 F7800.000
G1 X85.243 Y134.667
G1 X120.746 Y129.576
G1 X125.085 Y126.994
G1 F1800.000 E4.00000
G1 X125.085 Y109.672 F600.000 E5.09380
G1 X127.407 Y109.672 E5.24042
G1 X127.407 Y126.994 E6.33422
G1 X125.219 Y126.994 E6.47238
G1 X124.192 Y127.887 F7800.000
G1 X124.192 Y108.780 F600.000 E7.67892
G1 X128.299 Y108.780 E7.93828
G1 X128.299 Y127.887 E9.14482
G1 X124.326 Y127.887 E9.39572
G1 X124.638 Y127.114 F7800.000
G1 X126.031 Y126.048
G1 X126.460 Y125.156 F600.000 E9.46117
G1 X126.031 Y124.726 E9.50132
G1 X126.460 Y123.834 E9.56676
G1 X126.031 Y123.405 E9.60690
G1 X126.460 Y122.513 E9.67235
G1 X126.031 Y122.083 E9.71249
G1 X126.460 Y121.191 E9.77793
G1 X126.031 Y120.762 E9.81807
G1 X126.460 Y119.870 E9.88352
G1 X126.031 Y119.440 E9.92366
G1 X126.460 Y118.548 E9.98910
G1 X126.031 Y118.119 E10.02924
G1 X126.460 Y117.226 E10.09469
G1 X126.031 Y116.797 E10.13483
G1 X126.460 Y115.905 E10.20027
G1 X126.031 Y115.476 E10.24041
G1 X126.460 Y114.583 E10.30586
G1 X126.031 Y114.154 E10.34600
G1 X126.460 Y113.262 E10.41144
G1 X126.031 Y112.832 E10.45159
G1 X126.460 Y111.940 E10.51703
G1 X126.031 Y111.511 E10.55717
G1 X126.460 Y110.619 E10.62262
G1 F1800.000 E6.62262
G92 E0
G1 X129.988 Y105.333 F7800.000
G1 X122.503 Y105.333
G1 X106.593 Y111.114
G1 X106.823 Y90.854
G1 F1800.000 E4.00000
G1 X106.337 Y91.282 F540.000 E4.04086
G1 X103.824 Y91.928 E4.20469
G1 X102.887 Y90.263 E4.32539
G1 X102.721 Y88.821 E4.41699
G1 X101.160 Y87.069 E4.56518
G1 X99.061 Y86.114 E4.71081
G1 X99.822 Y85.682 E4.76605
G1 X101.189 Y83.409 E4.93352
G1 X99.589 Y81.732 E5.07984
G1 X104.707 Y80.989 E5.40636
G1 X99.876 Y77.949 E5.76682
G1 X102.040 Y77.625 E5.90503
G1 X103.703 Y76.820 E6.02167
G1 X106.047 Y75.458 E6.19287
G1 X107.835 Y74.288 E6.32777
G1 X108.750 Y76.594 E6.48447
G1 X110.972 Y77.586 E6.63810
G1 X109.429 Y78.498 E6.75128
G1 X110.050 Y81.643 E6.95372
G1 X110.665 Y81.732 E6.99294
G1 X109.066 Y83.409 E7.13925
G1 X110.433 Y85.682 E7.30672
G1 X111.181 Y86.107 E7.36110
G1 X108.762 Y87.448 E7.53578
G1 X108.040 Y88.887 E7.63745
G1 X107.221 Y90.256 E7.73818
G1 X106.897 Y90.743 E7.77509
G1 X107.500 Y91.447 F7800.000
G1 X106.782 Y92.081 F540.000 E7.83558
G1 X104.568 Y92.659 E7.98009
G1 X103.926 Y94.713 E8.11598
G1 X103.441 Y96.193 E8.21432
G1 X102.980 Y96.132 E8.24370
G1 X102.880 Y94.374 E8.35487
G1 X103.175 Y92.591 E8.46902
G1 X102.020 Y90.539 E8.61768
G1 X101.867 Y89.204 E8.70254
G1 X100.619 Y87.803 E8.82098
G1 X98.581 Y86.876 E8.96239
G1 X96.659 Y86.567 E9.08532
G1 X98.518 Y85.396 E9.22403
G1 X99.177 Y85.021 E9.27194
G1 X100.073 Y83.532 E9.38166
G1 X98.907 Y82.310 E9.48830
G1 X96.727 Y81.642 E9.63228
G1 X96.758 Y81.242 E9.65762
G1 X102.181 Y80.454 E10.00362
G1 X98.413 Y78.083 E10.28473
G1 X96.859 Y77.563 E10.38818
G1 X96.939 Y77.061 E10.42031
G1 X98.237 Y77.052 E10.50225
G1 X100.315 Y76.980 E10.63356
G1 X101.774 Y76.762 E10.72670
G1 X103.281 Y76.032 E10.83247
G1 X105.581 Y74.696 E11.00042
G1 X107.480 Y73.453 E11.14374
G1 X109.047 Y70.828 E11.33677
G1 X109.398 Y70.936 E11.35995
G1 X109.291 Y72.790 E11.47727
G1 X108.888 Y74.523 E11.58955
G1 X109.446 Y75.927 E11.68498
G1 X111.845 Y76.998 E11.85089
G1 X113.494 Y77.185 E11.95566
G1 X113.524 Y77.674 E11.98659
G1 X111.932 Y78.055 E12.08999
G1 X110.427 Y78.945 E12.20034
G1 X110.804 Y80.851 E12.32299
G1 X113.496 Y81.242 E12.49481
G1 X113.527 Y81.642 E12.52015
G1 X111.347 Y82.310 E12.66412
G1 X110.182 Y83.532 E12.77077
G1 X111.077 Y85.021 E12.88048
G1 X111.737 Y85.396 E12.92839
G1 X113.596 Y86.567 E13.06711
G1 X111.620 Y86.885 E13.19346
G1 X109.436 Y88.095 E13.35114
G1 X108.823 Y89.317 E13.43747
G1 X107.976 Y90.733 E13.54165
G1 X107.575 Y91.335 E13.58735
G1 X108.178 Y92.039 F7800.000
G1 X107.227 Y92.881 F378.000 E13.66758
G1 X105.272 Y93.399 E13.79528
G1 X104.424 Y96.059 E13.97152
G1 X104.493 Y97.415 E14.05726
G1 X105.072 Y98.756 E14.14953
G1 X105.669 Y99.609 E14.21527
G1 X106.968 Y100.440 E14.31266
G1 X108.095 Y101.409 E14.40648
G1 X108.652 Y102.570 E14.48776
G1 X108.810 Y103.817 E14.56713
G1 X108.694 Y104.593 E14.61673
G1 X108.328 Y104.562 E14.63989
G1 X108.345 Y103.830 E14.68612
G1 X108.111 Y102.964 E14.74280
G1 X107.442 Y102.136 E14.81004
G1 X106.284 Y101.125 E14.90707
G1 X105.156 Y100.528 E14.98768
G1 X103.965 Y99.667 E15.08044
G1 X103.171 Y98.644 E15.16224
G1 X102.474 Y97.433 E15.25046
G1 X102.089 Y96.196 E15.33227
G1 X101.984 Y94.326 E15.45053
G1 X102.242 Y92.759 E15.55085
G1 X101.153 Y90.816 E15.69150
G1 X101.012 Y89.587 E15.76961
G1 X100.078 Y88.538 E15.85830
G1 X98.320 Y87.739 E15.98022
G1 X96.998 Y87.526 E16.06481
G1 X95.873 Y87.595 E16.13597
G1 X94.850 Y87.950 E16.20437
G1 X93.684 Y88.767 E16.29429
G1 X93.085 Y90.057 E16.38404
G1 X93.191 Y92.003 E16.50714
G1 X93.640 Y93.645 E16.61461
G1 X93.973 Y95.267 E16.71916
G1 X94.009 Y96.866 E16.82019
G1 X93.705 Y97.750 E16.87917
G1 X93.343 Y98.374 E16.92477
G1 X93.094 Y98.277 E16.94163
G1 X93.403 Y96.899 E17.03079
G1 X93.316 Y95.289 E17.13263
G1 X92.732 Y93.649 E17.24259
G1 X92.141 Y92.095 E17.34757
G1 X91.984 Y90.163 E17.46997
G1 X92.461 Y88.772 E17.56277
G1 X94.001 Y87.206 E17.70147
G1 X98.059 Y84.630 E18.00498
G1 X98.533 Y84.361 E18.03939
G1 X98.957 Y83.656 E18.09135
G1 X98.422 Y83.095 E18.14026
G1 X97.363 Y82.770 E18.21022
G1 X95.188 Y82.742 E18.34756
G1 X93.717 Y82.971 E18.44155
G1 X92.375 Y83.362 E18.52981
G1 X91.497 Y83.782 E18.59129
G1 X90.737 Y84.498 E18.65725
G1 X89.828 Y85.429 E18.73939
G1 X88.779 Y86.406 E18.82988
G1 X88.503 Y86.136 E18.85426
G1 X89.243 Y85.305 E18.92448
G1 X90.179 Y84.116 E19.02006
G1 X91.315 Y83.032 E19.11920
G1 X92.586 Y82.169 E19.21619
G1 X93.923 Y81.467 E19.31157
G1 X95.424 Y80.840 E19.41430
G1 X97.377 Y80.250 E19.54313
G1 X99.654 Y79.919 E19.68843
G1 X98.028 Y78.895 E19.80976
G1 X96.173 Y78.275 E19.93326
G1 X94.305 Y77.245 E20.06800
G1 X93.168 Y76.400 E20.15742
G1 X92.608 Y75.080 E20.24799
G1 X92.531 Y73.918 E20.32149
G1 X92.893 Y72.641 E20.40535
G1 X93.225 Y71.182 E20.49981
G1 X93.468 Y70.300 E20.55760
G1 X93.847 Y70.386 E20.58213
G1 X93.682 Y71.297 E20.64056
G1 X93.699 Y73.825 E20.80019
G1 X93.988 Y74.840 E20.86682
G1 X94.639 Y75.549 E20.92761
G1 X95.358 Y75.911 E20.97843
G1 X96.540 Y76.171 E21.05486
G1 X98.218 Y76.160 E21.16083
G1 X100.233 Y76.090 E21.28814
G1 X101.507 Y75.899 E21.36948
G1 X102.860 Y75.244 E21.46438
G1 X105.115 Y73.934 E21.62908
G1 X106.819 Y72.819 E21.75768
G1 X107.725 Y71.301 E21.86931
G1 X107.617 Y69.974 E21.95336
G1 X107.304 Y69.022 E22.01662
G1 X106.415 Y68.232 E22.09170
G1 X105.708 Y67.762 E22.14531
G1 X104.441 Y67.023 E22.23793
G1 X103.102 Y66.324 E22.33332
G1 X102.133 Y65.374 E22.41901
G1 X101.604 Y64.158 E22.50276
G1 X101.445 Y62.872 E22.58461
G1 X101.559 Y62.094 E22.63426
G1 X101.926 Y62.125 E22.65747
G1 X101.909 Y62.843 E22.70286
G1 X102.141 Y63.718 E22.76002
G1 X102.773 Y64.544 E22.82570
G1 X103.768 Y65.446 E22.91051
G1 X106.382 Y66.645 E23.09205
G1 X107.436 Y67.217 E23.16781
G1 X108.633 Y68.033 E23.25927
G1 X109.836 Y69.357 E23.37226
G1 X110.284 Y71.072 E23.48413
G1 X110.178 Y72.918 E23.60093
G1 X109.821 Y74.453 E23.70041
G1 X110.142 Y75.260 E23.75526
G1 X112.083 Y76.126 E23.88951
G1 X113.812 Y76.322 E23.99939
G1 X114.936 Y76.053 E24.07236
G1 X115.609 Y75.678 E24.12100
G1 X116.254 Y74.976 E24.18122
G1 X116.544 Y73.948 E24.24868
G1 X116.535 Y72.862 E24.31728
G1 X116.557 Y71.317 E24.41483
G1 X116.396 Y70.366 E24.47573
G1 X116.775 Y70.284 E24.50023
G1 X117.016 Y71.195 E24.55978
G1 X117.346 Y72.717 E24.65811
G1 X117.712 Y74.027 E24.74396
G1 X117.635 Y75.221 E24.81955
G1 X117.085 Y76.579 E24.91207
G1 X116.144 Y77.456 E24.99325
G1 X114.374 Y78.388 E25.11958
G1 X112.270 Y78.892 E25.25618
G1 X111.426 Y79.392 E25.31816
G1 X111.557 Y80.058 E25.36104
G1 X112.877 Y80.250 E25.44526
G1 X114.830 Y80.840 E25.57409
G1 X116.331 Y81.467 E25.67682
G1 X117.668 Y82.169 E25.77220
G1 X118.940 Y83.032 E25.86919
G1 X120.075 Y84.116 E25.96834
G1 X121.011 Y85.305 E26.06392
G1 X121.751 Y86.136 E26.13413
G1 X121.475 Y86.406 E26.15851
G1 X120.426 Y85.429 E26.24900
G1 X119.517 Y84.498 E26.33114
G1 X118.758 Y83.782 E26.39710
G1 X117.879 Y83.362 E26.45858
G1 X116.537 Y82.971 E26.54684
G1 X115.066 Y82.742 E26.64083
G1 X112.892 Y82.770 E26.77817
G1 X111.832 Y83.095 E26.84813
G1 X111.298 Y83.656 E26.89703
G1 X111.722 Y84.361 E26.94899
G1 X112.196 Y84.630 E26.98341
G1 X116.253 Y87.206 E27.28692
G1 X117.794 Y88.772 E27.42562
G1 X118.270 Y90.163 E27.51842
G1 X118.114 Y92.095 E27.64082
G1 X117.523 Y93.649 E27.74579
G1 X116.938 Y95.289 E27.85576
G1 X116.851 Y96.899 E27.95760
G1 X117.160 Y98.277 E28.04676
G1 X116.911 Y98.374 E28.06361
G1 X116.549 Y97.750 E28.10922
G1 X116.246 Y96.866 E28.16819
G1 X116.281 Y95.267 E28.26922
G1 X116.615 Y93.645 E28.37377
G1 X117.064 Y92.003 E28.48125
G1 X117.169 Y90.057 E28.60435
G1 X116.571 Y88.767 E28.69410
G1 X115.405 Y87.950 E28.78402
G1 X114.381 Y87.595 E28.85241
G1 X113.257 Y87.526 E28.92357
G1 X111.916 Y87.742 E29.00931
G1 X110.110 Y88.742 E29.13969
G1 X109.606 Y89.747 E29.21067
G1 X108.731 Y91.210 E29.31831
G1 X108.253 Y91.928 E29.37280
G1 X107.311 Y91.830 F7800.000
G1 F1800.000 E25.37280
G92 E0
G1 X108.162 Y91.954 F7800.000
G1 X105.212 Y93.416
G1 X104.355 Y96.101
G1 X104.024 Y99.647
G1 X103.960 Y102.818
G1 X102.553 Y104.016
G1 X102.652 Y103.591
G1 F1800.000 E4.00000
G1 X103.536 Y102.662 F540.000 E4.08095
G1 X104.896 Y102.506 E4.16737
G1 X103.960 Y102.818 F7800.000
G1 X102.553 Y104.016
G1 X102.652 Y103.591
G1 X102.287 Y104.614 F540.000 E4.23596
G1 X102.287 Y104.614 F7800.000
G1 X102.292 Y105.028 F540.000 E4.26213
G1 X102.292 Y105.028 F7800.000
G1 X102.335 Y105.439 F540.000 E4.28822
G1 X102.335 Y105.439 F7800.000
G1 X102.366 Y105.492 F540.000 E4.29209
G1 X102.366 Y105.492 F7800.000
G1 X103.052 Y106.797 F540.000 E4.38517
G1 X103.052 Y106.797 F7800.000
G1 X103.721 Y107.244 F540.000 E4.43598
G1 X103.721 Y107.244 F7800.000
G1 X104.613 Y107.568 F540.000 E4.49597
G1 X104.613 Y107.568 F7800.000
G1 X105.258 Y107.726 F540.000 E4.53789
G1 X106.477 Y107.482 E4.61637
G1 X107.795 Y106.469 E4.72137
G1 X108.439 Y105.071 E4.81855
G1 X108.529 Y103.677 E4.90677
G1 X108.114 Y102.369 E4.99338
G1 X107.943 Y102.125 E5.01219
G1 X107.491 Y102.180 E5.04099
G1 X107.943 Y102.125 F7800.000
G1 X107.935 Y101.335 F540.000 E5.09088
G1 X107.615 Y100.968 E5.12168
G1 X107.615 Y100.968 F7800.000
G1 X106.928 Y100.102 F540.000 E5.19145
G1 X106.928 Y100.102 F7800.000
G1 X106.715 Y100.055 F540.000 E5.20525
G1 X106.715 Y100.055 F7800.000
G1 X106.573 Y99.738 F540.000 E5.22717
G1 F1800.000 E1.22717
G92 E0
G1 X105.016 Y98.811 F7800.000
G1 X104.355 Y96.101
G1 X105.212 Y93.416
G1 X110.105 Y88.662
G1 X113.275 Y87.440
G1 X116.583 Y88.667
G1 X117.232 Y90.066
G1 X116.775 Y96.888
