; generated by Slic3r 0.9.9 on 2014-01-11 at 22:21:44

; layer_height = 0.4
; perimeters = 3
; top_solid_layers = 3
; bottom_solid_layers = 3
; fill_density = 0.4
; perimeter_speed = 30
; infill_speed = 60
; travel_speed = 130
; nozzle_diameter = 0.5
; filament_diameter = 3
; extrusion_multiplier = 1
; perimeters extrusion width = 0.53mm
; infill extrusion width = 0.53mm
; solid infill extrusion width = 0.53mm
; top infill extrusion width = 0.53mm
; first layer extrusion width = 0.60mm

G21 ; set units to millimeters
M190 S110 ; wait for bed temperature to be reached
M104 S205 ; set temperature
G28 ; home all axes
M109 S205 ; wait for temperature to be reached
G90 ; use absolute coordinates
G92 E0
M82 ; use absolute distances for extrusion
M106 S89
G1 F1800.000 E-4.00000
G92 E0
G1 Z0.300 F7800.000
G1 X55.637 Y77.007
G1 F1800.000 E4.00000
G1 X56.327 Y76.567 F540.000 E4.02009
G1 X56.807 Y76.327 E4.03327
G1 X57.557 Y76.047 E4.05293
G1 X113.547 Y58.717 E5.49205
G1 X114.187 Y58.547 E5.50831
G1 X114.837 Y58.447 E5.52446
G1 X115.497 Y58.417 E5.54068
G1 X130.497 Y58.417 E5.90899
G1 X131.027 Y58.437 E5.92202
G1 X131.817 Y58.547 E5.94160
G1 X132.577 Y58.757 E5.96096
G1 X133.077 Y58.947 E5.97409
G1 X133.557 Y59.167 E5.98706
G1 X134.017 Y59.437 E6.00016
G1 X134.657 Y59.897 E6.01951
G1 X135.237 Y60.437 E6.03897
G1 X135.597 Y60.837 E6.05218
G1 X135.757 Y61.047 E6.05866
G1 X136.057 Y61.477 E6.07154
G1 X136.327 Y61.937 E6.08463
G1 X136.647 Y62.667 E6.10420
G1 X136.887 Y63.427 E6.12377
G1 X136.947 Y63.677 E6.13009
G1 X137.027 Y64.207 E6.14325
G1 X137.057 Y64.467 E6.14967
G1 X137.077 Y64.997 E6.16270
G1 X137.077 Y124.997 E7.63594
G1 X137.057 Y125.527 E7.64896
G1 X137.027 Y125.787 E7.65539
G1 X136.947 Y126.317 E7.66855
G1 X136.817 Y126.827 E7.68147
G1 X136.547 Y127.577 E7.70104
G1 X136.327 Y128.057 E7.71401
G1 X136.057 Y128.517 E7.72710
G1 X135.597 Y129.157 E7.74646
G1 X135.237 Y129.557 E7.75967
G1 X134.657 Y130.097 E7.77913
G1 X134.017 Y130.557 E7.79848
G1 X133.557 Y130.827 E7.81158
G1 X133.077 Y131.047 E7.82454
G1 X132.577 Y131.237 E7.83768
G1 X131.817 Y131.447 E7.85704
G1 X131.287 Y131.527 E7.87020
G1 X131.027 Y131.557 E7.87662
G1 X130.497 Y131.577 E7.88965
G1 X115.497 Y131.577 E8.25796
G1 X114.597 Y131.517 E8.28010
G1 X113.997 Y131.407 E8.29508
G1 X113.417 Y131.237 E8.30992
G1 X57.427 Y112.567 E9.75912
G1 X56.927 Y112.377 E9.77225
G1 X56.447 Y112.157 E9.78522
G1 X55.767 Y111.747 E9.80471
G1 X55.147 Y111.257 E9.82412
G1 X54.767 Y110.887 E9.83714
G1 X54.247 Y110.277 E9.85682
G1 X53.807 Y109.617 E9.87630
G1 X53.457 Y108.907 E9.89573
G1 X53.267 Y108.407 E9.90887
G1 X53.117 Y107.897 E9.92192
G1 X53.057 Y107.647 E9.92823
G1 X52.977 Y107.117 E9.94139
G1 X52.947 Y106.857 E9.94782
G1 X52.927 Y106.327 E9.96084
G1 X52.927 Y82.327 E10.55014
G1 X52.947 Y81.787 E10.56341
G1 X53.067 Y80.987 E10.58327
G1 X53.197 Y80.467 E10.59643
G1 X53.367 Y79.957 E10.60963
G1 X53.707 Y79.217 E10.62963
G1 X53.837 Y78.987 E10.63611
G1 X54.137 Y78.537 E10.64939
G1 X54.457 Y78.107 E10.66256
G1 X54.637 Y77.897 E10.66935
G1 X55.217 Y77.337 E10.68914
G1 X55.568 Y77.059 E10.70013
G1 F1800.000 E6.70013
G92 E0
G1 X60.946 Y104.887 F7800.000
G1 F1800.000 E4.00000
G1 X60.946 Y83.780 F540.000 E4.51827
G1 X82.054 Y83.780 E5.03654
G1 X82.054 Y104.887 E5.55481
G1 X61.033 Y104.887 E6.07094
G1 X60.368 Y105.466 F7800.000
G1 X60.368 Y83.201 F540.000 E6.61762
G1 X82.632 Y83.201 E7.16430
G1 X82.632 Y105.466 E7.71098
G1 X60.455 Y105.466 E8.25553
G1 X59.789 Y106.044 F7800.000
G1 X59.789 Y82.623 F378.000 E8.83062
G1 X83.211 Y82.623 E9.40571
G1 X83.211 Y106.044 E9.98080
G1 X59.876 Y106.044 E10.55376
G1 X60.079 Y105.543 F7800.000
G1 X61.366 Y104.468
G1 X61.366 Y103.640 F1080.000 E10.57431
G1 X62.193 Y104.468 E10.60336
G1 X63.020 Y104.468 E10.62390
G1 X61.366 Y102.813 E10.68200
G1 X61.366 Y101.986 E10.70254
G1 X63.848 Y104.468 E10.78969
G1 X64.675 Y104.468 E10.81022
G1 X61.366 Y101.158 E10.92642
G1 X61.366 Y100.331 E10.94696
G1 X65.502 Y104.468 E11.09220
G1 X66.330 Y104.468 E11.11274
G1 X61.366 Y99.504 E11.28703
G1 X61.366 Y98.676 E11.30757
G1 X67.157 Y104.468 E11.51090
G1 X67.984 Y104.468 E11.53144
G1 X61.366 Y97.849 E11.76382
G1 X61.366 Y97.022 E11.78436
G1 X68.811 Y104.468 E12.04579
G1 X69.639 Y104.468 E12.06633
G1 X61.366 Y96.195 E12.35681
G1 X61.366 Y95.367 E12.37735
G1 X70.466 Y104.468 E12.69687
G1 X71.293 Y104.468 E12.71741
G1 X61.366 Y94.540 E13.06598
G1 X61.366 Y93.713 E13.08652
G1 X72.121 Y104.468 E13.46413
G1 X72.948 Y104.468 E13.48467
G1 X61.366 Y92.885 E13.89133
G1 X61.366 Y92.058 E13.91187
G1 X73.775 Y104.468 E14.34758
G1 X74.602 Y104.468 E14.36812
G1 X61.366 Y91.231 E14.83288
G1 X61.366 Y90.404 E14.85342
G1 X75.430 Y104.468 E15.34722
G1 X76.257 Y104.468 E15.36776
G1 X61.366 Y89.576 E15.89061
G1 X61.366 Y88.749 E15.91115
G1 X77.084 Y104.468 E16.46305
G1 X77.912 Y104.468 E16.48359
G1 X61.366 Y87.922 E17.06453
G1 X61.366 Y87.094 E17.08507
G1 X78.739 Y104.468 E17.69507
G1 X79.566 Y104.468 E17.71560
G1 X61.366 Y86.267 E18.35464
G1 X61.366 Y85.440 E18.37518
G1 X80.393 Y104.468 E19.04327
G1 X81.221 Y104.468 E19.06381
G1 X61.366 Y84.613 E19.76094
G1 X61.779 Y84.199 E19.77546
G1 X81.634 Y104.054 E20.47259
G1 X81.634 Y103.227 E20.49313
G1 X62.607 Y84.199 E21.16121
G1 X63.434 Y84.199 E21.18175
G1 X81.634 Y102.399 E21.82079
G1 X81.634 Y101.572 E21.84133
G1 X64.261 Y84.199 E22.45132
G1 X65.088 Y84.199 E22.47186
G1 X81.634 Y100.745 E23.05280
G1 X81.634 Y99.918 E23.07334
G1 X65.916 Y84.199 E23.62524
G1 X66.743 Y84.199 E23.64577
G1 X81.634 Y99.090 E24.16862
G1 X81.634 Y98.263 E24.18916
G1 X67.570 Y84.199 E24.68296
G1 X68.398 Y84.199 E24.70350
G1 X81.634 Y97.436 E25.16826
G1 X81.634 Y96.608 E25.18880
G1 X69.225 Y84.199 E25.62451
G1 X70.052 Y84.199 E25.64505
G1 X81.634 Y95.781 E26.05171
G1 X81.634 Y94.954 E26.07225
G1 X70.879 Y84.199 E26.44986
G1 X71.707 Y84.199 E26.47040
G1 X81.634 Y94.127 E26.81897
G1 X81.634 Y93.299 E26.83951
G1 X72.534 Y84.199 E27.15903
G1 X73.361 Y84.199 E27.17957
G1 X81.634 Y92.472 E27.47004
G1 X81.634 Y91.645 E27.49058
G1 X74.189 Y84.199 E27.75201
G1 X75.016 Y84.199 E27.77255
G1 X81.634 Y90.817 E28.00493
G1 X81.634 Y89.990 E28.02547
G1 X75.843 Y84.199 E28.22880
G1 X76.670 Y84.199 E28.24934
G1 X81.634 Y89.163 E28.42362
G1 X81.634 Y88.336 E28.44416
G1 X77.498 Y84.199 E28.58940
G1 X78.325 Y84.199 E28.60994
G1 X81.634 Y87.508 E28.72613
G1 X81.634 Y86.681 E28.74667
G1 X79.152 Y84.199 E28.83382
G1 X79.980 Y84.199 E28.85436
G1 X81.634 Y85.854 E28.91246
G1 X81.634 Y85.026 E28.93300
G1 X80.807 Y84.199 E28.96205
G1 X81.634 Y84.199 E28.98259
G1 F1800.000 E24.98259
G92 E0
G1 X86.500 Y81.091 F7800.000
G1 X114.257 Y62.000
G1 X116.946 Y66.446
G1 F1800.000 E4.00000
G1 X129.054 Y66.446 F540.000 E4.29728
G1 X129.054 Y123.554 E5.69949
G1 X116.946 Y123.554 E5.99678
G1 X116.946 Y66.533 E7.39686
G1 X116.368 Y65.868 F7800.000
G1 X129.632 Y65.868 F540.000 E7.72255
G1 X129.632 Y124.132 E9.15318
G1 X116.368 Y124.132 E9.47887
G1 X116.368 Y65.955 E10.90736
G1 X115.789 Y65.289 F7800.000
G1 X130.211 Y65.289 F378.000 E11.26147
G1 X130.211 Y124.711 E12.72050
G1 X115.789 Y124.711 E13.07460
G1 X115.789 Y65.376 E14.53151
G1 X116.290 Y65.579 F7800.000
G1 X128.634 Y66.866
G1 X128.634 Y67.689 F1080.000 E14.55187
G1 X127.811 Y66.866 E14.58066
G1 X126.987 Y66.866 E14.60102
G1 X128.634 Y68.513 E14.65860
G1 X128.634 Y69.337 E14.67896
G1 X126.163 Y66.866 E14.76534
G1 X125.340 Y66.866 E14.78569
G1 X128.634 Y70.160 E14.90086
G1 X128.634 Y70.984 E14.92122
G1 X124.516 Y66.866 E15.06517
G1 X123.692 Y66.866 E15.08553
G1 X128.634 Y71.808 E15.25827
G1 X128.634 Y72.631 E15.27863
G1 X122.869 Y66.866 E15.48017
G1 X122.045 Y66.866 E15.50052
G1 X128.634 Y73.455 E15.73085
G1 X128.634 Y74.278 E15.75121
G1 X121.222 Y66.866 E16.01032
G1 X120.398 Y66.866 E16.03068
G1 X128.634 Y75.102 E16.31859
G1 X128.634 Y75.926 E16.33894
G1 X119.574 Y66.866 E16.65564
G1 X118.751 Y66.866 E16.67600
G1 X128.634 Y76.749 E17.02148
G1 X128.634 Y77.573 E17.04184
G1 X117.927 Y66.866 E17.41612
G1 X117.366 Y67.128 E17.43144
G1 X128.634 Y78.396 E17.82534
G1 X128.634 Y79.220 E17.84570
G1 X117.366 Y67.951 E18.23960
G1 X117.366 Y68.775 E18.25996
G1 X128.634 Y80.044 E18.65386
G1 X128.634 Y80.867 E18.67422
G1 X117.366 Y69.599 E19.06812
G1 X117.366 Y70.422 E19.08848
G1 X128.634 Y81.691 E19.48238
G1 X128.634 Y82.515 E19.50274
G1 X117.366 Y71.246 E19.89664
G1 X117.366 Y72.070 E19.91700
G1 X128.634 Y83.338 E20.31090
G1 X128.634 Y84.162 E20.33126
G1 X117.366 Y72.893 E20.72516
G1 X117.366 Y73.717 E20.74552
G1 X128.634 Y84.985 E21.13942
G1 X128.634 Y85.809 E21.15978
G1 X117.366 Y74.540 E21.55368
G1 X117.366 Y75.364 E21.57404
G1 X128.634 Y86.633 E21.96794
G1 X128.634 Y87.456 E21.98830
G1 X117.366 Y76.188 E22.38221
G1 X117.366 Y77.011 E22.40256
G1 X128.634 Y88.280 E22.79647
G1 X128.634 Y89.104 E22.81682
G1 X117.366 Y77.835 E23.21073
G1 X117.366 Y78.659 E23.23108
G1 X128.634 Y89.927 E23.62499
G1 X128.634 Y90.751 E23.64535
G1 X117.366 Y79.482 E24.03925
G1 X117.366 Y80.306 E24.05961
G1 X128.634 Y91.574 E24.45351
G1 X128.634 Y92.398 E24.47387
G1 X117.366 Y81.129 E24.86777
G1 X117.366 Y81.953 E24.88813
G1 X128.634 Y93.222 E25.28203
G1 X128.634 Y94.045 E25.30239
G1 X117.366 Y82.777 E25.69629
G1 X117.366 Y83.600 E25.71665
G1 X128.634 Y94.869 E26.11055
G1 X128.634 Y95.693 E26.13091
G1 X117.366 Y84.424 E26.52481
G1 X117.366 Y85.248 E26.54517
G1 X128.634 Y96.516 E26.93907
G1 X128.634 Y97.340 E26.95943
G1 X117.366 Y86.071 E27.35333
G1 X117.366 Y86.895 E27.37369
G1 X128.634 Y98.163 E27.76759
G1 X128.634 Y98.987 E27.78795
G1 X117.366 Y87.718 E28.18186
G1 X117.366 Y88.542 E28.20221
G1 X128.634 Y99.811 E28.59612
G1 X128.634 Y100.634 E28.61647
G1 X117.366 Y89.366 E29.01038
G1 X117.366 Y90.189 E29.03073
G1 X128.634 Y101.458 E29.42464
G1 X128.634 Y102.282 E29.44500
G1 X117.366 Y91.013 E29.83890
G1 X117.366 Y91.836 E29.85926
G1 X128.634 Y103.105 E30.25316
G1 X128.634 Y103.929 E30.27352
G1 X117.366 Y92.660 E30.66742
G1 X117.366 Y93.484 E30.68778
G1 X128.634 Y104.752 E31.08168
G1 X128.634 Y105.576 E31.10204
G1 X117.366 Y94.307 E31.49594
G1 X117.366 Y95.131 E31.51630
G1 X128.634 Y106.400 E31.91020
G1 X128.634 Y107.223 E31.93056
G1 X117.366 Y95.955 E32.32446
G1 X117.366 Y96.778 E32.34482
G1 X128.634 Y108.047 E32.73872
G1 X128.634 Y108.871 E32.75908
G1 X117.366 Y97.602 E33.15298
G1 X117.366 Y98.425 E33.17334
G1 X128.634 Y109.694 E33.56724
G1 X128.634 Y110.518 E33.58760
G1 X117.366 Y99.249 E33.98150
G1 X117.366 Y100.073 E34.00186
G1 X128.634 Y111.341 E34.39577
G1 X128.634 Y112.165 E34.41612
G1 X117.366 Y100.896 E34.81003
G1 X117.366 Y101.720 E34.83038
G1 X128.634 Y112.989 E35.22429
G1 X128.634 Y113.812 E35.24464
G1 X117.366 Y102.544 E35.63855
G1 X117.366 Y103.367 E35.65891
G1 X128.634 Y114.636 E36.05281
G1 X128.634 Y115.459 E36.07317
G1 X117.366 Y104.191 E36.46707
G1 X117.366 Y105.014 E36.48743
G1 X128.634 Y116.283 E36.88133
G1 X128.634 Y117.107 E36.90169
G1 X117.366 Y105.838 E37.29559
G1 X117.366 Y106.662 E37.31595
G1 X128.634 Y117.930 E37.70985
G1 X128.634 Y118.754 E37.73021
G1 X117.366 Y107.485 E38.12411
G1 X117.366 Y108.309 E38.14447
G1 X128.634 Y119.578 E38.53837
G1 X128.634 Y120.401 E38.55873
G1 X117.366 Y109.133 E38.95263
G1 X117.366 Y109.956 E38.97299
G1 X128.634 Y121.225 E39.36689
G1 X128.634 Y122.048 E39.38725
G1 X117.366 Y110.780 E39.78115
G1 X117.366 Y111.603 E39.80151
G1 X128.634 Y122.872 E40.19542
G1 X128.073 Y123.134 E40.21073
G1 X117.366 Y112.427 E40.58501
G1 X117.366 Y113.251 E40.60537
G1 X127.249 Y123.134 E40.95086
G1 X126.426 Y123.134 E40.97122
G1 X117.366 Y114.074 E41.28791
G1 X117.366 Y114.898 E41.30827
G1 X125.602 Y123.134 E41.59618
G1 X124.778 Y123.134 E41.61654
G1 X117.366 Y115.722 E41.87566
G1 X117.366 Y116.545 E41.89602
G1 X123.955 Y123.134 E42.12634
G1 X123.131 Y123.134 E42.14670
G1 X117.366 Y117.369 E42.34824
G1 X117.366 Y118.192 E42.36860
G1 X122.308 Y123.134 E42.54135
G1 X121.484 Y123.134 E42.56170
G1 X117.366 Y119.016 E42.70566
G1 X117.366 Y119.840 E42.72602
G1 X120.660 Y123.134 E42.84119
G1 X119.837 Y123.134 E42.86155
G1 X117.366 Y120.663 E42.94792
G1 X117.366 Y121.487 E42.96828
G1 X119.013 Y123.134 E43.02587
G1 X118.189 Y123.134 E43.04623
G1 X117.366 Y122.311 E43.07502
G1 X117.366 Y123.134 E43.09539
M106 S255
G1 F1800.000 E39.09539
G92 E0
G1 Z0.700 F7800.000
G1 X114.257 Y128.000
G1 X112.500 Y126.243
G1 X86.500 Y81.091
G1 X84.743 Y79.333
G1 X82.201 Y83.632
G1 F1800.000 E4.00000
G1 X82.201 Y105.034 F1477.502 E4.62933
G1 X60.799 Y105.034 E5.25866
G1 X60.799 Y83.632 E5.88798
G1 X82.123 Y83.632 E6.51502
G1 X82.721 Y83.113 F7800.000
G1 X82.721 Y105.554 F1477.502 E7.17491
G1 X60.279 Y105.554 E7.83479
G1 X60.279 Y83.113 E8.49468
G1 X82.643 Y83.113 E9.15228
G1 X83.240 Y82.593 F7800.000
G1 X83.240 Y106.074 F1034.251 E9.84273
G1 X59.760 Y106.074 E10.53317
G1 X59.760 Y82.593 E11.22362
G1 X83.162 Y82.593 E11.91178
G1 X82.980 Y83.043 F7800.000
G1 X81.824 Y104.657
G1 X81.087 Y104.658 F2955.003 E11.93354
G1 X81.824 Y103.920 E11.96433
G1 X81.824 Y103.183 E11.98609
G1 X80.349 Y104.658 E12.04764
G1 X79.612 Y104.658 E12.06940
G1 X81.824 Y102.445 E12.16173
G1 X81.824 Y101.708 E12.18349
G1 X78.874 Y104.658 E12.30660
G1 X78.137 Y104.658 E12.32836
G1 X81.824 Y100.970 E12.48224
G1 X81.824 Y100.233 E12.50400
G1 X77.399 Y104.658 E12.68865
G1 X76.662 Y104.658 E12.71041
G1 X81.824 Y99.495 E12.92584
G1 X81.824 Y98.758 E12.94760
G1 X75.925 Y104.658 E13.19380
G1 X75.187 Y104.658 E13.21556
G1 X81.824 Y98.020 E13.49254
G1 X81.824 Y97.283 E13.51430
G1 X74.450 Y104.658 E13.82205
G1 X73.712 Y104.658 E13.84381
G1 X81.824 Y96.546 E14.18233
G1 X81.824 Y95.808 E14.20409
G1 X72.975 Y104.658 E14.57339
G1 X72.237 Y104.658 E14.59515
G1 X81.824 Y95.071 E14.99522
G1 X81.824 Y94.333 E15.01698
G1 X71.500 Y104.658 E15.44783
G1 X70.762 Y104.658 E15.46959
G1 X81.824 Y93.596 E15.93121
G1 X81.824 Y92.858 E15.95297
G1 X70.025 Y104.658 E16.44537
G1 X69.288 Y104.658 E16.46713
G1 X81.824 Y92.121 E16.99030
G1 X81.824 Y91.383 E17.01206
G1 X68.550 Y104.658 E17.56600
G1 X67.813 Y104.658 E17.58776
G1 X81.824 Y90.646 E18.17248
G1 X81.824 Y89.909 E18.19424
G1 X67.075 Y104.658 E18.80973
G1 X66.338 Y104.658 E18.83149
G1 X81.824 Y89.171 E19.47775
G1 X81.824 Y88.434 E19.49951
G1 X65.600 Y104.658 E20.17655
G1 X64.863 Y104.658 E20.19831
G1 X81.824 Y87.696 E20.90613
G1 X81.824 Y86.959 E20.92789
G1 X64.125 Y104.658 E21.66647
G1 X63.388 Y104.658 E21.68824
G1 X81.824 Y86.221 E22.45760
G1 X81.824 Y85.484 E22.47936
G1 X62.651 Y104.658 E23.27949
G1 X61.913 Y104.658 E23.30125
G1 X81.824 Y84.746 E24.13216
G1 X81.824 Y84.009 E24.15392
G1 X61.176 Y104.658 E25.01560
G1 X61.176 Y103.920 E25.03735
G1 X81.087 Y84.009 E25.86826
G1 X80.349 Y84.009 E25.89002
G1 X61.176 Y103.183 E26.69015
G1 X61.176 Y102.445 E26.71191
G1 X79.612 Y84.009 E27.48127
G1 X78.874 Y84.009 E27.50303
G1 X61.176 Y101.708 E28.24162
G1 X61.176 Y100.970 E28.26338
G1 X78.137 Y84.009 E28.97119
G1 X77.400 Y84.009 E28.99295
G1 X61.176 Y100.233 E29.66998
G1 X61.176 Y99.495 E29.69175
G1 X76.662 Y84.009 E30.33801
G1 X75.925 Y84.009 E30.35977
G1 X61.176 Y98.758 E30.97526
G1 X61.176 Y98.021 E30.99702
G1 X75.187 Y84.009 E31.58173
G1 X74.450 Y84.009 E31.60349
G1 X61.176 Y97.283 E32.15743
G1 X61.176 Y96.546 E32.17919
G1 X73.712 Y84.009 E32.70236
G1 X72.975 Y84.009 E32.72412
G1 X61.176 Y95.808 E33.21651
G1 X61.176 Y95.071 E33.23827
G1 X72.237 Y84.009 E33.69989
G1 X71.500 Y84.009 E33.72165
G1 X61.176 Y94.333 E34.15249
G1 X61.176 Y93.596 E34.17425
G1 X70.763 Y84.009 E34.57432
G1 X70.025 Y84.009 E34.59608
G1 X61.176 Y92.858 E34.96537
G1 X61.176 Y92.121 E34.98714
G1 X69.288 Y84.009 E35.32566
G1 X68.550 Y84.009 E35.34742
G1 X61.176 Y91.384 E35.65516
G1 X61.176 Y90.646 E35.67692
G1 X67.813 Y84.009 E35.95390
G1 X67.075 Y84.009 E35.97566
G1 X61.176 Y89.909 E36.22185
G1 X61.176 Y89.171 E36.24362
G1 X66.338 Y84.009 E36.45904
G1 X65.600 Y84.009 E36.48080
G1 X61.176 Y88.434 E36.66545
G1 X61.176 Y87.696 E36.68721
G1 X64.863 Y84.009 E36.84109
G1 X64.126 Y84.009 E36.86285
G1 X61.176 Y86.959 E36.98595
G1 X61.176 Y86.221 E37.00771
G1 X63.388 Y84.009 E37.10004
G1 X62.651 Y84.009 E37.12180
G1 X61.176 Y85.484 E37.18335
G1 X61.176 Y84.747 E37.20511
G1 X61.913 Y84.009 E37.23589
