; generated by Slic3r 0.9.9 on 2014-01-15 at 21:56:36

; layer_height = 0.4
; perimeters = 3
; top_solid_layers = 3
; bottom_solid_layers = 3
; fill_density = 0.4
; perimeter_speed = 30
; infill_speed = 60
; travel_speed = 130
; nozzle_diameter = 0.5
; filament_diameter = 3
; extrusion_multiplier = 1
; perimeters extrusion width = 0.53mm
; infill extrusion width = 0.53mm
; solid infill extrusion width = 0.53mm
; top infill extrusion width = 0.53mm
; first layer extrusion width = 0.60mm

G21 ; set units to millimeters
M190 S110 ; wait for bed temperature to be reached
M104 S205 ; set temperature
G28 ; home all axes
M109 S205 ; wait for temperature to be reached
G90 ; use absolute coordinates
G92 E0
M82 ; use absolute distances for extrusion
M106 S89
G1 F1800.000 E-4.00000
G92 E0
G1 Z0.300 F7800.000
G1 X47.419 Y72.497
G1 F1800.000 E4.00000
G1 X47.879 Y72.217 F540.000 E4.01322
G1 X48.369 Y71.977 E4.02662
G1 X49.129 Y71.697 E4.04651
G1 X118.099 Y50.887 E5.81540
G1 X118.739 Y50.727 E5.83160
G1 X120.989 Y50.287 E5.88789
G1 X122.019 Y50.177 E5.91333
G1 X124.319 Y50.097 E5.96984
G1 X125.299 Y50.127 E5.99391
G1 X127.579 Y50.387 E6.05026
G1 X128.569 Y50.587 E6.07506
G1 X130.759 Y51.187 E6.13081
G1 X131.709 Y51.527 E6.15559
G1 X133.829 Y52.477 E6.21263
G1 X134.699 Y52.947 E6.23691
G1 X136.629 Y54.187 E6.29324
G1 X137.459 Y54.817 E6.31882
G1 X139.169 Y56.347 E6.37516
G1 X139.849 Y57.057 E6.39930
G1 X141.309 Y58.827 E6.45564
G1 X141.889 Y59.657 E6.48050
G1 X143.049 Y61.607 E6.53621
G1 X143.489 Y62.487 E6.56037
G1 X144.369 Y64.647 E6.61764
G1 X144.689 Y65.637 E6.64319
G1 X145.209 Y67.867 E6.69941
G1 X145.359 Y68.867 E6.72424
G1 X145.529 Y71.157 E6.78062
G1 X145.529 Y72.137 E6.80469
G1 X145.359 Y74.427 E6.86107
G1 X145.269 Y75.147 E6.87889
G1 X134.149 Y134.537 E8.36249
G1 X134.029 Y135.057 E8.37559
G1 X133.949 Y135.317 E8.38227
G1 X133.659 Y136.067 E8.40202
G1 X133.419 Y136.547 E8.41519
G1 X133.279 Y136.777 E8.42181
G1 X132.819 Y137.437 E8.44156
G1 X132.469 Y137.837 E8.45461
G1 X131.879 Y138.387 E8.47441
G1 X131.459 Y138.717 E8.48753
G1 X130.769 Y139.137 E8.50736
G1 X130.289 Y139.367 E8.52043
G1 X129.529 Y139.637 E8.54024
G1 X128.749 Y139.817 E8.55989
G1 X128.219 Y139.887 E8.57302
G1 X127.679 Y139.907 E8.58629
G1 X103.679 Y139.907 E9.17558
G1 X103.059 Y139.877 E9.19082
G1 X102.439 Y139.787 E9.20621
G1 X101.839 Y139.647 E9.22133
G1 X49.189 Y124.317 E10.56779
G1 X48.689 Y124.147 E10.58075
G1 X48.199 Y123.937 E10.59384
G1 X47.509 Y123.557 E10.61319
G1 X47.069 Y123.257 E10.62626
G1 X46.659 Y122.917 E10.63934
G1 X46.099 Y122.357 E10.65879
G1 X45.609 Y121.727 E10.67838
G1 X45.329 Y121.287 E10.69119
G1 X44.979 Y120.577 E10.71063
G1 X44.709 Y119.827 E10.73020
G1 X44.579 Y119.307 E10.74336
G1 X44.469 Y118.527 E10.76270
G1 X44.449 Y117.997 E10.77572
G1 X44.449 Y77.997 E11.75788
G1 X44.469 Y77.457 E11.77115
G1 X44.499 Y77.187 E11.77782
G1 X44.649 Y76.387 E11.79781
G1 X44.719 Y76.127 E11.80442
G1 X44.999 Y75.357 E11.82454
G1 X45.239 Y74.877 E11.83771
G1 X45.369 Y74.637 E11.84442
G1 X45.669 Y74.187 E11.85770
G1 X46.179 Y73.547 E11.87779
G1 X46.559 Y73.167 E11.89098
G1 X46.769 Y72.987 E11.89778
G1 X47.347 Y72.546 E11.91563
G1 F1800.000 E7.91563
G92 E0
G1 X59.576 Y116.554 F7800.000
G1 F1800.000 E4.00000
G1 X52.468 Y116.554 F540.000 E4.17451
G1 X52.468 Y79.446 E5.08565
G1 X89.576 Y79.446 E5.99678
G1 X89.576 Y86.554 E6.17129
G1 X79.576 Y86.554 E6.41683
G1 X79.576 Y96.554 E6.66237
G1 X69.576 Y96.554 E6.90791
G1 X69.576 Y106.554 E7.15345
G1 X59.576 Y106.554 E7.39899
G1 X59.576 Y116.467 E7.64240
G1 X60.154 Y117.132 F7800.000
G1 X51.890 Y117.132 F540.000 E7.84532
G1 X51.890 Y78.868 E8.78487
G1 X90.154 Y78.868 E9.72441
G1 X90.154 Y87.132 E9.92733
G1 X80.154 Y87.132 E10.17287
G1 X80.154 Y97.132 E10.41841
G1 X70.154 Y97.132 E10.66395
G1 X70.154 Y107.132 E10.90949
G1 X60.154 Y107.132 E11.15503
G1 X60.154 Y117.045 E11.39844
G1 X60.733 Y117.711 F7800.000
G1 X51.311 Y117.711 F378.000 E11.62978
G1 X51.311 Y78.289 E12.59773
G1 X90.733 Y78.289 E13.56568
G1 X90.733 Y87.711 E13.79702
G1 X80.733 Y87.711 E14.04256
G1 X80.733 Y97.711 E14.28810
G1 X70.733 Y97.711 E14.53364
G1 X70.733 Y107.711 E14.77918
G1 X60.733 Y107.711 E15.02472
G1 X60.733 Y117.624 E15.26813
G1 X60.232 Y117.421 F7800.000
G1 X52.888 Y116.134
G1 X52.888 Y115.310 F1080.000 E15.28852
G1 X53.712 Y116.134 E15.31737
G1 X54.536 Y116.134 E15.33776
G1 X52.888 Y114.486 E15.39544
G1 X52.888 Y113.661 E15.41583
G1 X55.361 Y116.134 E15.50234
G1 X56.185 Y116.134 E15.52273
G1 X52.888 Y112.837 E15.63809
G1 X52.888 Y112.013 E15.65848
G1 X57.009 Y116.134 E15.80267
G1 X57.834 Y116.134 E15.82306
G1 X52.888 Y111.188 E15.99608
G1 X52.888 Y110.364 E16.01647
G1 X58.658 Y116.134 E16.21834
G1 X59.156 Y115.809 E16.23307
G1 X52.888 Y109.540 E16.45237
G1 X52.888 Y108.716 E16.47276
G1 X59.156 Y114.984 E16.69206
G1 X59.156 Y114.160 E16.71245
G1 X52.888 Y107.891 E16.93175
G1 X52.888 Y107.067 E16.95214
G1 X59.156 Y113.336 E17.17144
G1 X59.156 Y112.511 E17.19183
G1 X52.888 Y106.243 E17.41114
G1 X52.888 Y105.418 E17.43153
G1 X59.156 Y111.687 E17.65083
G1 X59.156 Y110.863 E17.67122
G1 X52.888 Y104.594 E17.89052
G1 X52.888 Y103.770 E17.91091
G1 X59.156 Y110.039 E18.13021
G1 X59.156 Y109.214 E18.15060
G1 X52.888 Y102.946 E18.36990
G1 X52.888 Y102.121 E18.39029
G1 X59.156 Y108.390 E18.60959
G1 X59.156 Y107.566 E18.62998
G1 X52.888 Y101.297 E18.84929
G1 X52.888 Y100.473 E18.86968
G1 X59.156 Y106.741 E19.08898
G1 X59.374 Y106.134 E19.10493
G1 X52.888 Y99.648 E19.33183
G1 X52.888 Y98.824 E19.35222
G1 X60.198 Y106.134 E19.60795
G1 X61.022 Y106.134 E19.62834
G1 X52.888 Y98.000 E19.91292
G1 X52.888 Y97.176 E19.93331
G1 X61.846 Y106.134 E20.24672
G1 X62.671 Y106.134 E20.26711
G1 X52.888 Y96.351 E20.60936
G1 X52.888 Y95.527 E20.62975
G1 X63.495 Y106.134 E21.00083
G1 X64.319 Y106.134 E21.02122
G1 X52.888 Y94.703 E21.42114
G1 X52.888 Y93.878 E21.44153
G1 X65.144 Y106.134 E21.87029
G1 X65.968 Y106.134 E21.89068
G1 X52.888 Y93.054 E22.34827
G1 X52.888 Y92.230 E22.36866
G1 X66.792 Y106.134 E22.85509
G1 X67.616 Y106.134 E22.87548
G1 X52.888 Y91.406 E23.39074
G1 X52.888 Y90.581 E23.41114
G1 X68.441 Y106.134 E23.95524
G1 X69.156 Y106.026 E23.97314
G1 X52.888 Y89.757 E24.54228
G1 X52.888 Y88.933 E24.56267
G1 X69.156 Y105.201 E25.13181
G1 X69.156 Y104.377 E25.15220
G1 X52.888 Y88.108 E25.72134
G1 X52.888 Y87.284 E25.74173
G1 X69.156 Y103.553 E26.31087
G1 X69.156 Y102.729 E26.33126
G1 X52.888 Y86.460 E26.90040
G1 X52.888 Y85.636 E26.92079
G1 X69.156 Y101.904 E27.48992
G1 X69.156 Y101.080 E27.51032
G1 X52.888 Y84.811 E28.07945
G1 X52.888 Y83.987 E28.09984
G1 X69.156 Y100.256 E28.66898
G1 X69.156 Y99.431 E28.68937
G1 X52.888 Y83.163 E29.25851
G1 X52.888 Y82.338 E29.27890
G1 X69.156 Y98.607 E29.84804
G1 X69.156 Y97.783 E29.86843
G1 X52.888 Y81.514 E30.43757
G1 X52.888 Y80.690 E30.45796
G1 X69.156 Y96.959 E31.02710
G1 X69.156 Y96.134 E31.04749
G1 X52.888 Y79.866 E31.61662
G1 X53.712 Y79.866 E31.63701
G1 X69.981 Y96.134 E32.20615
G1 X70.805 Y96.134 E32.22654
G1 X54.536 Y79.866 E32.79568
G1 X55.361 Y79.866 E32.81607
G1 X71.629 Y96.134 E33.38521
G1 X72.454 Y96.134 E33.40560
G1 X56.185 Y79.866 E33.97474
G1 X57.009 Y79.866 E33.99513
G1 X73.278 Y96.134 E34.56426
G1 X74.102 Y96.134 E34.58465
G1 X57.833 Y79.866 E35.15379
G1 X58.658 Y79.866 E35.17418
G1 X74.926 Y96.134 E35.74332
G1 X75.751 Y96.134 E35.76371
G1 X59.482 Y79.866 E36.33285
G1 X60.306 Y79.866 E36.35324
G1 X76.575 Y96.134 E36.92238
G1 X77.399 Y96.134 E36.94277
G1 X61.131 Y79.866 E37.51191
G1 X61.955 Y79.866 E37.53230
G1 X78.224 Y96.134 E38.10144
G1 X79.048 Y96.134 E38.12183
G1 X62.779 Y79.866 E38.69096
G1 X63.603 Y79.866 E38.71136
G1 X79.156 Y95.419 E39.25545
G1 X79.156 Y94.594 E39.27584
G1 X64.428 Y79.866 E39.79111
G1 X65.252 Y79.866 E39.81150
G1 X79.156 Y93.770 E40.29792
G1 X79.156 Y92.946 E40.31831
G1 X66.076 Y79.866 E40.77590
G1 X66.901 Y79.866 E40.79629
G1 X79.156 Y92.121 E41.22505
G1 X79.156 Y91.297 E41.24544
G1 X67.725 Y79.866 E41.64535
G1 X68.549 Y79.866 E41.66574
G1 X79.156 Y90.473 E42.03682
G1 X79.156 Y89.649 E42.05721
G1 X69.373 Y79.866 E42.39946
G1 X70.198 Y79.866 E42.41985
G1 X79.156 Y88.824 E42.73325
G1 X79.156 Y88.000 E42.75364
G1 X71.022 Y79.866 E43.03821
G1 X71.846 Y79.866 E43.05860
G1 X79.156 Y87.176 E43.31434
G1 X79.156 Y86.351 E43.33473
G1 X72.671 Y79.866 E43.56162
G1 X73.495 Y79.866 E43.58202
G1 X79.763 Y86.134 E43.80132
G1 X80.588 Y86.134 E43.82171
G1 X74.319 Y79.866 E44.04101
G1 X75.143 Y79.866 E44.06140
G1 X81.412 Y86.134 E44.28070
G1 X82.236 Y86.134 E44.30109
G1 X75.968 Y79.866 E44.52039
G1 X76.792 Y79.866 E44.54078
G1 X83.061 Y86.134 E44.76008
G1 X83.885 Y86.134 E44.78047
G1 X77.616 Y79.866 E44.99977
G1 X78.441 Y79.866 E45.02016
G1 X84.709 Y86.134 E45.23947
G1 X85.533 Y86.134 E45.25986
G1 X79.265 Y79.866 E45.47916
G1 X80.089 Y79.866 E45.49955
G1 X86.358 Y86.134 E45.71885
G1 X87.182 Y86.134 E45.73924
G1 X80.913 Y79.866 E45.95854
G1 X81.738 Y79.866 E45.97893
G1 X88.006 Y86.134 E46.19823
G1 X88.831 Y86.134 E46.21862
G1 X82.562 Y79.866 E46.43792
G1 X83.386 Y79.866 E46.45831
G1 X89.156 Y85.636 E46.66017
G1 X89.156 Y84.811 E46.68056
G1 X84.211 Y79.866 E46.85359
G1 X85.035 Y79.866 E46.87398
G1 X89.156 Y83.987 E47.01816
G1 X89.156 Y83.163 E47.03855
G1 X85.859 Y79.866 E47.15390
G1 X86.683 Y79.866 E47.17429
G1 X89.156 Y82.339 E47.26081
G1 X89.156 Y81.514 E47.28120
G1 X87.508 Y79.866 E47.33887
G1 X88.332 Y79.866 E47.35926
G1 X89.156 Y80.690 E47.38810
G1 X89.156 Y79.866 E47.40850
G1 F1800.000 E43.40850
G92 E0
G1 X92.265 Y75.000 F7800.000
G1 X107.206 Y78.290
G1 X114.730 Y73.621
G1 F1800.000 E4.00000
G1 X114.524 Y71.656 F540.000 E4.04853
G1 X114.730 Y69.690 E4.09706
G1 X115.341 Y67.810 E4.14559
G1 X116.329 Y66.099 E4.19412
G1 X117.652 Y64.630 E4.24265
G1 X119.251 Y63.468 E4.29118
G1 X121.057 Y62.664 E4.33972
G1 X122.821 Y62.289 E4.38400
G1 X122.990 Y62.253 E4.38825
G1 X124.966 Y62.253 E4.43678
G1 X126.900 Y62.664 E4.48531
G1 X128.705 Y63.468 E4.53384
G1 X130.304 Y64.630 E4.58237
G1 X131.627 Y66.099 E4.63090
G1 X132.615 Y67.810 E4.67943
G1 X133.226 Y69.690 E4.72796
G1 X133.432 Y71.656 E4.77649
G1 X133.226 Y73.621 E4.82502
G1 X132.615 Y75.501 E4.87355
G1 X131.627 Y77.213 E4.92208
G1 X130.304 Y78.682 E4.97062
G1 X128.705 Y79.843 E5.01915
G1 X126.900 Y80.647 E5.06768
G1 X124.966 Y81.058 E5.11620
G1 X122.990 Y81.058 E5.16474
G1 X121.056 Y80.647 E5.21327
G1 X119.251 Y79.843 E5.26180
G1 X117.652 Y78.682 E5.31033
G1 X116.329 Y77.213 E5.35886
G1 X115.341 Y75.501 E5.40739
G1 X114.757 Y73.704 E5.45379
G1 X115.299 Y73.500 F7800.000
G1 X115.105 Y71.656 F540.000 E5.49934
G1 X115.299 Y69.811 E5.54488
G1 X115.872 Y68.047 E5.59043
G1 X116.800 Y66.440 E5.63597
G1 X118.041 Y65.062 E5.68151
G1 X119.542 Y63.972 E5.72706
G1 X121.236 Y63.217 E5.77260
G1 X122.941 Y62.855 E5.81540
G1 X123.051 Y62.832 E5.81815
G1 X124.905 Y62.832 E5.86369
G1 X126.720 Y63.217 E5.90924
G1 X128.414 Y63.972 E5.95478
G1 X129.915 Y65.062 E6.00033
G1 X131.156 Y66.440 E6.04587
G1 X132.084 Y68.047 E6.09142
G1 X132.657 Y69.811 E6.13696
G1 X132.851 Y71.656 E6.18251
G1 X132.657 Y73.500 E6.22805
G1 X132.083 Y75.265 E6.27360
G1 X131.156 Y76.871 E6.31914
G1 X129.915 Y78.249 E6.36468
G1 X128.414 Y79.340 E6.41023
G1 X126.720 Y80.094 E6.45577
G1 X124.906 Y80.480 E6.50132
G1 X123.051 Y80.480 E6.54686
G1 X121.236 Y80.094 E6.59241
G1 X119.542 Y79.340 E6.63795
G1 X118.041 Y78.249 E6.68350
G1 X116.800 Y76.871 E6.72904
G1 X115.872 Y75.264 E6.77459
G1 X115.326 Y73.583 E6.81800
G1 X115.884 Y73.428 F7800.000
G1 X115.687 Y71.656 F378.000 E6.86179
G1 X115.868 Y69.932 E6.90435
G1 X116.404 Y68.283 E6.94691
G1 X117.271 Y66.782 E6.98947
G1 X118.430 Y65.494 E7.03202
G1 X119.833 Y64.476 E7.07458
G1 X121.416 Y63.771 E7.11714
G1 X123.111 Y63.410 E7.15970
G1 X124.845 Y63.410 E7.20226
G1 X126.540 Y63.771 E7.24482
G1 X128.123 Y64.476 E7.28738
G1 X129.526 Y65.494 E7.32993
G1 X130.685 Y66.782 E7.37249
G1 X131.552 Y68.283 E7.41505
G1 X132.088 Y69.932 E7.45761
G1 X132.269 Y71.656 E7.50017
G1 X132.088 Y73.379 E7.54273
G1 X131.552 Y75.028 E7.58529
G1 X130.711 Y76.484 E7.62658
G1 X129.526 Y77.817 E7.67038
G1 X128.123 Y78.836 E7.71293
G1 X126.540 Y79.541 E7.75549
G1 X124.845 Y79.901 E7.79805
G1 X123.111 Y79.901 E7.84061
G1 X121.416 Y79.541 E7.88317
G1 X119.833 Y78.836 E7.92573
G1 X118.430 Y77.817 E7.96829
G1 X117.271 Y76.529 E8.01084
G1 X116.404 Y75.028 E8.05340
G1 X115.911 Y73.511 E8.09257
G1 X115.340 Y73.233 F7800.000
G1 X113.525 Y63.035
G1 X114.963 Y61.540 F540.000 E8.14350
G1 X116.613 Y60.283 E8.19444
G1 X118.435 Y59.292 E8.24537
G1 X120.388 Y58.591 E8.29631
G1 X122.424 Y58.196 E8.34724
G1 X124.497 Y58.116 E8.39818
G1 X126.558 Y58.354 E8.44911
G1 X128.558 Y58.904 E8.50005
G1 X130.451 Y59.752 E8.55098
G1 X132.192 Y60.880 E8.60192
G1 X133.741 Y62.260 E8.65285
G1 X135.060 Y63.860 E8.70379
G1 X136.120 Y65.644 E8.75472
G1 X136.896 Y67.568 E8.80565
G1 X137.369 Y69.587 E8.85659
G1 X137.527 Y71.656 E8.90752
G1 X137.369 Y73.724 E8.95846
G1 X136.896 Y75.744 E9.00939
G1 X136.120 Y77.668 E9.06033
G1 X135.060 Y79.451 E9.11126
G1 X133.741 Y81.051 E9.16220
G1 X132.192 Y82.431 E9.21313
G1 X130.451 Y83.559 E9.26407
G1 X128.558 Y84.408 E9.31500
G1 X126.558 Y84.957 E9.36594
G1 X124.497 Y85.195 E9.41687
G1 X122.424 Y85.116 E9.46780
G1 X120.388 Y84.721 E9.51874
G1 X118.435 Y84.020 E9.56967
G1 X116.613 Y83.029 E9.62061
G1 X114.963 Y81.771 E9.67154
G1 X113.525 Y80.276 E9.72248
G1 X112.331 Y78.580 E9.77341
G1 X111.411 Y76.721 E9.82435
G1 X110.785 Y74.743 E9.87528
G1 X110.468 Y72.693 E9.92622
G1 X110.468 Y70.618 E9.97715
G1 X110.785 Y68.568 E10.02809
G1 X111.411 Y66.591 E10.07902
G1 X112.331 Y64.732 E10.12995
G1 X113.475 Y63.106 E10.17876
G1 X113.077 Y62.666 F7800.000
G1 X114.577 Y61.107 F540.000 E10.23187
G1 X116.298 Y59.796 E10.28499
G1 X118.198 Y58.762 E10.33811
G1 X120.234 Y58.031 E10.39122
G1 X122.358 Y57.619 E10.44434
G1 X124.519 Y57.536 E10.49745
G1 X126.668 Y57.784 E10.55057
G1 X128.754 Y58.358 E10.60368
G1 X130.728 Y59.243 E10.65680
G1 X132.544 Y60.418 E10.70992
G1 X134.159 Y61.858 E10.76303
G1 X135.535 Y63.527 E10.81615
G1 X136.640 Y65.386 E10.86926
G1 X137.449 Y67.392 E10.92238
G1 X137.942 Y69.499 E10.97550
G1 X138.108 Y71.656 E11.02861
G1 X137.942 Y73.813 E11.08173
G1 X137.449 Y75.919 E11.13484
G1 X136.640 Y77.925 E11.18796
G1 X135.535 Y79.785 E11.24107
G1 X134.159 Y81.454 E11.29419
G1 X132.544 Y82.893 E11.34731
G1 X130.728 Y84.069 E11.40042
G1 X128.754 Y84.954 E11.45354
G1 X126.668 Y85.527 E11.50665
G1 X124.519 Y85.775 E11.55977
G1 X122.358 Y85.692 E11.61289
G1 X120.234 Y85.280 E11.66600
G1 X118.198 Y84.549 E11.71912
G1 X116.298 Y83.516 E11.77223
G1 X114.577 Y82.204 E11.82535
G1 X113.077 Y80.646 E11.87846
G1 X111.833 Y78.876 E11.93158
G1 X110.873 Y76.938 E11.98470
G1 X110.220 Y74.875 E12.03781
G1 X109.890 Y72.737 E12.09093
G1 X109.890 Y70.574 E12.14404
G1 X110.220 Y68.436 E12.19716
G1 X110.873 Y66.374 E12.25028
G1 X111.833 Y64.435 E12.30339
G1 X113.027 Y62.737 E12.35438
G1 X112.629 Y62.297 F7800.000
G1 X114.191 Y60.674 F378.000 E12.40967
G1 X115.982 Y59.309 E12.46497
G1 X117.961 Y58.233 E12.52027
G1 X120.080 Y57.472 E12.57556
G1 X122.291 Y57.043 E12.63086
G1 X124.541 Y56.957 E12.68616
G1 X126.779 Y57.215 E12.74146
G1 X128.950 Y57.812 E12.79675
G1 X131.005 Y58.733 E12.85205
G1 X132.895 Y59.957 E12.90735
G1 X134.577 Y61.455 E12.96264
G1 X136.010 Y63.193 E13.01794
G1 X137.160 Y65.129 E13.07324
G1 X138.002 Y67.217 E13.12854
G1 X138.515 Y69.410 E13.18383
G1 X138.688 Y71.656 E13.23913
G1 X138.515 Y73.901 E13.29443
G1 X138.002 Y76.094 E13.34972
G1 X137.160 Y78.183 E13.40502
G1 X136.010 Y80.119 E13.46032
G1 X134.577 Y81.856 E13.51562
G1 X132.895 Y83.354 E13.57091
G1 X131.005 Y84.578 E13.62621
G1 X128.950 Y85.500 E13.68151
G1 X126.779 Y86.096 E13.73680
G1 X124.541 Y86.355 E13.79210
G1 X122.291 Y86.268 E13.84740
G1 X120.080 Y85.840 E13.90269
G1 X117.961 Y85.078 E13.95799
G1 X115.982 Y84.003 E14.01329
G1 X114.191 Y82.637 E14.06859
G1 X112.629 Y81.015 E14.12388
G1 X111.334 Y79.173 E14.17918
G1 X110.335 Y77.154 E14.23448
G1 X109.655 Y75.007 E14.28977
G1 X109.311 Y72.782 E14.34507
G1 X109.311 Y70.530 E14.40037
G1 X109.655 Y68.304 E14.45567
G1 X110.335 Y66.157 E14.51096
