; generated by Slic3r 0.9.9 on 2014-01-10 at 22:29:00

; layer_height = 0.4
; perimeters = 3
; top_solid_layers = 3
; bottom_solid_layers = 3
; fill_density = 0.4
; perimeter_speed = 30
; infill_speed = 60
; travel_speed = 130
; nozzle_diameter = 0.5
; filament_diameter = 3
; extrusion_multiplier = 1
; perimeters extrusion width = 0.53mm
; infill extrusion width = 0.53mm
; solid infill extrusion width = 0.53mm
; top infill extrusion width = 0.53mm
; first layer extrusion width = 1.00mm

G21 ; set units to millimeters
M107
M190 S100 ; wait for bed temperature to be reached
M104 S205 ; set temperature
G28 ; home all axes
M109 S205 ; wait for temperature to be reached
G90 ; use absolute coordinates
G92 E0
M82 ; use absolute distances for extrusion
G1 F1800.000 E-1.00000
G92 E0
G1 Z0.500 F7800.000
G1 X70.814 Y36.070
G1 F1800.000 E1.00000
G1 X71.194 Y35.670 F540.000 E1.03484
G1 X71.834 Y35.140 E1.08731
G1 X72.284 Y34.830 E1.12182
G1 X73.014 Y34.430 E1.17438
G1 X73.514 Y34.220 E1.20862
G1 X74.304 Y33.970 E1.26095
G1 X74.574 Y33.910 E1.27841
G1 X75.124 Y33.830 E1.31351
G1 X75.664 Y33.780 E1.34775
G1 X116.234 Y33.780 E3.90957
G1 X116.794 Y33.830 E3.94507
G1 X117.364 Y33.920 E3.98151
G1 X117.914 Y34.060 E4.01734
G1 X118.454 Y34.250 E4.05349
G1 X118.974 Y34.480 E4.08940
G1 X119.474 Y34.750 E4.12528
G1 X119.954 Y35.060 E4.16136
G1 X120.404 Y35.410 E4.19736
G1 X157.324 Y66.730 E7.25456
G1 X157.744 Y67.120 E7.29075
G1 X158.124 Y67.540 E7.32652
G1 X158.474 Y67.990 E7.36252
G1 X158.784 Y68.460 E7.39807
G1 X159.054 Y68.970 E7.43451
G1 X159.284 Y69.490 E7.47041
G1 X159.474 Y70.030 E7.50656
G1 X159.614 Y70.580 E7.54240
G1 X159.704 Y71.140 E7.57821
G1 X159.754 Y71.710 E7.61434
G1 X159.754 Y96.280 E9.16583
G1 X159.664 Y97.140 E9.22043
G1 X159.464 Y97.990 E9.27557
G1 X159.374 Y98.260 E9.29354
G1 X159.274 Y98.530 E9.31172
G1 X158.904 Y99.320 E9.36681
G1 X158.434 Y100.050 E9.42163
G1 X158.074 Y100.500 E9.45802
G1 X119.514 Y144.980 E13.17522
G1 X119.064 Y145.450 E13.21631
G1 X118.584 Y145.880 E13.25700
G1 X118.324 Y146.070 E13.27734
G1 X116.914 Y146.990 E13.38365
G1 X116.424 Y147.280 E13.41960
G1 X101.564 Y155.260 E14.48469
G1 X100.974 Y155.510 E14.52515
G1 X100.364 Y155.700 E14.56549
G1 X99.574 Y155.880 E14.61666
G1 X98.144 Y156.150 E14.70855
G1 X97.564 Y156.210 E14.74537
G1 X96.684 Y156.210 E14.80094
G1 X96.104 Y156.150 E14.83776
G1 X95.534 Y156.040 E14.87442
G1 X93.344 Y155.420 E15.01814
G1 X93.074 Y155.320 E15.03632
G1 X92.534 Y155.100 E15.07314
G1 X92.274 Y154.970 E15.09150
G1 X77.764 Y147.310 E16.12758
G1 X77.234 Y146.990 E16.16667
G1 X75.814 Y146.060 E16.27386
G1 X75.534 Y145.850 E16.29596
G1 X75.024 Y145.400 E16.33890
G1 X74.564 Y144.900 E16.38181
G1 X33.534 Y96.020 E20.41162
G1 X33.194 Y95.580 E20.44673
G1 X32.534 Y94.650 E20.51874
G1 X31.974 Y93.720 E20.58729
G1 X31.464 Y92.690 E20.65987
G1 X31.064 Y91.700 E20.72729
G1 X30.734 Y90.650 E20.79679
G1 X30.504 Y89.680 E20.85974
G1 X30.314 Y88.500 E20.93521
G1 X30.234 Y87.400 E21.00486
G1 X30.234 Y86.250 E21.07747
G1 X30.304 Y85.230 E21.14203
G1 X30.474 Y84.090 E21.21482
G1 X30.734 Y82.990 E21.28619
G1 X31.074 Y81.940 E21.35588
G1 X31.434 Y81.050 E21.41650
G1 X31.954 Y79.980 E21.49163
G1 X32.514 Y79.030 E21.56126
G1 X33.174 Y78.090 E21.63379
G1 X33.684 Y77.450 E21.68546
G1 X70.724 Y36.170 E25.18766
G1 F1800.000 E24.18766
G92 E0
G1 X99.786 Y115.288 F7800.000
G1 F1800.000 E1.00000
G1 X100.702 Y117.594 F540.000 E1.15670
G1 X102.924 Y118.586 E1.31033
G1 X101.381 Y119.498 E1.42351
G1 X102.002 Y122.643 E1.62594
G1 X102.617 Y122.732 E1.66517
G1 X101.017 Y124.409 E1.81147
G1 X102.385 Y126.682 E1.97895
G1 X103.133 Y127.107 E2.03333
G1 X100.714 Y128.448 E2.20801
G1 X99.991 Y129.887 E2.30967
G1 X99.173 Y131.256 E2.41041
G1 X98.774 Y131.854 E2.45578
G1 X98.289 Y132.282 E2.49663
G1 X95.776 Y132.928 E2.66047
G1 X94.839 Y131.263 E2.78117
G1 X94.673 Y129.821 E2.87277
G1 X93.112 Y128.069 E3.02096
G1 X91.013 Y127.114 E3.16659
G1 X91.773 Y126.682 E3.22182
G1 X93.141 Y124.409 E3.38930
G1 X91.541 Y122.732 E3.53561
G1 X96.658 Y121.989 E3.86213
G1 X91.827 Y118.949 E4.22259
G1 X93.992 Y118.625 E4.36081
G1 X95.655 Y117.820 E4.47745
G1 X97.999 Y116.458 E4.64864
G1 X99.674 Y115.361 E4.77509
G1 X99.432 Y114.453 F7800.000
G1 X100.999 Y111.828 F540.000 E4.96813
G1 X101.349 Y111.936 E4.99130
G1 X101.243 Y113.790 E5.10862
G1 X100.840 Y115.523 E5.22090
G1 X101.398 Y116.927 E5.31633
G1 X103.797 Y117.998 E5.48224
G1 X105.446 Y118.185 E5.58702
G1 X105.476 Y118.674 E5.61794
G1 X103.883 Y119.055 E5.72134
G1 X102.379 Y119.945 E5.83169
G1 X102.756 Y121.851 E5.95435
G1 X105.448 Y122.242 E6.12616
G1 X105.479 Y122.642 E6.15150
G1 X103.299 Y123.310 E6.29547
G1 X102.134 Y124.532 E6.40212
G1 X103.029 Y126.021 E6.51183
G1 X103.689 Y126.396 E6.55974
G1 X105.548 Y127.567 E6.69846
G1 X103.572 Y127.885 E6.82482
G1 X101.388 Y129.095 E6.98250
G1 X100.775 Y130.317 E7.06882
G1 X99.928 Y131.733 E7.17301
G1 X99.452 Y132.447 E7.22716
G1 X98.734 Y133.081 E7.28764
G1 X96.520 Y133.659 E7.43216
G1 X95.878 Y135.713 E7.56805
G1 X95.393 Y137.193 E7.66638
G1 X94.931 Y137.132 E7.69577
G1 X94.832 Y135.374 E7.80693
G1 X95.127 Y133.591 E7.92109
G1 X93.972 Y131.539 E8.06975
G1 X93.818 Y130.204 E8.15460
G1 X92.571 Y128.803 E8.27304
G1 X90.533 Y127.876 E8.41445
G1 X88.611 Y127.567 E8.53738
G1 X90.469 Y126.396 E8.67610
G1 X91.129 Y126.021 E8.72401
G1 X92.025 Y124.532 E8.83372
G1 X90.859 Y123.310 E8.94037
G1 X88.679 Y122.642 E9.08434
G1 X88.710 Y122.242 E9.10968
G1 X94.132 Y121.454 E9.45568
G1 X90.365 Y119.083 E9.73680
G1 X88.811 Y118.563 E9.84025
G1 X88.891 Y118.061 E9.87238
G1 X90.189 Y118.052 E9.95431
G1 X92.267 Y117.980 E10.08563
G1 X93.726 Y117.762 E10.17877
G1 X95.233 Y117.032 E10.28454
G1 X97.533 Y115.696 E10.45249
G1 X99.320 Y114.526 E10.58735
G1 X98.771 Y113.819 F7800.000
G1 X99.677 Y112.301 F378.000 E10.69898
G1 X99.569 Y110.974 E10.78303
G1 X99.255 Y110.022 E10.84630
G1 X98.367 Y109.232 E10.92137
G1 X97.660 Y108.762 E10.97498
G1 X96.393 Y108.023 E11.06760
G1 X95.054 Y107.324 E11.16299
G1 X94.085 Y106.374 E11.24868
G1 X93.556 Y105.158 E11.33243
G1 X93.396 Y103.872 E11.41428
G1 X93.511 Y103.094 E11.46393
G1 X93.877 Y103.125 E11.48714
G1 X93.861 Y103.843 E11.53253
G1 X94.093 Y104.718 E11.58969
G1 X94.725 Y105.544 E11.65537
G1 X95.720 Y106.446 E11.74018
G1 X98.334 Y107.645 E11.92172
G1 X99.388 Y108.217 E11.99748
G1 X100.584 Y109.033 E12.08894
G1 X101.788 Y110.357 E12.20193
G1 X102.236 Y112.072 E12.31380
G1 X102.130 Y113.918 E12.43060
G1 X101.773 Y115.453 E12.53008
G1 X102.093 Y116.260 E12.58493
G1 X104.035 Y117.126 E12.71918
G1 X105.764 Y117.322 E12.82906
G1 X106.888 Y117.053 E12.90203
G1 X107.561 Y116.678 E12.95067
G1 X108.206 Y115.976 E13.01089
G1 X108.495 Y114.948 E13.07835
G1 X108.487 Y113.862 E13.14695
G1 X108.509 Y112.317 E13.24450
G1 X108.348 Y111.366 E13.30540
G1 X108.727 Y111.284 E13.32990
G1 X108.968 Y112.195 E13.38945
G1 X109.298 Y113.717 E13.48778
G1 X109.664 Y115.027 E13.57363
G1 X109.586 Y116.221 E13.64922
G1 X109.036 Y117.579 E13.74175
G1 X108.096 Y118.456 E13.82292
G1 X106.326 Y119.388 E13.94925
G1 X104.222 Y119.892 E14.08585
G1 X103.377 Y120.392 E14.14783
G1 X103.509 Y121.058 E14.19071
G1 X104.829 Y121.250 E14.27493
G1 X106.782 Y121.840 E14.40376
G1 X108.283 Y122.467 E14.50649
G1 X109.620 Y123.169 E14.60187
G1 X110.891 Y124.032 E14.69886
G1 X112.027 Y125.116 E14.79801
G1 X112.963 Y126.305 E14.89359
G1 X113.703 Y127.136 E14.96380
G1 X113.427 Y127.406 E14.98818
G1 X112.378 Y126.429 E15.07867
G1 X111.469 Y125.498 E15.16081
G1 X110.709 Y124.782 E15.22677
G1 X109.831 Y124.362 E15.28825
G1 X108.489 Y123.971 E15.37651
G1 X107.018 Y123.742 E15.47050
G1 X104.843 Y123.770 E15.60784
G1 X103.784 Y124.095 E15.67780
G1 X103.250 Y124.656 E15.72670
G1 X103.674 Y125.361 E15.77866
G1 X104.147 Y125.630 E15.81308
G1 X108.205 Y128.206 E16.11659
G1 X109.746 Y129.772 E16.25529
G1 X110.222 Y131.163 E16.34809
G1 X110.065 Y133.095 E16.47049
G1 X109.475 Y134.649 E16.57546
G1 X108.890 Y136.289 E16.68543
G1 X108.803 Y137.899 E16.78727
G1 X109.112 Y139.277 E16.87643
G1 X108.863 Y139.374 E16.89329
G1 X108.501 Y138.750 E16.93889
G1 X108.197 Y137.866 E16.99786
G1 X108.233 Y136.267 E17.09889
G1 X108.566 Y134.645 E17.20344
G1 X109.016 Y133.003 E17.31092
G1 X109.121 Y131.057 E17.43402
G1 X108.522 Y129.767 E17.52377
G1 X107.357 Y128.950 E17.61369
G1 X106.333 Y128.595 E17.68208
G1 X105.208 Y128.526 E17.75324
G1 X103.868 Y128.742 E17.83898
G1 X102.062 Y129.742 E17.96936
G1 X101.558 Y130.747 E18.04034
G1 X100.683 Y132.210 E18.14798
G1 X100.130 Y133.039 E18.21092
G1 X99.178 Y133.881 E18.29115
G1 X97.224 Y134.399 E18.41885
G1 X96.376 Y137.059 E18.59509
G1 X96.444 Y138.415 E18.68083
G1 X97.024 Y139.756 E18.77310
G1 X97.621 Y140.609 E18.83884
G1 X98.920 Y141.440 E18.93623
G1 X100.046 Y142.409 E19.03005
G1 X100.603 Y143.570 E19.11133
G1 X100.761 Y144.817 E19.19070
G1 X100.646 Y145.593 E19.24030
G1 X100.280 Y145.562 E19.26346
G1 X100.297 Y144.830 E19.30969
G1 X100.063 Y143.964 E19.36637
G1 X99.394 Y143.136 E19.43361
G1 X98.236 Y142.125 E19.53064
G1 X97.108 Y141.528 E19.61125
G1 X95.917 Y140.667 E19.70401
G1 X95.122 Y139.644 E19.78581
G1 X94.425 Y138.433 E19.87403
G1 X94.041 Y137.196 E19.95584
G1 X93.935 Y135.326 E20.07410
G1 X94.194 Y133.759 E20.17442
G1 X93.105 Y131.816 E20.31507
G1 X92.964 Y130.587 E20.39318
G1 X92.030 Y129.538 E20.48187
G1 X90.272 Y128.739 E20.60379
G1 X88.950 Y128.526 E20.68838
G1 X87.825 Y128.595 E20.75954
G1 X86.801 Y128.950 E20.82794
G1 X85.636 Y129.767 E20.91786
G1 X85.037 Y131.057 E21.00761
G1 X85.142 Y133.003 E21.13071
G1 X85.592 Y134.645 E21.23818
G1 X85.925 Y136.267 E21.34273
G1 X85.961 Y137.866 E21.44376
G1 X85.657 Y138.750 E21.50274
G1 X85.295 Y139.374 E21.54834
G1 X85.046 Y139.277 E21.56520
G1 X85.355 Y137.899 E21.65436
G1 X85.268 Y136.289 E21.75620
G1 X84.683 Y134.649 E21.86616
G1 X84.093 Y133.095 E21.97114
G1 X83.936 Y131.163 E22.09354
G1 X84.413 Y129.772 E22.18634
G1 X85.953 Y128.206 E22.32504
G1 X90.011 Y125.630 E22.62855
G1 X90.484 Y125.361 E22.66296
G1 X90.909 Y124.656 E22.71492
G1 X90.374 Y124.095 E22.76383
G1 X89.315 Y123.770 E22.83379
G1 X87.140 Y123.742 E22.97113
G1 X85.669 Y123.971 E23.06512
G1 X84.327 Y124.362 E23.15338
G1 X83.449 Y124.782 E23.21486
G1 X82.689 Y125.498 E23.28082
G1 X81.780 Y126.429 E23.36296
G1 X80.731 Y127.406 E23.45345
G1 X80.455 Y127.136 E23.47783
G1 X81.195 Y126.305 E23.54805
G1 X82.131 Y125.116 E23.64363
G1 X83.267 Y124.032 E23.74277
G1 X84.538 Y123.169 E23.83976
G1 X85.875 Y122.467 E23.93514
G1 X87.376 Y121.840 E24.03787
G1 X89.329 Y121.250 E24.16670
G1 X91.606 Y120.919 E24.31200
G1 X89.980 Y119.895 E24.43333
G1 X88.125 Y119.275 E24.55683
G1 X86.257 Y118.245 E24.69157
G1 X85.120 Y117.400 E24.78099
G1 X84.559 Y116.080 E24.87156
G1 X84.482 Y114.918 E24.94506
G1 X84.845 Y113.641 E25.02892
G1 X85.177 Y112.182 E25.12338
G1 X85.420 Y111.300 E25.18117
G1 X85.799 Y111.386 E25.20570
G1 X85.634 Y112.297 E25.26413
G1 X85.651 Y114.825 E25.42376
G1 X85.940 Y115.840 E25.49039
G1 X86.591 Y116.549 E25.55118
G1 X87.310 Y116.911 E25.60200
G1 X88.492 Y117.171 E25.67843
G1 X90.170 Y117.160 E25.78440
G1 X92.185 Y117.090 E25.91171
G1 X93.459 Y116.899 E25.99305
G1 X94.812 Y116.244 E26.08795
G1 X97.067 Y114.934 E26.25265
G1 X98.659 Y113.892 E26.37280
G1 X99.651 Y113.966 F7800.000
G1 F1800.000 E25.37280
G92 E0
G1 X98.803 Y113.869 F7800.000
G1 X96.307 Y137.101
G1 X95.975 Y140.647
G1 X95.912 Y143.818
G1 X94.504 Y145.016
G1 X94.604 Y144.591
G1 F1800.000 E1.00000
G1 X95.488 Y143.662 F540.000 E1.08095
G1 X96.848 Y143.506 E1.16737
G1 X95.912 Y143.818 F7800.000
G1 X94.504 Y145.016
G1 X94.604 Y144.591
G1 X94.239 Y145.614 F540.000 E1.23596
G1 X94.239 Y145.614 F7800.000
G1 X94.244 Y146.028 F540.000 E1.26213
G1 X94.244 Y146.028 F7800.000
G1 X94.286 Y146.439 F540.000 E1.28822
G1 X94.286 Y146.439 F7800.000
G1 X94.317 Y146.492 F540.000 E1.29209
G1 X94.317 Y146.492 F7800.000
G1 X95.004 Y147.797 F540.000 E1.38517
G1 X95.004 Y147.797 F7800.000
G1 X95.672 Y148.244 F540.000 E1.43598
G1 X95.672 Y148.244 F7800.000
G1 X96.565 Y148.568 F540.000 E1.49597
G1 X96.565 Y148.568 F7800.000
G1 X97.210 Y148.726 F540.000 E1.53789
G1 X98.429 Y148.482 E1.61637
G1 X99.747 Y147.469 E1.72137
G1 X100.391 Y146.071 E1.81855
G1 X100.480 Y144.677 E1.90677
G1 X100.066 Y143.369 E1.99338
G1 X99.895 Y143.125 E2.01219
G1 X99.442 Y143.180 E2.04099
G1 X99.895 Y143.125 F7800.000
G1 X99.887 Y142.335 F540.000 E2.09088
G1 X99.567 Y141.968 E2.12168
G1 X99.567 Y141.968 F7800.000
G1 X98.880 Y141.102 F540.000 E2.19145
G1 X98.880 Y141.102 F7800.000
G1 X98.667 Y141.055 F540.000 E2.20525
G1 X98.667 Y141.055 F7800.000
G1 X98.525 Y140.738 F540.000 E2.22717
G1 F1800.000 E1.22717
G92 E0
G1 X96.968 Y139.811 F7800.000
G1 X96.307 Y137.101
G1 X97.164 Y134.416
G1 X102.057 Y129.662
G1 X105.227 Y128.440
G1 X108.535 Y129.667
G1 X109.184 Y131.066
G1 X108.727 Y137.888
G1 X110.684 Y135.881
G1 F1800.000 E1.00000
G1 X111.033 Y135.579 F540.000 E1.02918
G1 X111.033 Y135.579 F7800.000
G1 X111.465 Y135.400 F540.000 E1.05870
G1 X111.465 Y135.400 F7800.000
G1 X111.890 Y135.215 F540.000 E1.08796
G1 X111.890 Y135.215 F7800.000
G1 X112.003 Y135.273 F540.000 E1.09597
G1 X112.003 Y135.273 F7800.000
G1 X112.358 Y135.282 F540.000 E1.11843
G1 X112.358 Y135.282 F7800.000
G1 X113.780 Y135.764 F540.000 E1.21321
G1 X114.687 Y136.875 E1.30377
G1 X114.851 Y138.303 E1.39456
G1 X114.343 Y139.597 E1.48233
G1 X113.036 Y140.684 E1.58962
G1 X111.985 Y140.895 E1.65731
G1 X110.936 Y140.821 E1.72374
G1 X109.887 Y140.253 E1.79903
G1 X109.215 Y139.576 E1.85929
G1 X108.574 Y138.054 E1.96361
G1 X108.562 Y136.771 E2.04463
G1 X109.363 Y133.545 E2.25451
G1 X109.614 Y131.491 E2.38519
G1 X108.553 Y130.105 E2.49542
G1 X107.770 Y129.731 E2.55022
G1 X110.019 Y130.153 F7800.000
G1 X109.985 Y130.724 F540.000 E2.58636
G1 X109.985 Y130.724 F7800.000
G1 X109.818 Y130.998 F540.000 E2.60663
G1 X109.818 Y130.998 F7800.000
G1 X109.571 Y131.207 F540.000 E2.62708
G1 X109.184 Y131.066 F7800.000
G1 X108.535 Y129.667
G1 X102.872 Y124.183
G1 X102.970 Y123.932
G1 X109.579 Y123.220
G1 X113.921 Y127.452
G1 X112.213 Y125.842
G1 X112.152 Y125.186 F540.000 E2.66870
G1 X110.659 Y125.210 F7800.000
G1 X112.213 Y125.842 F540.000 E2.77461
G1 X114.015 Y127.691 E2.93762
G1 X115.506 Y128.686 E3.05082
G1 X117.066 Y129.225 E3.15504
G1 X118.708 Y129.237 E3.25873
G1 X120.104 Y128.623 E3.35502
G1 X120.889 Y127.826 E3.42566
G1 X121.472 Y126.294 E3.52921
G1 X121.151 Y124.446 E3.64760
G1 X121.151 Y124.446 F7800.000
G1 X120.981 Y124.225 F540.000 E3.66521
G1 X120.981 Y124.225 F7800.000
G1 X119.959 Y123.152 F540.000 E3.75884
G1 X118.477 Y122.749 E3.85576
G1 X117.319 Y123.150 E3.93318
G1 X116.646 Y123.738 E3.98961
G1 X116.646 Y123.738 F7800.000
G1 X116.326 Y124.186 F540.000 E4.02436
G1 X116.326 Y124.186 F7800.000
G1 X116.150 Y124.543 F540.000 E4.04953
G1 X116.150 Y124.543 F7800.000
G1 X116.031 Y125.101 F540.000 E4.08550
G1 F1800.000 E3.08550
G92 E0
G1 X116.502 Y124.285 F7800.000
G1 X113.921 Y127.452
G1 X109.865 Y124.290
G1 X102.626 Y120.744
G1 X108.310 Y116.049
G1 X108.484 Y110.571
G1 X108.830 Y111.654
G1 F1800.000 E1.00000
G1 X108.588 Y111.549 F540.000 E1.01667
G1 X108.588 Y111.549 F7800.000
G1 X108.578 Y111.540 F540.000 E1.01751
G1 X108.547 Y111.563 F7800.000
G1 X108.484 Y110.926 F540.000 E1.05791
G1 X108.484 Y110.926 F7800.000
G1 X108.433 Y108.429 F540.000 E1.21565
G1 X108.433 Y108.429 F7800.000
G1 X108.502 Y108.198 F540.000 E1.23083
G1 X108.502 Y108.198 F7800.000
G1 X108.558 Y108.119 F540.000 E1.23694
G1 X108.558 Y108.119 F7800.000
G1 X108.734 Y107.682 F540.000 E1.26671
G1 X108.734 Y107.682 F7800.000
G1 X108.781 Y107.527 F540.000 E1.27690
G1 X108.781 Y107.527 F7800.000
G1 X109.666 Y106.583 F540.000 E1.35862
G1 X111.756 Y106.027 E1.49518
G1 X113.529 Y106.551 E1.61192
G1 X114.682 Y107.962 E1.72695
G1 X114.801 Y109.661 E1.83453
G1 X114.406 Y110.547 E1.89575
G1 X113.790 Y111.192 E1.95209
G1 X112.841 Y111.611 E2.01758
G1 X111.890 Y111.706 E2.07793
G1 X110.348 Y110.931 E2.18693
G1 F1800.000 E1.18693
G92 E0
G1 X108.484 Y110.571 F7800.000
G1 X108.310 Y116.049
G1 X102.626 Y120.744
G1 X99.324 Y109.985
G1 X93.969 Y104.748
G1 X98.303 Y104.849
G1 X97.361 Y105.135
