; generated by Slic3r 0.9.9 on 2014-01-18 at 12:21:27

; layer_height = 0.4
; perimeters = 3
; top_solid_layers = 3
; bottom_solid_layers = 3
; fill_density = 0.4
; perimeter_speed = 30
; infill_speed = 60
; travel_speed = 130
; nozzle_diameter = 0.5
; filament_diameter = 3
; extrusion_multiplier = 1
; perimeters extrusion width = 0.53mm
; infill extrusion width = 0.53mm
; solid infill extrusion width = 0.53mm
; top infill extrusion width = 0.53mm
; first layer extrusion width = 0.60mm

G21 ; set units to millimeters
M190 S110 ; wait for bed temperature to be reached
M104 S205 ; set temperature
G28 ; home all axes
M109 S205 ; wait for temperature to be reached
G90 ; use absolute coordinates
G92 E0
M82 ; use absolute distances for extrusion
M106 S89
G1 F1800.000 E-4.00000
G92 E0
G1 Z0.300 F7800.000
G1 X40.743 Y35.443
G1 F1800.000 E4.00000
G1 X41.133 Y35.023 F540.000 E4.01407
G1 X41.973 Y34.193 E4.04307
G1 X42.233 Y33.963 E4.05159
G1 X42.513 Y33.753 E4.06019
G1 X43.093 Y33.383 E4.07708
G1 X44.813 Y32.403 E4.12569
G1 X45.123 Y32.253 E4.13414
G1 X45.773 Y32.003 E4.15124
G1 X48.003 Y31.423 E4.20782
G1 X48.333 Y31.363 E4.21605
G1 X49.003 Y31.293 E4.23259
G1 X140.883 Y31.283 E6.48862
G1 X142.853 Y31.303 E6.53699
G1 X143.533 Y31.383 E6.55380
G1 X143.873 Y31.443 E6.56228
G1 X145.773 Y31.963 E6.61065
G1 X146.413 Y32.173 E6.62719
G1 X146.723 Y32.303 E6.63544
G1 X147.023 Y32.443 E6.64357
G1 X148.713 Y33.423 E6.69154
G1 X149.013 Y33.603 E6.70013
G1 X149.583 Y34.013 E6.71737
G1 X150.093 Y34.483 E6.73440
G1 X151.473 Y35.883 E6.78267
G1 X151.913 Y36.433 E6.79996
G1 X152.283 Y37.013 E6.81685
G1 X153.243 Y38.723 E6.86500
G1 X153.513 Y39.333 E6.88138
G1 X153.713 Y39.963 E6.89761
G1 X154.213 Y41.853 E6.94562
G1 X154.323 Y42.523 E6.96229
G1 X154.363 Y43.203 E6.97901
G1 X154.793 Y139.413 E9.34138
G1 X154.783 Y151.873 E9.64732
G1 X154.763 Y152.393 E9.66010
G1 X154.653 Y153.183 E9.67968
G1 X154.523 Y153.693 E9.69260
G1 X154.253 Y154.443 E9.71218
G1 X154.033 Y154.923 E9.72514
G1 X153.623 Y155.593 E9.74443
G1 X153.133 Y156.223 E9.76403
G1 X152.573 Y156.783 E9.78347
G1 X151.943 Y157.273 E9.80307
G1 X151.503 Y157.553 E9.81587
G1 X151.033 Y157.803 E9.82895
G1 X150.543 Y158.013 E9.84204
G1 X150.303 Y158.103 E9.84833
G1 X149.793 Y158.243 E9.86132
G1 X149.273 Y158.353 E9.87437
G1 X148.753 Y158.423 E9.88725
G1 X148.223 Y158.443 E9.90027
G1 X54.093 Y158.703 E12.21155
G1 X41.783 Y158.703 E12.51381
G1 X41.253 Y158.683 E12.52683
G1 X40.463 Y158.573 E12.54642
G1 X39.953 Y158.443 E12.55934
G1 X39.203 Y158.173 E12.57891
G1 X38.723 Y157.953 E12.59188
G1 X38.043 Y157.533 E12.61150
G1 X37.623 Y157.223 E12.62432
G1 X37.043 Y156.683 E12.64378
G1 X36.683 Y156.283 E12.65699
G1 X36.523 Y156.073 E12.66347
G1 X36.223 Y155.643 E12.67635
G1 X35.953 Y155.183 E12.68944
G1 X35.733 Y154.703 E12.70241
G1 X35.543 Y154.203 E12.71554
G1 X35.333 Y153.443 E12.73490
G1 X35.223 Y152.653 E12.75449
G1 X35.203 Y152.123 E12.76751
G1 X35.203 Y146.483 E12.90599
G1 X37.403 Y50.013 E15.27533
G1 X37.503 Y49.053 E15.29903
G1 X39.353 Y38.273 E15.56759
G1 X39.593 Y37.443 E15.58881
G1 X39.813 Y36.913 E15.60290
G1 X40.233 Y36.143 E15.62444
G1 X40.690 Y35.511 E15.64357
G1 F1800.000 E11.64357
G92 E0
G1 X89.954 Y95.856 F7800.000
G1 F1800.000 E4.00000
G1 X88.746 Y96.546 F540.000 E4.03414
G1 X87.402 Y96.899 E4.06828
G1 X86.011 Y96.893 E4.10241
G1 X84.670 Y96.526 E4.13655
G1 X83.603 Y95.903 E4.16690
G1 X84.037 Y95.419 E4.18286
G1 X84.258 Y95.589 E4.18972
G1 X85.365 Y96.048 E4.21914
G1 X86.553 Y96.204 E4.24855
G1 X87.740 Y96.048 E4.27796
G1 X88.847 Y95.589 E4.30738
G1 X89.797 Y94.860 E4.33679
G1 X90.527 Y93.910 E4.36620
G1 X90.985 Y92.803 E4.39562
G1 X91.141 Y91.616 E4.42503
G1 X90.985 Y90.428 E4.45444
G1 X90.527 Y89.321 E4.48386
G1 X89.797 Y88.371 E4.51327
G1 X88.847 Y87.642 E4.54268
G1 X87.740 Y87.183 E4.57210
G1 X86.553 Y87.027 E4.60151
G1 X85.365 Y87.183 E4.63092
G1 X84.258 Y87.642 E4.66034
G1 X84.037 Y87.812 E4.66720
G1 X83.599 Y87.324 E4.68329
G1 X84.716 Y86.686 E4.71489
G1 X86.061 Y86.332 E4.74903
G1 X87.451 Y86.339 E4.78316
G1 X88.793 Y86.705 E4.81730
G1 X89.993 Y87.406 E4.85144
G1 X90.972 Y88.393 E4.88558
G1 X91.661 Y89.601 E4.91972
G1 X92.015 Y90.945 E4.95385
G1 X92.012 Y93.817 E5.02438
G1 X90.015 Y95.795 E5.09337
G1 X90.307 Y96.321 F7800.000
G1 X88.967 Y97.086 F378.000 E5.13125
G1 X87.475 Y97.478 E5.16913
G1 X85.933 Y97.471 E5.20701
G1 X84.444 Y97.064 E5.24489
G1 X83.112 Y96.287 E5.28277
G1 X82.781 Y95.953 E5.29430
G1 X83.963 Y94.634 E5.33779
G1 X84.550 Y95.084 E5.35595
G1 X85.516 Y95.484 E5.38162
G1 X86.553 Y95.621 E5.40729
G1 X87.589 Y95.484 E5.43297
G1 X88.555 Y95.084 E5.45864
G1 X89.385 Y94.448 E5.48431
G1 X90.021 Y93.618 E5.50999
G1 X90.421 Y92.652 E5.53566
G1 X90.558 Y91.616 E5.56133
G1 X90.421 Y90.579 E5.58700
G1 X90.021 Y89.613 E5.61268
G1 X89.385 Y88.783 E5.63835
G1 X88.555 Y88.147 E5.66402
G1 X87.589 Y87.747 E5.68970
G1 X86.553 Y87.610 E5.71537
G1 X85.516 Y87.747 E5.74104
G1 X84.550 Y88.147 E5.76671
G1 X83.963 Y88.597 E5.78487
G1 X82.783 Y87.280 E5.82830
G1 X83.156 Y86.910 E5.84119
G1 X84.496 Y86.145 E5.87907
G1 X85.988 Y85.753 E5.91695
G1 X87.530 Y85.760 E5.95483
G1 X89.019 Y86.167 E5.99270
G1 X90.351 Y86.944 E6.03058
G1 X91.437 Y88.040 E6.06846
G1 X92.202 Y89.380 E6.10634
G1 X92.594 Y90.872 E6.14422
G1 X92.589 Y102.971 E6.44131
G1 X80.873 Y102.971 E6.72900
G1 X80.873 Y98.053 E6.84978
G1 X81.794 Y98.052 E6.87241
G1 X81.797 Y102.050 E6.97057
G1 X91.667 Y102.050 E7.21292
G1 X91.667 Y94.973 E7.38669
G1 X90.368 Y96.260 E7.43158
G1 X89.784 Y96.074 F7800.000
G1 X91.223 Y93.770
G1 X91.222 Y93.770 F360.000 E7.43159
G1 X91.455 Y92.373 F7800.000
G1 X91.603 Y92.034 F360.000 E7.43700
G1 X91.511 Y91.942 E7.43889
G1 X91.603 Y91.547 E7.44483
G1 X91.536 Y91.480 E7.44621
G1 X91.605 Y91.062 E7.45241
G1 X91.462 Y90.919 E7.45536
G1 X91.455 Y90.424 E7.46260
G1 X91.389 Y90.358 E7.46397
G1 X91.281 Y89.763 E7.47281
G1 X91.062 Y89.544 E7.47735
G1 X90.106 Y88.101 E7.50266
G1 X90.242 Y89.525 F7800.000
G1 X90.662 Y92.717
G1 X88.680 Y95.300
G1 X90.110 Y95.125
G1 X90.416 Y94.822 F360.000 E7.51052
G1 X90.374 Y94.781 E7.51160
G1 X90.722 Y94.519 E7.51954
G1 X89.299 Y95.759 F7800.000
G1 X89.552 Y95.564 F360.000 E7.52384
G1 X89.584 Y95.596 E7.52445
G1 X89.806 Y95.369 E7.52872
G1 X89.835 Y95.398 E7.52927
G1 X90.060 Y95.175 E7.53354
G1 X88.428 Y96.206 F7800.000
G1 X88.747 Y96.074 F360.000 E7.53820
G1 X88.680 Y95.300 F7800.000
G1 X90.662 Y92.717
G1 X90.242 Y89.525
G1 X88.643 Y87.926
G1 X89.308 Y87.480
G1 X89.308 Y87.479 F360.000 E7.53821
G1 X88.459 Y87.038 F7800.000
G1 X88.459 Y87.038 F360.000 E7.53822
G1 X88.896 Y86.370 F7800.000
G1 X90.242 Y89.525
G1 X91.878 Y94.826
G1 X91.878 Y102.261
G1 X81.587 Y102.261
G1 X81.606 Y102.459
G1 X81.709 Y102.562 F360.000 E7.54009
G1 X82.034 Y102.459 E7.54445
G1 X82.137 Y102.562 E7.54633
G1 X82.461 Y102.459 E7.55069
G1 X82.564 Y102.562 E7.55256
G1 X82.889 Y102.459 E7.55693
G1 X82.992 Y102.562 E7.55880
G1 X83.316 Y102.459 E7.56316
G1 X83.419 Y102.562 E7.56503
G1 X83.743 Y102.459 E7.56940
G1 X83.847 Y102.562 E7.57127
G1 X84.171 Y102.459 E7.57564
G1 X84.274 Y102.562 E7.57751
G1 X84.598 Y102.459 E7.58187
G1 X84.701 Y102.562 E7.58374
G1 X85.026 Y102.459 E7.58811
G1 X85.129 Y102.562 E7.58998
G1 X85.453 Y102.459 E7.59435
G1 X85.556 Y102.562 E7.59622
G1 X85.881 Y102.459 E7.60058
G1 X85.984 Y102.562 E7.60245
G1 X86.308 Y102.459 E7.60682
G1 X86.411 Y102.562 E7.60869
G1 X86.736 Y102.459 E7.61306
G1 X86.839 Y102.562 E7.61493
G1 X87.163 Y102.459 E7.61929
G1 X87.266 Y102.562 E7.62116
G1 X87.591 Y102.459 E7.62553
G1 X87.694 Y102.562 E7.62740
G1 X88.018 Y102.459 E7.63177
G1 X88.121 Y102.562 E7.63364
G1 X88.445 Y102.459 E7.63800
G1 X88.549 Y102.562 E7.63987
G1 X88.873 Y102.459 E7.64424
G1 X88.976 Y102.562 E7.64611
G1 X89.300 Y102.459 E7.65048
G1 X89.403 Y102.562 E7.65235
G1 X89.728 Y102.459 E7.65671
G1 X89.831 Y102.562 E7.65858
G1 X90.155 Y102.459 E7.66295
G1 X90.258 Y102.562 E7.66482
G1 X90.583 Y102.459 E7.66919
G1 X90.686 Y102.562 E7.67106
G1 X91.010 Y102.459 E7.67542
G1 X91.113 Y102.562 E7.67729
G1 X91.438 Y102.459 E7.68166
G1 X91.541 Y102.562 E7.68353
G1 X91.865 Y102.459 E7.68790
G1 X91.968 Y102.562 E7.68977
G1 X92.180 Y102.347 E7.69364
G1 X92.076 Y102.243 E7.69552
G1 X92.180 Y101.919 E7.69988
G1 X92.076 Y101.816 E7.70176
G1 X92.180 Y101.492 E7.70613
G1 X92.076 Y101.388 E7.70801
G1 X92.180 Y101.064 E7.71237
G1 X92.076 Y100.961 E7.71425
G1 X92.180 Y100.637 E7.71861
G1 X92.076 Y100.533 E7.72049
G1 X92.180 Y100.210 E7.72485
G1 X92.076 Y100.106 E7.72674
G1 X92.180 Y99.782 E7.73110
G1 X92.076 Y99.678 E7.73298
G1 X92.180 Y99.355 E7.73734
G1 X92.076 Y99.251 E7.73922
G1 X92.180 Y98.927 E7.74358
G1 X92.076 Y98.823 E7.74547
G1 X92.180 Y98.500 E7.74983
G1 X92.076 Y98.396 E7.75171
G1 X92.180 Y98.073 E7.75607
G1 X92.076 Y97.969 E7.75796
G1 X92.181 Y97.645 E7.76232
G1 X92.076 Y97.541 E7.76421
G1 X92.181 Y97.218 E7.76856
G1 X92.076 Y97.114 E7.77045
G1 X92.181 Y96.790 E7.77481
G1 X92.076 Y96.686 E7.77670
G1 X92.181 Y96.363 E7.78106
G1 X92.076 Y96.259 E7.78295
G1 X92.181 Y95.936 E7.78730
G1 X92.076 Y95.831 E7.78920
G1 X92.181 Y95.508 E7.79355
G1 X92.076 Y95.404 E7.79544
G1 X92.181 Y95.081 E7.79980
G1 X92.076 Y94.976 E7.80169
G1 X92.181 Y94.653 E7.80605
G1 X92.076 Y94.549 E7.80794
G1 X92.181 Y94.226 E7.81230
G1 X91.878 Y94.826 F7800.000
G1 X91.878 Y102.261
G1 X81.083 Y102.761
G1 X81.282 Y102.562
G1 X81.388 Y102.241 F360.000 E7.81664
G1 X81.282 Y102.135 E7.81857
G1 X81.388 Y101.813 E7.82291
G1 X81.282 Y101.707 E7.82484
G1 X81.387 Y101.386 E7.82918
G1 X81.282 Y101.280 E7.83110
G1 X81.387 Y100.958 E7.83545
G1 X81.282 Y100.852 E7.83736
G1 X81.387 Y100.530 E7.84171
G1 X81.282 Y100.425 E7.84362
G1 X81.387 Y100.102 E7.84797
G1 X81.282 Y99.997 E7.84987
G1 X81.386 Y99.674 E7.85422
G1 X81.282 Y99.570 E7.85612
G1 X81.386 Y99.247 E7.86048
G1 X81.282 Y99.142 E7.86237
G1 X81.386 Y98.819 E7.86673
G1 X81.282 Y98.715 E7.86861
G1 F1800.000 E3.86861
G92 E0
G1 X77.583 Y97.552 F7800.000
G1 X77.583 Y104.503
G1 X79.341 Y106.261
G1 X94.121 Y106.261
G1 X95.883 Y104.503
G1 X95.883 Y97.552
G1 X104.311 Y96.893
G1 F1800.000 E4.00000
G1 X102.970 Y96.526 F540.000 E4.03414
G1 X101.903 Y95.903 E4.06449
G1 X102.337 Y95.419 E4.08045
G1 X102.558 Y95.589 E4.08731
G1 X103.665 Y96.048 E4.11672
G1 X104.853 Y96.204 E4.14614
G1 X106.040 Y96.048 E4.17555
G1 X107.147 Y95.589 E4.20496
G1 X108.097 Y94.860 E4.23438
G1 X108.827 Y93.910 E4.26379
G1 X109.285 Y92.803 E4.29320
G1 X109.441 Y91.616 E4.32261
G1 X109.285 Y90.428 E4.35203
G1 X108.827 Y89.321 E4.38144
G1 X108.097 Y88.371 E4.41086
G1 X107.147 Y87.642 E4.44027
G1 X106.040 Y87.183 E4.46968
G1 X104.853 Y87.027 E4.49909
G1 X103.665 Y87.183 E4.52851
G1 X102.558 Y87.642 E4.55792
G1 X102.337 Y87.812 E4.56479
G1 X101.899 Y87.324 E4.58088
G1 X103.017 Y86.686 E4.61247
G1 X104.361 Y86.332 E4.64661
G1 X105.751 Y86.339 E4.68075
G1 X107.093 Y86.705 E4.71489
G1 X108.293 Y87.406 E4.74903
G1 X109.272 Y88.393 E4.78316
G1 X109.961 Y89.601 E4.81730
G1 X110.315 Y90.945 E4.85144
G1 X110.312 Y93.817 E4.92197
G1 X108.254 Y95.856 E4.99309
G1 X107.046 Y96.546 E5.02723
G1 X105.702 Y96.899 E5.06137
G1 X104.398 Y96.893 E5.09337
G1 X104.233 Y97.471 F7800.000
G1 X102.744 Y97.064 F378.000 E5.13125
G1 X101.412 Y96.287 E5.16913
G1 X101.081 Y95.953 E5.18067
G1 X102.263 Y94.634 E5.22416
G1 X102.850 Y95.084 E5.24231
G1 X103.816 Y95.484 E5.26799
G1 X104.853 Y95.621 E5.29366
G1 X105.889 Y95.484 E5.31933
G1 X106.855 Y95.084 E5.34500
G1 X107.685 Y94.448 E5.37068
G1 X108.321 Y93.618 E5.39635
G1 X108.694 Y92.717 E5.42029
G1 X108.721 Y92.652 E5.42202
G1 X108.858 Y91.616 E5.44770
G1 X108.721 Y90.579 E5.47337
G1 X108.321 Y89.613 E5.49904
G1 X107.685 Y88.783 E5.52471
G1 X106.855 Y88.147 E5.55039
G1 X105.889 Y87.747 E5.57606
G1 X104.853 Y87.610 E5.60173
G1 X103.816 Y87.747 E5.62741
G1 X102.850 Y88.147 E5.65308
G1 X102.263 Y88.597 E5.67123
G1 X101.083 Y87.280 E5.71466
G1 X101.456 Y86.910 E5.72755
G1 X102.796 Y86.145 E5.76543
G1 X104.288 Y85.753 E5.80331
G1 X105.830 Y85.760 E5.84119
G1 X107.319 Y86.167 E5.87907
G1 X108.651 Y86.944 E5.91695
G1 X109.737 Y88.040 E5.95483
G1 X110.502 Y89.380 E5.99270
G1 X110.894 Y90.872 E6.03058
G1 X110.889 Y102.971 E6.32768
G1 X99.173 Y102.971 E6.61537
G1 X99.173 Y98.053 E6.73614
G1 X100.094 Y98.052 E6.75877
G1 X100.097 Y102.050 E6.85693
G1 X109.967 Y102.050 E7.09928
G1 X109.967 Y94.973 E7.27305
G1 X108.607 Y96.321 E7.32008
G1 X107.267 Y97.086 E7.35795
G1 X105.775 Y97.478 E7.39583
G1 X104.319 Y97.471 E7.43158
G1 X104.037 Y96.926 F7800.000
G1 X109.523 Y93.770
G1 X109.523 Y93.770 F360.000 E7.43159
G1 X109.755 Y92.373 F7800.000
G1 X109.903 Y92.034 F360.000 E7.43700
G1 X109.811 Y91.942 E7.43889
G1 X109.903 Y91.547 E7.44483
G1 X109.836 Y91.480 E7.44621
G1 X109.905 Y91.062 E7.45241
G1 X109.762 Y90.919 E7.45536
G1 X109.755 Y90.424 E7.46260
G1 X109.689 Y90.358 E7.46397
G1 X109.581 Y89.763 E7.47281
G1 X109.362 Y89.544 E7.47735
G1 X108.406 Y88.101 E7.50266
G1 X108.542 Y89.525 F7800.000
G1 X108.962 Y92.717
G1 X106.980 Y95.300
G1 X108.410 Y95.125
G1 X108.716 Y94.822 F360.000 E7.51052
G1 X108.674 Y94.781 E7.51160
G1 X109.022 Y94.519 E7.51954
G1 X107.599 Y95.759 F7800.000
G1 X107.852 Y95.564 F360.000 E7.52384
G1 X107.884 Y95.596 E7.52445
G1 X108.106 Y95.369 E7.52872
G1 X108.135 Y95.398 E7.52927
G1 X108.360 Y95.175 E7.53354
G1 X106.728 Y96.206 F7800.000
G1 X107.047 Y96.074 F360.000 E7.53820
G1 X106.980 Y95.300 F7800.000
G1 X108.962 Y92.717
G1 X108.542 Y89.525
G1 X106.943 Y87.926
G1 X107.608 Y87.480
G1 X107.608 Y87.479 F360.000 E7.53821
G1 X106.759 Y87.038 F7800.000
G1 X106.759 Y87.038 F360.000 E7.53822
G1 X107.196 Y86.370 F7800.000
G1 X108.542 Y89.525
G1 X110.178 Y94.826
G1 X110.178 Y102.261
G1 X99.887 Y102.261
G1 X99.906 Y102.459
G1 X100.009 Y102.562 F360.000 E7.54009
G1 X100.334 Y102.459 E7.54445
G1 X100.437 Y102.562 E7.54633
G1 X100.761 Y102.459 E7.55069
G1 X100.864 Y102.562 E7.55256
G1 X101.189 Y102.459 E7.55693
G1 X101.292 Y102.562 E7.55880
G1 X101.616 Y102.459 E7.56316
G1 X101.719 Y102.562 E7.56503
G1 X102.044 Y102.459 E7.56940
G1 X102.147 Y102.562 E7.57127
G1 X102.471 Y102.459 E7.57564
G1 X102.574 Y102.562 E7.57751
G1 X102.898 Y102.459 E7.58187
G1 X103.002 Y102.562 E7.58374
G1 X103.326 Y102.459 E7.58811
G1 X103.429 Y102.562 E7.58998
G1 X103.753 Y102.459 E7.59435
G1 X103.856 Y102.562 E7.59622
G1 X104.181 Y102.459 E7.60058
G1 X104.284 Y102.562 E7.60245
G1 X104.608 Y102.459 E7.60682
G1 X104.711 Y102.562 E7.60869
G1 X105.036 Y102.459 E7.61306
G1 X105.139 Y102.562 E7.61493
G1 X105.463 Y102.459 E7.61929
G1 X105.566 Y102.562 E7.62116
G1 X105.891 Y102.459 E7.62553
G1 X105.994 Y102.562 E7.62740
G1 X106.318 Y102.459 E7.63177
G1 X106.421 Y102.562 E7.63364
G1 X106.745 Y102.459 E7.63800
G1 X106.849 Y102.562 E7.63987
G1 X107.173 Y102.459 E7.64424
G1 X107.276 Y102.562 E7.64611
G1 X107.600 Y102.459 E7.65048
G1 X107.703 Y102.562 E7.65235
G1 X108.028 Y102.459 E7.65671
G1 X108.131 Y102.562 E7.65858
G1 X108.455 Y102.459 E7.66295
G1 X108.558 Y102.562 E7.66482
G1 X108.883 Y102.459 E7.66919
G1 X108.986 Y102.562 E7.67106
G1 X109.310 Y102.459 E7.67542
G1 X109.413 Y102.562 E7.67729
G1 X109.738 Y102.459 E7.68166
G1 X109.841 Y102.562 E7.68353
G1 X110.165 Y102.459 E7.68790
G1 X110.268 Y102.562 E7.68977
G1 X110.480 Y102.347 E7.69364
G1 X110.376 Y102.243 E7.69552
G1 X110.480 Y101.919 E7.69988
G1 X110.376 Y101.816 E7.70176
G1 X110.480 Y101.492 E7.70613
G1 X110.376 Y101.388 E7.70801
G1 X110.480 Y101.064 E7.71237
G1 X110.376 Y100.961 E7.71425
G1 X110.480 Y100.637 E7.71861
G1 X110.376 Y100.533 E7.72049
G1 X110.480 Y100.210 E7.72485
G1 X110.376 Y100.106 E7.72674
G1 X110.480 Y99.782 E7.73110
G1 X110.376 Y99.678 E7.73298
G1 X110.480 Y99.355 E7.73734
G1 X110.376 Y99.251 E7.73922
G1 X110.480 Y98.927 E7.74358
G1 X110.376 Y98.823 E7.74547
G1 X110.480 Y98.500 E7.74983
G1 X110.376 Y98.396 E7.75171
G1 X110.480 Y98.073 E7.75607
G1 X110.376 Y97.969 E7.75796
G1 X110.481 Y97.645 E7.76232
G1 X110.376 Y97.541 E7.76421
G1 X110.481 Y97.218 E7.76856
G1 X110.376 Y97.114 E7.77045
G1 X110.481 Y96.790 E7.77481
G1 X110.376 Y96.686 E7.77670
G1 X110.481 Y96.363 E7.78106
G1 X110.376 Y96.259 E7.78295
G1 X110.481 Y95.936 E7.78730
G1 X110.376 Y95.831 E7.78920
