; generated by Slic3r 1.0.0RC3 on 2014-02-17 at 21:15:36

; layer_height = 0.4
; perimeters = 3
; top_solid_layers = 6
; bottom_solid_layers = 6
; fill_density = 0.4
; perimeter_speed = 30
; infill_speed = 60
; travel_speed = 130
; nozzle_diameter = 0.5
; filament_diameter = 2.94
; extrusion_multiplier = 1
; perimeters extrusion width = 0.50mm
; infill extrusion width = 0.53mm
; solid infill extrusion width = 0.53mm
; top infill extrusion width = 0.53mm
; first layer extrusion width = 0.40mm

G21 ; set units to millimeters
M190 S110 ; wait for bed temperature to be reached
M104 S220 ; set temperature
G28 ; home all axes
M109 S220 ; wait for temperature to be reached
G90 ; use absolute coordinates
G92 E0
M82 ; use absolute distances for extrusion
M106 S89
G1 F1800.000 E-1.25000
G92 E0
G1 Z0.200 F7800.000
G1 X68.390 Y72.160 F7800.000
G1 E1.25000 F1800.000
G1 X69.590 Y71.110 E1.26980 F540.000
G1 X70.970 Y70.300 E1.28967
G1 X72.470 Y69.780 E1.30938
G1 X96.470 Y63.830 E1.61640
G1 X97.480 Y63.640 E1.62916
G1 X98.500 Y63.580 E1.64185
G1 X107.400 Y63.580 E1.75235
G1 X108.840 Y63.700 E1.77030
G1 X110.230 Y64.070 E1.78816
G1 X111.540 Y64.670 E1.80605
G1 X112.740 Y65.480 E1.82402
G1 X113.770 Y66.490 E1.84193
G1 X114.620 Y67.660 E1.85989
G1 X115.250 Y68.950 E1.87772
G1 X120.450 Y82.350 E2.05619
G1 X120.660 Y82.960 E2.06420
G1 X122.820 Y90.090 E2.15670
G1 X123.020 Y90.880 E2.16682
G1 X123.140 Y91.690 E2.17699
G1 X123.880 Y99.100 E2.26945
G1 X123.920 Y99.940 E2.27989
G1 X123.880 Y100.780 E2.29033
G1 X123.140 Y108.200 E2.38292
G1 X123.020 Y109.010 E2.39309
G1 X122.820 Y109.800 E2.40321
G1 X120.660 Y116.930 E2.49571
G1 X120.380 Y117.710 E2.50600
G1 X120.030 Y118.460 E2.51628
G1 X116.580 Y124.920 E2.60721
G1 X115.750 Y126.180 E2.62595
G1 X114.700 Y127.280 E2.64483
G1 X113.480 Y128.170 E2.66358
G1 X112.120 Y128.830 E2.68235
G1 X110.660 Y129.240 E2.70118
G1 X109.150 Y129.370 E2.72000
G1 X74.500 Y129.370 E3.15023
G1 X73.040 Y129.240 E3.16843
G1 X71.620 Y128.860 E3.18668
G1 X70.290 Y128.240 E3.20490
G1 X69.090 Y127.400 E3.22309
G1 X68.050 Y126.360 E3.24135
G1 X67.210 Y125.160 E3.25954
G1 X66.590 Y123.830 E3.27776
G1 X66.210 Y122.410 E3.29601
G1 X66.080 Y120.950 E3.31421
G1 X66.080 Y77.950 E3.84813
G1 X66.230 Y76.360 E3.86796
G1 X66.680 Y74.830 E3.88776
G1 X67.410 Y73.410 E3.90758
G1 X68.351 Y72.210 E3.92652
G1 F1800.000 E2.67652
G92 E0
G1 X68.389 Y75.419 F7800.000
G1 E1.25000 F1800.000
G1 X71.969 Y71.839 E1.31286 F540.000
G1 X92.142 Y71.839 E1.56334
G1 X92.389 Y71.592 E1.56768
G1 X92.389 Y69.475 E1.59397
G1 X95.969 Y65.895 E1.65683
G1 X109.931 Y65.895 E1.83020
G1 X113.511 Y69.475 E1.89306
G1 X113.511 Y74.308 E1.95307
G1 X113.621 Y74.501 E1.95583
G1 X113.748 Y74.578 E1.95767
G1 X118.138 Y82.792 E2.07332
G1 X118.368 Y83.347 E2.08078
G1 X120.705 Y91.050 E2.18073
G1 X120.822 Y91.639 E2.18818
G1 X121.611 Y99.650 E2.28813
G1 X121.611 Y100.250 E2.29559
G1 X120.822 Y108.261 E2.39554
G1 X120.705 Y108.850 E2.40300
G1 X118.368 Y116.553 E2.50295
G1 X118.138 Y117.108 E2.51040
G1 X113.748 Y125.322 E2.62605
G1 X110.847 Y127.061 E2.66805
G1 X95.969 Y127.061 E2.85278
G1 X92.389 Y123.481 E2.91564
G1 X92.389 Y114.354 E3.02898
G1 X94.128 Y111.453 E3.07097
G1 X95.660 Y110.629 E3.09258
G1 X97.577 Y109.056 E3.12336
G1 X99.179 Y107.110 E3.15466
G1 X100.371 Y104.889 E3.18595
G1 X101.114 Y102.438 E3.21776
G1 X101.357 Y99.929 E3.24905
G1 X101.114 Y97.462 E3.27984
G1 X100.386 Y95.049 E3.31113
G1 X99.179 Y92.790 E3.34294
G1 X97.606 Y90.873 E3.37373
G1 X96.931 Y90.314 E3.38461
G1 X96.606 Y90.330 E3.38864
G1 X93.975 Y92.961 E3.43485
G1 X90.858 Y92.961 E3.47355
G1 X90.611 Y93.208 E3.47789
G1 X90.611 Y123.481 E3.85378
G1 X87.031 Y127.061 E3.91664
G1 X71.969 Y127.061 E4.10366
G1 X68.389 Y123.481 E4.16653
G1 X68.389 Y75.482 E4.76251
G1 X68.810 Y75.593 F7800.000
G1 X72.143 Y72.260 E4.82104 F540.000
G1 X92.563 Y72.260 E5.07459
G1 X92.810 Y72.013 E5.07892
G1 X92.810 Y69.649 E5.10828
G1 X96.143 Y66.316 E5.16680
G1 X109.757 Y66.316 E5.33584
G1 X113.090 Y69.649 E5.39436
G1 X113.090 Y74.547 E5.45518
G1 X113.199 Y74.740 E5.45793
G1 X113.431 Y74.879 E5.46129
G1 X117.757 Y82.972 E5.57524
G1 X117.971 Y83.489 E5.58218
G1 X120.296 Y91.152 E5.68161
G1 X120.405 Y91.701 E5.68855
G1 X121.190 Y99.670 E5.78799
G1 X121.190 Y100.230 E5.79493
G1 X120.405 Y108.199 E5.89437
G1 X120.296 Y108.748 E5.90131
G1 X117.971 Y116.411 E6.00075
G1 X117.757 Y116.928 E6.00769
G1 X113.431 Y125.021 E6.12163
G1 X110.730 Y126.640 E6.16073
G1 X96.143 Y126.640 E6.34185
G1 X92.810 Y123.307 E6.40038
G1 X92.810 Y114.470 E6.51009
G1 X94.429 Y111.769 E6.54919
G1 X95.895 Y110.981 E6.56986
G1 X97.876 Y109.355 E6.60168
G1 X99.531 Y107.346 E6.63401
G1 X100.778 Y105.013 E6.66684
G1 X101.530 Y102.521 E6.69917
G1 X101.781 Y99.929 E6.73150
G1 X101.530 Y97.379 E6.76331
G1 X100.778 Y94.887 E6.79564
G1 X99.531 Y92.554 E6.82847
G1 X97.905 Y90.574 E6.86029
G1 X96.903 Y89.746 E6.87643
G1 X96.579 Y89.762 E6.88047
G1 X93.801 Y92.540 E6.92924
G1 X90.437 Y92.540 E6.97101
G1 X90.190 Y92.787 E6.97535
G1 X90.190 Y123.307 E7.35431
G1 X86.857 Y126.640 E7.41283
G1 X72.143 Y126.640 E7.59552
G1 X68.810 Y123.307 E7.65405
G1 X68.810 Y75.656 E8.24570
G1 X69.232 Y75.768 F7800.000
G1 X72.318 Y72.682 E8.29989 F540.000
G1 X92.985 Y72.682 E8.55651
G1 X93.232 Y72.435 E8.56084
G1 X93.232 Y69.824 E8.59326
G1 X96.318 Y66.738 E8.64745
G1 X109.582 Y66.738 E8.81215
G1 X112.668 Y69.824 E8.86634
G1 X112.668 Y74.786 E8.92795
G1 X112.778 Y74.979 E8.93071
G1 X113.114 Y75.181 E8.93558
G1 X117.376 Y83.153 E9.04782
G1 X117.574 Y83.631 E9.05425
G1 X119.886 Y91.255 E9.15317
G1 X119.987 Y91.763 E9.15960
G1 X120.768 Y99.691 E9.25852
G1 X120.768 Y100.209 E9.26495
G1 X119.987 Y108.137 E9.36387
G1 X119.886 Y108.645 E9.37030
G1 X117.574 Y116.269 E9.46922
G1 X117.376 Y116.747 E9.47565
G1 X113.114 Y124.719 E9.58788
G1 X110.613 Y126.218 E9.62409
G1 X96.318 Y126.218 E9.80159
G1 X93.232 Y123.132 E9.85578
G1 X93.232 Y114.587 E9.96188
G1 X94.731 Y112.086 E9.99809
G1 X96.131 Y111.333 E10.01782
G1 X98.176 Y109.655 E10.05067
G1 X99.883 Y107.581 E10.08403
G1 X101.169 Y105.175 E10.11790
G1 X101.945 Y102.603 E10.15125
G1 X102.204 Y99.929 E10.18461
G1 X101.937 Y97.256 E10.21797
G1 X101.169 Y94.725 E10.25081
G1 X99.883 Y92.319 E10.28468
G1 X98.205 Y90.274 E10.31753
G1 X96.875 Y89.178 E10.33893
G1 X96.551 Y89.194 E10.34296
G1 X93.626 Y92.118 E10.39432
G1 X90.015 Y92.118 E10.43915
G1 X89.768 Y92.365 E10.44349
G1 X89.768 Y123.132 E10.82551
G1 X86.682 Y126.218 E10.87970
G1 X72.318 Y126.218 E11.05806
G1 X69.232 Y123.132 E11.11225
G1 X69.232 Y75.831 E11.69956
G1 X69.653 Y75.942 F7800.000
G1 X72.492 Y73.103 E11.74942 F540.000
G1 X93.406 Y73.103 E12.00910
G1 X93.653 Y72.856 E12.01343
G1 X93.653 Y69.998 E12.04892
G1 X96.492 Y67.159 E12.09878
G1 X109.408 Y67.159 E12.25914
G1 X112.247 Y69.998 E12.30899
G1 X112.247 Y75.024 E12.37140
G1 X112.356 Y75.218 E12.37416
G1 X112.798 Y75.482 E12.38055
G1 X116.994 Y83.333 E12.49108
G1 X117.176 Y83.773 E12.49699
G1 X119.477 Y91.357 E12.59540
G1 X119.570 Y91.825 E12.60131
G1 X120.347 Y99.712 E12.69972
G1 X120.347 Y100.188 E12.70564
G1 X119.570 Y108.075 E12.80404
G1 X119.477 Y108.542 E12.80996
G1 X117.176 Y116.127 E12.90836
G1 X116.994 Y116.567 E12.91428
G1 X112.798 Y124.418 E13.02481
G1 X110.497 Y125.797 E13.05812
G1 X96.492 Y125.797 E13.23201
G1 X93.653 Y122.958 E13.28186
G1 X93.653 Y114.704 E13.38435
G1 X95.032 Y112.403 E13.41765
G1 X96.366 Y111.685 E13.43646
G1 X98.475 Y109.954 E13.47034
G1 X100.258 Y107.782 E13.50524
G1 X101.560 Y105.337 E13.53962
G1 X102.352 Y102.726 E13.57350
G1 X102.628 Y99.971 E13.60789
G1 X102.360 Y97.214 E13.64228
G1 X101.544 Y94.524 E13.67718
G1 X100.235 Y92.084 E13.71156
G1 X98.504 Y89.975 E13.74544
G1 X96.847 Y88.610 E13.77210
G1 X96.523 Y88.626 E13.77613
G1 X93.452 Y91.697 E13.83006
G1 X89.594 Y91.697 E13.87796
G1 X89.347 Y91.944 E13.88230
G1 X89.347 Y122.958 E14.26739
G1 X86.508 Y125.797 E14.31724
G1 X72.492 Y125.797 E14.49126
G1 X69.653 Y122.958 E14.54112
G1 X69.653 Y76.006 E15.12410
G1 X70.075 Y76.117 F7800.000
G1 X72.667 Y73.525 E15.16962 F540.000
G1 X93.277 Y73.525 E15.42553
G1 X93.554 Y73.802 E15.43040
G1 X94.075 Y73.586 E15.43739
G1 X94.075 Y70.173 E15.47977
G1 X96.667 Y67.581 E15.52529
G1 X109.233 Y67.581 E15.68132
G1 X111.825 Y70.173 E15.72684
G1 X111.825 Y75.263 E15.79004
G1 X111.935 Y75.457 E15.79280
G1 X112.481 Y75.784 E15.80071
G1 X116.613 Y83.514 E15.90954
G1 X116.779 Y83.915 E15.91494
G1 X119.068 Y91.460 E16.01283
G1 X119.153 Y91.886 E16.01823
G1 X119.925 Y99.733 E16.11612
G1 X119.925 Y100.167 E16.12152
G1 X119.153 Y108.014 E16.21941
G1 X119.068 Y108.440 E16.22481
G1 X116.779 Y115.985 E16.32271
G1 X116.613 Y116.386 E16.32811
G1 X112.481 Y124.116 E16.43693
G1 X110.380 Y125.375 E16.46735
G1 X96.667 Y125.375 E16.63762
G1 X94.075 Y122.783 E16.68314
G1 X94.075 Y114.820 E16.78200
G1 X95.334 Y112.720 E16.81242
G1 X96.601 Y112.037 E16.83029
G1 X98.775 Y110.254 E16.86520
G1 X100.610 Y108.017 E16.90113
G1 X101.951 Y105.499 E16.93655
G1 X102.768 Y102.809 E16.97145
G1 X103.051 Y99.971 E17.00687
G1 X102.768 Y97.091 E17.04280
G1 X101.951 Y94.401 E17.07771
G1 X100.610 Y91.883 E17.11313
G1 X98.775 Y89.646 E17.14906
G1 X96.601 Y87.863 E17.18397
G1 X96.279 Y87.686 E17.18853
G1 X95.869 Y87.931 E17.19446
G1 X95.869 Y88.683 E17.20380
G1 X93.277 Y91.275 E17.24932
G1 X89.172 Y91.275 E17.30029
G1 X88.925 Y91.522 E17.30462
G1 X88.925 Y122.783 E17.69278
G1 X86.333 Y125.375 E17.73830
G1 X72.667 Y125.375 E17.90798
G1 X70.075 Y122.783 E17.95350
G1 X70.075 Y76.180 E18.53215
G1 X70.496 Y76.292 F7800.000
G1 X72.842 Y73.946 E18.57333 F540.000
G1 X93.102 Y73.946 E18.82490
G1 X93.976 Y74.819 E18.84024
G1 X94.496 Y74.604 E18.84723
G1 X94.496 Y70.348 E18.90008
G1 X96.842 Y68.002 E18.94127
G1 X109.058 Y68.002 E19.09296
G1 X111.404 Y70.348 E19.13414
G1 X111.404 Y75.502 E19.19814
G1 X111.513 Y75.695 E19.20090
G1 X112.164 Y76.085 E19.21033
G1 X116.231 Y83.694 E19.31745
G1 X116.382 Y84.058 E19.32233
G1 X118.658 Y91.563 E19.41971
G1 X118.735 Y91.948 E19.42460
G1 X119.504 Y99.753 E19.52198
G1 X119.504 Y100.147 E19.52686
G1 X118.735 Y107.952 E19.62424
G1 X118.658 Y108.337 E19.62913
G1 X116.382 Y115.842 E19.72651
G1 X116.231 Y116.206 E19.73139
G1 X112.164 Y123.815 E19.83851
G1 X110.264 Y124.954 E19.86603
G1 X96.842 Y124.954 E20.03268
G1 X94.496 Y122.608 E20.07387
G1 X94.496 Y114.937 E20.16912
G1 X95.635 Y113.036 E20.19664
G1 X96.837 Y112.390 E20.21358
G1 X99.074 Y110.553 E20.24952
G1 X100.963 Y108.252 E20.28648
G1 X102.343 Y105.661 E20.32293
G1 X103.183 Y102.892 E20.35886
G1 X103.475 Y99.971 E20.39531
G1 X103.183 Y97.008 E20.43227
G1 X102.327 Y94.200 E20.46872
G1 X100.963 Y91.648 E20.50466
G1 X99.074 Y89.347 E20.54162
G1 X96.837 Y87.510 E20.57756
G1 X95.857 Y86.982 E20.59138
G1 X95.448 Y87.228 E20.59731
G1 X95.448 Y88.508 E20.61321
G1 X93.102 Y90.854 E20.65439
G1 X88.751 Y90.854 E20.70842
G1 X88.504 Y91.101 E20.71276
G1 X88.504 Y122.608 E21.10398
G1 X86.158 Y124.954 E21.14516
G1 X72.842 Y124.954 E21.31051
G1 X70.496 Y122.608 E21.35170
G1 X70.496 Y76.355 E21.92601
G1 X70.918 Y76.466 F7800.000
G1 X73.016 Y74.368 E21.96286 F540.000
G1 X92.928 Y74.368 E22.21009
G1 X94.397 Y75.837 E22.23590
G1 X94.918 Y75.621 E22.24289
G1 X94.918 Y70.522 E22.30621
G1 X97.016 Y68.424 E22.34305
G1 X108.884 Y68.424 E22.49041
G1 X110.982 Y70.522 E22.52726
G1 X110.982 Y75.741 E22.59206
G1 X111.092 Y75.934 E22.59482
G1 X111.848 Y76.387 E22.60576
G1 X115.850 Y83.875 E22.71117
G1 X115.984 Y84.200 E22.71554
G1 X118.249 Y91.665 E22.81241
G1 X118.318 Y92.010 E22.81678
G1 X119.082 Y99.774 E22.91364
G1 X119.082 Y100.126 E22.91802
G1 X118.318 Y107.890 E23.01488
G1 X118.249 Y108.235 E23.01925
G1 X115.984 Y115.700 E23.11612
G1 X115.850 Y116.026 E23.12049
G1 X111.848 Y123.513 E23.22590
G1 X110.147 Y124.532 E23.25052
G1 X97.016 Y124.532 E23.41356
G1 X94.918 Y122.434 E23.45041
G1 X94.918 Y115.054 E23.54205
G1 X95.937 Y113.353 E23.56667
G1 X97.072 Y112.742 E23.58268
G1 X99.374 Y110.853 E23.61965
G1 X101.315 Y108.488 E23.65764
G1 X102.734 Y105.824 E23.69512
G1 X103.598 Y102.974 E23.73209
G1 X103.898 Y99.971 E23.76957
G1 X103.598 Y96.926 E23.80756
G1 X102.718 Y94.038 E23.84504
G1 X101.315 Y91.412 E23.88201
G1 X99.374 Y89.047 E23.92000
G1 X97.072 Y87.158 E23.95697
G1 X95.937 Y86.547 E23.97298
G1 X95.645 Y86.059 E23.98004
G1 X95.026 Y86.230 E23.98800
G1 X95.026 Y88.334 E24.01412
G1 X92.928 Y90.432 E24.05097
G1 X88.329 Y90.432 E24.10807
G1 X88.082 Y90.679 E24.11241
G1 X88.082 Y122.434 E24.50669
G1 X85.984 Y124.532 E24.54354
G1 X73.016 Y124.532 E24.70455
G1 X70.918 Y122.434 E24.74140
G1 X70.918 Y76.529 E25.31138
G1 X71.339 Y76.641 F7800.000
G1 X73.191 Y74.789 E25.34390 F540.000
G1 X92.753 Y74.789 E25.58680
G1 X94.819 Y76.854 E25.62306
G1 X95.339 Y76.639 E25.63006
G1 X95.339 Y70.697 E25.70384
G1 X97.191 Y68.845 E25.73635
G1 X102.809 Y68.845 E25.80612
G1 X102.875 Y68.911 E25.80728
G1 X103.225 Y68.911 E25.81161
G1 X103.291 Y68.845 E25.81277
G1 X108.709 Y68.845 E25.88006
G1 X110.561 Y70.697 E25.91257
G1 X110.561 Y75.979 E25.97816
G1 X110.670 Y76.173 E25.98092
G1 X111.531 Y76.688 E25.99338
G1 X115.468 Y84.055 E26.09709
G1 X115.587 Y84.342 E26.10095
G1 X117.840 Y91.768 E26.19730
G1 X117.900 Y92.072 E26.20115
G1 X118.661 Y99.795 E26.29750
G1 X118.661 Y100.105 E26.30136
G1 X117.900 Y107.828 E26.39771
G1 X117.840 Y108.132 E26.40157
G1 X115.587 Y115.558 E26.49792
G1 X115.468 Y115.845 E26.50178
G1 X111.531 Y123.212 E26.60549
G1 X110.030 Y124.111 E26.62721
G1 X97.191 Y124.111 E26.78663
G1 X95.339 Y122.259 E26.81915
G1 X95.339 Y115.170 E26.90717
G1 X96.238 Y113.670 E26.92889
G1 X97.307 Y113.094 E26.94397
G1 X99.673 Y111.152 E26.98197
G1 X101.667 Y108.723 E27.02099
G1 X103.125 Y105.986 E27.05950
G1 X104.014 Y103.057 E27.09750
G1 X104.322 Y99.929 E27.13652
G1 X104.022 Y96.884 E27.17452
G1 X103.125 Y93.914 E27.21303
G1 X101.667 Y91.177 E27.25155
G1 X99.673 Y88.748 E27.29057
G1 X97.307 Y86.806 E27.32857
G1 X96.238 Y86.230 E27.34364
G1 X95.223 Y84.536 E27.36817
G1 X94.605 Y84.707 E27.37613
G1 X94.605 Y88.159 E27.41899
G1 X92.753 Y90.011 E27.45151
G1 X87.908 Y90.011 E27.51167
G1 X87.661 Y90.258 E27.51601
G1 X87.661 Y122.259 E27.91336
G1 X85.809 Y124.111 E27.94587
G1 X73.191 Y124.111 E28.10255
G1 X71.339 Y122.259 E28.13507
G1 X71.339 Y76.704 E28.70071
G1 F1800.000 E27.45071
G92 E0
G1 X95.761 Y70.871 F7800.000
G1 E1.25000 F1800.000
G1 X97.365 Y69.267 E1.27818 F540.000
G1 X102.635 Y69.267 E1.34361
G1 X102.875 Y69.507 E1.34783
G1 X103.225 Y69.507 E1.35217
G1 X103.465 Y69.267 E1.35640
G1 X108.535 Y69.267 E1.41934
G1 X110.139 Y70.871 E1.44752
G1 X110.139 Y76.218 E1.51391
G1 X110.249 Y76.412 E1.51667
G1 X111.214 Y76.990 E1.53064
G1 X115.087 Y84.235 E1.63265
G1 X115.190 Y84.484 E1.63599
G1 X117.430 Y91.870 E1.73183
G1 X117.483 Y92.134 E1.73517
G1 X118.239 Y99.815 E1.83101
G1 X118.239 Y100.085 E1.83435
G1 X117.483 Y107.766 E1.93019
G1 X117.430 Y108.030 E1.93353
G1 X115.190 Y115.416 E2.02936
G1 X115.087 Y115.665 E2.03271
G1 X111.214 Y122.910 E2.13471
G1 X109.914 Y123.689 E2.15354
G1 X97.365 Y123.689 E2.30935
G1 X95.761 Y122.085 E2.33753
G1 X95.761 Y115.287 E2.42193
G1 X96.540 Y113.986 E2.44076
G1 X97.542 Y113.446 E2.45490
G1 X99.972 Y111.452 E2.49393
G1 X102.019 Y108.958 E2.53399
G1 X103.517 Y106.148 E2.57353
G1 X104.429 Y103.140 E2.61256
G1 X104.745 Y99.971 E2.65210
G1 X104.429 Y96.760 E2.69215
G1 X103.501 Y93.714 E2.73170
G1 X102.019 Y90.942 E2.77073
G1 X99.972 Y88.448 E2.81078
G1 X97.543 Y86.454 E2.84981
G1 X96.540 Y85.914 E2.86395
G1 X95.761 Y84.613 E2.88278
G1 X95.761 Y70.934 E3.05262
G1 X96.182 Y71.046 F7800.000
G1 X97.540 Y69.688 E3.07646 F540.000
G1 X102.460 Y69.688 E3.13756
G1 X102.875 Y70.103 E3.14485
G1 X103.225 Y70.103 E3.14918
G1 X103.640 Y69.688 E3.15648
G1 X108.360 Y69.688 E3.21509
G1 X109.718 Y71.046 E3.23893
G1 X109.718 Y76.457 E3.30612
G1 X109.828 Y76.650 E3.30888
G1 X110.897 Y77.292 E3.32436
G1 X114.705 Y84.416 E3.42467
G1 X114.793 Y84.626 E3.42749
G1 X117.021 Y91.973 E3.52282
G1 X117.066 Y92.196 E3.52564
G1 X117.818 Y99.836 E3.62097
G1 X117.818 Y100.064 E3.62380
G1 X117.066 Y107.704 E3.71912
G1 X117.021 Y107.927 E3.72195
G1 X114.793 Y115.274 E3.81727
G1 X114.705 Y115.484 E3.82010
