; generated by Slic3r 1.0.0RC3 on 2014-03-17 at 18:10:33

; layer_height = 0.25
; perimeters = 3
; top_solid_layers = 4
; bottom_solid_layers = 4
; fill_density = 0.4
; perimeter_speed = 30
; infill_speed = 60
; travel_speed = 130
; nozzle_diameter = 0.5
; filament_diameter = 2.94
; extrusion_multiplier = 1
; perimeters extrusion width = 0.50mm
; infill extrusion width = 0.84mm
; solid infill extrusion width = 0.84mm
; top infill extrusion width = 0.84mm

G21 ; set units to millimeters
M107
M190 S110 ; wait for bed temperature to be reached
M104 S220 ; set temperature
G28 ; home all axes
M84 ; disable motors
M109 S220 ; wait for temperature to be reached
G90 ; use absolute coordinates
G92 E0
M82 ; use absolute distances for extrusion
G1 F600.000 E-1.00000
G92 E0
G1 Z0.200 F7800.000
G1 X14.739 Y51.650 F7800.000
G1 E1.00000 F600.000
G1 X15.999 Y51.500 E1.01869 F540.000
G1 X177.000 Y51.500 E3.39029
G1 X178.219 Y51.640 E3.40838
G1 X179.390 Y52.040 E3.42659
G1 X180.429 Y52.700 E3.44474
G1 X181.299 Y53.570 E3.46286
G1 X181.959 Y54.610 E3.48101
G1 X182.359 Y55.780 E3.49922
G1 X182.500 Y57.000 E3.51731
G1 X182.500 Y70.000 E3.70880
G1 X180.489 Y115.240 E4.37587
G1 X180.409 Y115.970 E4.38668
G1 X180.310 Y116.530 E4.39506
G1 X180.080 Y117.420 E4.40860
G1 X179.690 Y118.260 E4.42225
G1 X179.419 Y118.740 E4.43036
G1 X178.799 Y119.630 E4.44634
G1 X178.010 Y120.380 E4.46238
G1 X177.599 Y120.700 E4.47004
G1 X176.589 Y121.320 E4.48750
G1 X175.469 Y121.720 E4.50502
G1 X175.000 Y121.830 E4.51213
G1 X89.039 Y138.400 E5.80167
G1 X88.519 Y138.480 E5.80942
G1 X87.999 Y138.500 E5.81708
G1 X12.999 Y138.500 E6.92187
G1 X11.779 Y138.360 E6.93996
G1 X10.609 Y137.960 E6.95817
G1 X9.569 Y137.300 E6.97631
G1 X8.699 Y136.430 E6.99444
G1 X8.039 Y135.390 E7.01258
G1 X7.639 Y134.220 E7.03080
G1 X7.499 Y133.000 E7.04889
G1 X7.499 Y59.500 E8.13157
G1 X7.629 Y58.310 E8.14921
G1 X8.019 Y57.170 E8.16695
G1 X8.649 Y56.140 E8.18474
G1 X9.479 Y55.270 E8.20245
G1 X12.479 Y52.770 E8.25998
G1 X13.539 Y52.080 E8.27861
G1 X14.669 Y51.675 E8.29628
G1 F600.000 E7.29628
G92 E0
G1 X95.249 Y55.861 F7800.000
G1 E1.00000 F600.000
G1 X96.860 Y54.250 E1.03356 F540.000
G1 X178.140 Y54.250 E2.23084
G1 X179.750 Y55.861 E2.26439
G1 X179.750 Y71.140 E2.48946
G1 X178.140 Y72.751 E2.52302
G1 X178.043 Y72.751 E2.52445
G1 X177.750 Y73.044 E2.53055
G1 X177.750 Y115.116 E3.15029
G1 X177.731 Y115.345 E3.15368
G1 X177.577 Y116.257 E3.16731
G1 X177.417 Y116.708 E3.17436
G1 X176.896 Y117.629 E3.18994
G1 X176.548 Y118.036 E3.19783
G1 X175.695 Y118.709 E3.21384
G1 X175.150 Y118.972 E3.22275
G1 X174.068 Y119.225 E3.23912
G1 X173.432 Y119.225 E3.24848
G1 X172.350 Y118.972 E3.26485
G1 X171.805 Y118.709 E3.27376
G1 X170.953 Y118.036 E3.28976
G1 X170.605 Y117.631 E3.29763
G1 X170.083 Y116.709 E3.31323
G1 X169.922 Y116.256 E3.32031
G1 X169.769 Y115.343 E3.33395
G1 X169.750 Y115.115 E3.33732
G1 X169.750 Y114.544 E3.34574
G1 X169.457 Y114.251 E3.35184
G1 X105.543 Y114.251 E4.29332
G1 X105.250 Y114.544 E4.29943
G1 X105.250 Y115.116 E4.30785
G1 X105.231 Y115.345 E4.31124
G1 X105.077 Y116.257 E4.32487
G1 X104.917 Y116.708 E4.33192
G1 X104.396 Y117.629 E4.34750
G1 X104.048 Y118.036 E4.35539
G1 X103.195 Y118.709 E4.37140
G1 X102.650 Y118.972 E4.38031
G1 X101.568 Y119.225 E4.39669
G1 X100.932 Y119.225 E4.40604
G1 X99.850 Y118.972 E4.42241
G1 X99.305 Y118.709 E4.43132
G1 X98.453 Y118.036 E4.44732
G1 X98.105 Y117.631 E4.45520
G1 X97.583 Y116.710 E4.47079
G1 X97.423 Y116.258 E4.47786
G1 X97.269 Y115.344 E4.49150
G1 X97.249 Y115.115 E4.49489
G1 X97.250 Y73.044 E5.11462
G1 X96.957 Y72.751 E5.12072
G1 X96.860 Y72.751 E5.12214
G1 X95.249 Y71.140 E5.15570
G1 X95.249 Y55.936 E5.37967
G1 X95.749 Y56.068 F7800.000
G1 X97.068 Y54.750 E5.40712 F540.000
G1 X177.932 Y54.750 E6.59830
G1 X179.250 Y56.068 E6.62575
G1 X179.250 Y70.933 E6.84472
G1 X177.932 Y72.251 E6.87218
G1 X177.543 Y72.251 E6.87792
G1 X177.250 Y72.544 E6.88402
G1 X177.250 Y115.095 E7.51082
G1 X177.234 Y115.282 E7.51359
G1 X177.091 Y116.131 E7.52627
G1 X176.960 Y116.500 E7.53204
G1 X176.485 Y117.341 E7.54626
G1 X176.200 Y117.674 E7.55272
G1 X175.428 Y118.283 E7.56720
G1 X174.982 Y118.498 E7.57449
G1 X174.010 Y118.725 E7.58920
G1 X173.490 Y118.725 E7.59686
G1 X172.518 Y118.498 E7.61157
G1 X172.072 Y118.283 E7.61886
G1 X171.301 Y117.674 E7.63333
G1 X171.016 Y117.342 E7.63977
G1 X170.540 Y116.501 E7.65401
G1 X170.408 Y116.130 E7.65981
G1 X170.266 Y115.281 E7.67249
G1 X170.250 Y115.094 E7.67525
G1 X170.250 Y114.044 E7.69073
G1 X169.957 Y113.751 E7.69683
G1 X105.043 Y113.751 E8.65304
G1 X104.750 Y114.044 E8.65915
G1 X104.750 Y115.095 E8.67463
G1 X104.734 Y115.282 E8.67740
G1 X104.591 Y116.131 E8.69008
G1 X104.460 Y116.500 E8.69585
G1 X103.985 Y117.341 E8.71008
G1 X103.700 Y117.674 E8.71653
G1 X102.928 Y118.283 E8.73101
G1 X102.482 Y118.498 E8.73830
G1 X101.510 Y118.725 E8.75302
G1 X100.990 Y118.725 E8.76067
G1 X100.018 Y118.498 E8.77538
G1 X99.572 Y118.283 E8.78267
G1 X98.800 Y117.674 E8.79715
G1 X98.516 Y117.342 E8.80359
G1 X98.040 Y116.501 E8.81782
G1 X97.908 Y116.131 E8.82360
G1 X97.765 Y115.282 E8.83630
G1 X97.749 Y115.094 E8.83907
G1 X97.750 Y72.544 E9.46586
G1 X97.457 Y72.251 E9.47196
G1 X97.068 Y72.251 E9.47770
G1 X95.749 Y70.933 E9.50515
G1 X95.749 Y56.143 E9.72302
G1 X96.249 Y56.275 F7800.000
G1 X97.275 Y55.250 E9.74437 F540.000
G1 X177.725 Y55.250 E10.92945
G1 X178.750 Y56.275 E10.95080
G1 X178.750 Y70.726 E11.16367
G1 X177.725 Y71.751 E11.18502
G1 X177.043 Y71.751 E11.19508
G1 X176.750 Y72.044 E11.20118
G1 X176.750 Y115.074 E11.83503
G1 X176.605 Y116.005 E11.84891
G1 X176.503 Y116.292 E11.85340
G1 X176.074 Y117.053 E11.86627
G1 X175.852 Y117.311 E11.87129
G1 X175.162 Y117.856 E11.88424
G1 X174.815 Y118.023 E11.88991
G1 X173.952 Y118.225 E11.90296
G1 X173.548 Y118.225 E11.90892
G1 X172.685 Y118.023 E11.92197
G1 X172.338 Y117.856 E11.92764
G1 X171.648 Y117.312 E11.94059
G1 X171.427 Y117.053 E11.94560
G1 X170.996 Y116.293 E11.95847
G1 X170.894 Y116.004 E11.96298
G1 X170.762 Y115.219 E11.97472
G1 X170.750 Y113.544 E11.99939
G1 X170.457 Y113.251 E12.00549
G1 X104.543 Y113.251 E12.97644
G1 X104.250 Y113.544 E12.98254
G1 X104.250 Y115.074 E13.00508
G1 X104.105 Y116.005 E13.01896
G1 X104.003 Y116.292 E13.02345
G1 X103.574 Y117.053 E13.03632
G1 X103.352 Y117.311 E13.04134
G1 X102.662 Y117.856 E13.05429
G1 X102.315 Y118.023 E13.05996
G1 X101.452 Y118.225 E13.07301
G1 X101.048 Y118.225 E13.07897
G1 X100.185 Y118.023 E13.09202
G1 X99.838 Y117.856 E13.09769
G1 X99.148 Y117.312 E13.11064
G1 X98.927 Y117.053 E13.11565
G1 X98.496 Y116.293 E13.12852
G1 X98.394 Y116.005 E13.13302
G1 X98.249 Y115.073 E13.14691
G1 X98.250 Y72.044 E13.78076
G1 X97.957 Y71.751 E13.78686
G1 X97.275 Y71.751 E13.79691
G1 X96.249 Y70.726 E13.81827
G1 X96.249 Y56.350 E14.03003
G1 X96.749 Y56.482 F7800.000
G1 X97.482 Y55.750 E14.04528 F540.000
G1 X177.518 Y55.750 E15.22425
G1 X178.250 Y56.482 E15.23951
G1 X178.250 Y70.519 E15.44627
G1 X177.518 Y71.251 E15.46153
G1 X176.543 Y71.251 E15.47589
G1 X176.250 Y71.544 E15.48199
G1 X176.250 Y115.053 E16.12291
G1 X176.119 Y115.879 E16.13522
G1 X176.047 Y116.084 E16.13843
G1 X175.662 Y116.764 E16.14994
G1 X175.504 Y116.949 E16.15352
G1 X174.895 Y117.430 E16.16495
G1 X174.647 Y117.549 E16.16900
G1 X173.894 Y117.725 E16.18039
G1 X173.606 Y117.725 E16.18464
G1 X172.853 Y117.549 E16.19603
G1 X172.605 Y117.430 E16.20008
G1 X171.996 Y116.949 E16.21151
G1 X171.838 Y116.765 E16.21509
G1 X171.453 Y116.085 E16.22660
G1 X171.380 Y115.878 E16.22982
G1 X171.250 Y115.053 E16.24214
G1 X171.250 Y113.044 E16.27173
G1 X170.957 Y112.751 E16.27783
G1 X104.043 Y112.751 E17.26351
G1 X103.750 Y113.044 E17.26961
G1 X103.750 Y115.053 E17.29921
G1 X103.619 Y115.879 E17.31153
G1 X103.547 Y116.084 E17.31473
G1 X103.162 Y116.764 E17.32624
G1 X103.004 Y116.949 E17.32983
G1 X102.395 Y117.430 E17.34125
G1 X102.147 Y117.549 E17.34530
G1 X101.394 Y117.725 E17.35669
G1 X101.106 Y117.725 E17.36095
G1 X100.353 Y117.549 E17.37234
G1 X100.105 Y117.430 E17.37639
G1 X99.496 Y116.949 E17.38781
G1 X99.338 Y116.765 E17.39139
G1 X98.953 Y116.085 E17.40290
G1 X98.880 Y115.879 E17.40612
G1 X98.749 Y115.052 E17.41844
G1 X98.750 Y71.544 E18.05935
G1 X98.457 Y71.251 E18.06545
G1 X97.482 Y71.251 E18.07982
G1 X96.749 Y70.519 E18.09507
G1 X96.749 Y56.557 E18.30073
G1 X97.249 Y56.689 F7800.000
G1 X97.689 Y56.250 E18.30988 F540.000
G1 X177.311 Y56.250 E19.48275
G1 X177.750 Y56.689 E19.49191
G1 X177.750 Y70.311 E19.69257
G1 X177.311 Y70.751 E19.70172
G1 X176.043 Y70.751 E19.72040
G1 X175.750 Y71.044 E19.72650
G1 X175.750 Y115.032 E20.37447
G1 X175.634 Y115.753 E20.38523
G1 X175.590 Y115.876 E20.38715
G1 X175.251 Y116.476 E20.39730
G1 X175.156 Y116.587 E20.39945
G1 X174.628 Y117.003 E20.40935
G1 X174.480 Y117.075 E20.41178
G1 X173.837 Y117.225 E20.42151
G1 X173.663 Y117.225 E20.42407
G1 X173.020 Y117.075 E20.43380
G1 X172.872 Y117.003 E20.43623
G1 X172.344 Y116.587 E20.44612
G1 X172.249 Y116.476 E20.44827
G1 X171.910 Y115.876 E20.45843
G1 X171.866 Y115.753 E20.46036
G1 X171.750 Y115.032 E20.47111
G1 X171.750 Y112.544 E20.50776
G1 X171.457 Y112.251 E20.51387
G1 X103.543 Y112.251 E21.51427
G1 X103.250 Y112.544 E21.52037
G1 X103.250 Y115.032 E21.55703
G1 X103.134 Y115.753 E21.56778
G1 X103.090 Y115.876 E21.56971
G1 X102.751 Y116.476 E21.57986
G1 X102.656 Y116.587 E21.58201
G1 X102.128 Y117.003 E21.59191
G1 X101.980 Y117.075 E21.59434
G1 X101.337 Y117.225 E21.60407
G1 X101.163 Y117.225 E21.60662
G1 X100.520 Y117.075 E21.61635
G1 X100.372 Y117.003 E21.61878
G1 X99.844 Y116.587 E21.62868
G1 X99.749 Y116.476 E21.63083
G1 X99.410 Y115.876 E21.64098
G1 X99.366 Y115.753 E21.64291
G1 X99.249 Y115.032 E21.65367
G1 X99.250 Y71.044 E22.30163
G1 X98.957 Y70.751 E22.30774
G1 X97.689 Y70.751 E22.32642
G1 X97.249 Y70.311 E22.33557
G1 X97.249 Y56.764 E22.53513
G1 X97.749 Y56.896 F7800.000
G1 X97.896 Y56.750 E22.53818 F540.000
G1 X177.104 Y56.750 E23.70495
G1 X177.250 Y56.896 E23.70800
G1 X177.250 Y70.104 E23.90256
G1 X177.104 Y70.251 E23.90561
G1 X175.543 Y70.251 E23.92861
G1 X175.250 Y70.544 E23.93471
G1 X175.250 Y115.011 E24.58973
G1 X175.148 Y115.627 E24.59893
G1 X174.840 Y116.187 E24.60835
G1 X174.362 Y116.577 E24.61743
G1 X173.779 Y116.725 E24.62629
G1 X173.188 Y116.600 E24.63519
G1 X172.660 Y116.188 E24.64505
G1 X172.352 Y115.627 E24.65449
G1 X172.252 Y115.032 E24.66337
G1 X172.250 Y112.044 E24.70739
G1 X171.957 Y111.751 E24.71349
G1 X103.043 Y111.751 E25.72863
G1 X102.750 Y112.044 E25.73473
G1 X102.750 Y115.011 E25.77844
G1 X102.633 Y115.668 E25.78827
G1 X102.308 Y116.224 E25.79776
G1 X101.812 Y116.600 E25.80693
G1 X101.221 Y116.725 E25.81583
G1 X100.638 Y116.577 E25.82469
G1 X100.160 Y116.188 E25.83376
G1 X99.852 Y115.627 E25.84319
G1 X99.749 Y115.011 E25.85239
G1 X99.750 Y70.544 E26.50741
G1 X99.457 Y70.251 E26.51351
G1 X97.896 Y70.251 E26.53651
G1 X97.749 Y70.104 E26.53956
G1 X97.749 Y56.971 E26.73302
G1 F600.000 E25.73302
G92 E0
G1 X90.750 Y58.363 F7800.000
G1 E1.00000 F600.000
G1 X90.750 Y134.139 E2.11622 F540.000
G1 X89.140 Y135.750 E2.14978
G1 X81.860 Y135.750 E2.25701
G1 X80.249 Y134.139 E2.29057
G1 X80.249 Y126.044 E2.40982
G1 X79.957 Y125.751 E2.41592
G1 X21.043 Y125.751 E3.28374
G1 X20.750 Y126.044 E3.28984
G1 X20.750 Y134.139 E3.40909
G1 X19.140 Y135.750 E3.44265
G1 X11.860 Y135.750 E3.54988
G1 X10.249 Y134.139 E3.58343
G1 X10.249 Y58.363 E4.69966
G1 X11.860 Y56.752 E4.73322
G1 X12.959 Y56.752 E4.74939
G1 X13.251 Y56.459 E4.75549
G1 X13.251 Y55.861 E4.76431
G1 X14.862 Y54.250 E4.79786
G1 X19.140 Y54.250 E4.86087
G1 X20.750 Y55.861 E4.89443
G1 X20.750 Y63.957 E5.01370
G1 X21.043 Y64.250 E5.01980
G1 X79.957 Y64.250 E5.88761
G1 X80.249 Y63.957 E5.89372
G1 X80.249 Y55.861 E6.01298
G1 X81.860 Y54.250 E6.04654
G1 X86.138 Y54.250 E6.10955
G1 X87.748 Y55.861 E6.14310
G1 X87.748 Y56.459 E6.15192
G1 X88.041 Y56.752 E6.15802
G1 X89.140 Y56.752 E6.17420
G1 X90.697 Y58.310 E6.20665
G1 X90.250 Y58.570 F7800.000
G1 X90.250 Y133.932 E7.31677 F540.000
G1 X88.932 Y135.250 E7.34423
G1 X82.068 Y135.250 E7.44535
G1 X80.749 Y133.932 E7.47281
G1 X80.749 Y125.544 E7.59638
G1 X80.457 Y125.251 E7.60248
G1 X20.543 Y125.251 E8.48502
G1 X20.250 Y125.544 E8.49113
G1 X20.250 Y133.932 E8.61469
G1 X18.932 Y135.250 E8.64215
G1 X12.068 Y135.250 E8.74327
G1 X10.749 Y133.932 E8.77073
G1 X10.749 Y58.570 E9.88085
G1 X12.068 Y57.252 E9.90831
G1 X13.459 Y57.252 E9.92880
G1 X13.751 Y56.959 E9.93490
G1 X13.751 Y56.068 E9.94803
G1 X15.070 Y54.750 E9.97549
G1 X18.932 Y54.750 E10.03239
G1 X20.250 Y56.068 E10.05985
G1 X20.250 Y64.457 E10.18343
G1 X20.543 Y64.750 E10.18953
G1 X80.457 Y64.750 E11.07208
G1 X80.749 Y64.457 E11.07818
G1 X80.749 Y56.068 E11.20176
G1 X82.068 Y54.750 E11.22922
G1 X85.930 Y54.750 E11.28612
G1 X87.248 Y56.068 E11.31358
G1 X87.248 Y56.959 E11.32670
G1 X87.541 Y57.252 E11.33281
G1 X88.932 Y57.252 E11.35330
G1 X90.197 Y58.517 E11.37965
G1 X89.750 Y58.777 F7800.000
G1 X89.750 Y133.725 E12.48367 F540.000
G1 X88.725 Y134.750 E12.50502
G1 X82.275 Y134.750 E12.60005
G1 X81.249 Y133.725 E12.62140
G1 X81.249 Y125.044 E12.74928
G1 X80.957 Y124.751 E12.75539
G1 X20.043 Y124.751 E13.65266
G1 X19.750 Y125.044 E13.65877
G1 X19.750 Y133.725 E13.78665
G1 X18.725 Y134.750 E13.80800
G1 X12.275 Y134.750 E13.90302
G1 X11.249 Y133.725 E13.92438
G1 X11.249 Y58.777 E15.02840
G1 X12.275 Y57.752 E15.04976
G1 X13.959 Y57.752 E15.07456
G1 X14.251 Y57.459 E15.08066
G1 X14.251 Y56.275 E15.09810
G1 X15.277 Y55.250 E15.11946
G1 X18.725 Y55.250 E15.17026
G1 X19.750 Y56.275 E15.19162
G1 X19.750 Y64.957 E15.31951
G1 X20.043 Y65.250 E15.32561
G1 X80.957 Y65.250 E16.22289
G1 X81.249 Y64.957 E16.22899
G1 X81.249 Y56.275 E16.35689
G1 X82.275 Y55.250 E16.37825
G1 X85.723 Y55.250 E16.42905
G1 X86.748 Y56.275 E16.45040
G1 X86.748 Y57.459 E16.46784
G1 X87.041 Y57.752 E16.47394
G1 X88.725 Y57.752 E16.49875
G1 X89.697 Y58.724 E16.51900
G1 X89.250 Y58.984 F7800.000
G1 X89.250 Y133.518 E17.61692 F540.000
G1 X88.518 Y134.250 E17.63217
G1 X82.482 Y134.250 E17.72109
G1 X81.749 Y133.518 E17.73635
G1 X81.749 Y124.544 E17.86854
G1 X81.457 Y124.251 E17.87465
G1 X19.543 Y124.251 E18.78665
G1 X19.250 Y124.544 E18.79276
G1 X19.250 Y133.518 E18.92495
G1 X18.518 Y134.250 E18.94021
G1 X12.482 Y134.250 E19.02913
G1 X11.749 Y133.518 E19.04438
G1 X11.749 Y58.984 E20.14230
G1 X12.482 Y58.252 E20.15755
G1 X14.459 Y58.252 E20.18667
G1 X14.751 Y57.959 E20.19277
G1 X14.751 Y56.482 E20.21453
G1 X15.484 Y55.750 E20.22978
G1 X18.518 Y55.750 E20.27448
G1 X19.250 Y56.482 E20.28974
G1 X19.250 Y65.457 E20.42195
G1 X19.543 Y65.750 E20.42805
G1 X81.457 Y65.750 E21.34006
G1 X81.749 Y65.457 E21.34616
G1 X81.749 Y56.482 E21.47837
G1 X82.482 Y55.750 E21.49363
G1 X85.516 Y55.750 E21.53833
G1 X86.248 Y56.482 E21.55358
G1 X86.248 Y57.959 E21.57533
G1 X86.541 Y58.252 E21.58144
G1 X88.518 Y58.252 E21.61056
G1 X89.197 Y58.931 E21.62470
G1 X88.750 Y59.191 F7800.000
G1 X88.750 Y133.311 E22.71652 F540.000
G1 X88.311 Y133.750 E22.72567
G1 X82.689 Y133.750 E22.80849
G1 X82.249 Y133.311 E22.81765
G1 X82.249 Y124.044 E22.95416
G1 X81.957 Y123.751 E22.96026
G1 X19.043 Y123.751 E23.88700
G1 X18.750 Y124.044 E23.89310
G1 X18.750 Y133.311 E24.02961
G1 X18.311 Y133.750 E24.03876
G1 X12.689 Y133.750 E24.12158
G1 X12.249 Y133.311 E24.13073
G1 X12.249 Y59.191 E25.22255
G1 X12.689 Y58.752 E25.23170
G1 X14.959 Y58.752 E25.26514
G1 X15.251 Y58.459 E25.27124
G1 X15.251 Y56.689 E25.29731
G1 X15.691 Y56.250 E25.30646
G1 X18.311 Y56.250 E25.34506
G1 X18.750 Y56.689 E25.35421
G1 X18.750 Y65.957 E25.49074
G1 X19.043 Y66.250 E25.49684
G1 X81.957 Y66.250 E26.42358
G1 X82.249 Y65.957 E26.42968
G1 X82.249 Y56.689 E26.56620
G1 X82.689 Y56.250 E26.57536
G1 X85.309 Y56.250 E26.61395
G1 X85.748 Y56.689 E26.62311
G1 X85.748 Y58.459 E26.64918
G1 X86.041 Y58.752 E26.65528
G1 X88.311 Y58.752 E26.68871
G1 X88.697 Y59.138 E26.69676
G1 X88.250 Y59.398 F7800.000
G1 X88.250 Y133.104 E27.78248 F540.000
G1 X88.104 Y133.250 E27.78553
G1 X82.896 Y133.250 E27.86224
G1 X82.749 Y133.104 E27.86530
G1 X82.749 Y123.544 E28.00612
G1 X82.457 Y123.251 E28.01222
G1 X18.543 Y123.251 E28.95369
G1 X18.250 Y123.544 E28.95979
