; generated by Slic3r 1.0.0RC3 on 2014-03-23 at 21:36:21

; layer_height = 0.25
; perimeters = 3
; top_solid_layers = 4
; bottom_solid_layers = 4
; fill_density = 0.4
; perimeter_speed = 30
; infill_speed = 60
; travel_speed = 130
; nozzle_diameter = 0.5
; filament_diameter = 2.94
; extrusion_multiplier = 1
; perimeters extrusion width = 0.50mm
; infill extrusion width = 0.84mm
; solid infill extrusion width = 0.84mm
; top infill extrusion width = 0.84mm

G21 ; set units to millimeters
M107
M190 S110 ; wait for bed temperature to be reached
M104 S220 ; set temperature
G28 ; home all axes
M84 ; disable motors
M109 S220 ; wait for temperature to be reached
G90 ; use absolute coordinates
G92 E0
M82 ; use absolute distances for extrusion
G1 F600.000 E-1.00000
G92 E0
G1 Z0.200 F7800.000
G1 X12.919 Y27.065 F7800.000
G1 E1.00000 F600.000
G1 X14.439 Y26.665 E1.02315 F540.000
G1 X15.999 Y26.525 E1.04622
G1 X173.999 Y26.525 E3.37363
G1 X175.559 Y26.665 E3.39670
G1 X177.079 Y27.065 E3.41986
G1 X178.499 Y27.735 E3.44299
G1 X179.789 Y28.635 E3.46616
G1 X180.889 Y29.735 E3.48907
G1 X181.789 Y31.025 E3.51224
G1 X182.459 Y32.445 E3.53537
G1 X182.859 Y33.965 E3.55852
G1 X182.999 Y35.525 E3.58159
G1 X182.989 Y61.925 E3.97048
G1 X178.989 Y151.924 E5.29752
G1 X178.869 Y153.034 E5.31397
G1 X178.679 Y154.154 E5.33070
G1 X178.279 Y155.685 E5.35400
G1 X177.619 Y157.114 E5.37720
G1 X177.069 Y158.075 E5.39350
G1 X176.079 Y159.474 E5.41875
G1 X174.839 Y160.665 E5.44407
G1 X174.029 Y161.305 E5.45928
G1 X172.389 Y162.334 E5.48780
G1 X170.569 Y162.995 E5.51632
G1 X169.619 Y163.224 E5.53072
G1 X168.569 Y163.415 E5.54644
G1 X167.499 Y163.474 E5.56223
G1 X22.499 Y163.474 E7.69814
G1 X21.439 Y163.415 E7.71378
G1 X20.399 Y163.224 E7.72935
G1 X19.439 Y162.995 E7.74389
G1 X17.609 Y162.344 E7.77250
G1 X15.959 Y161.305 E7.80123
G1 X15.149 Y160.665 E7.81644
G1 X13.889 Y159.455 E7.84217
G1 X12.889 Y158.015 E7.86799
G1 X12.349 Y157.055 E7.88422
G1 X11.709 Y155.644 E7.90703
G1 X11.319 Y154.154 E7.92971
G1 X11.129 Y153.034 E7.94645
G1 X11.009 Y151.924 E7.96289
G1 X6.999 Y61.525 E9.29584
G1 X6.999 Y35.525 E9.67883
G1 X7.139 Y33.965 E9.70190
G1 X7.539 Y32.445 E9.72505
G1 X8.209 Y31.025 E9.74818
G1 X9.109 Y29.735 E9.77135
G1 X10.209 Y28.635 E9.79426
G1 X11.499 Y27.735 E9.81743
G1 X12.851 Y27.097 E9.83946
G1 X13.089 Y27.535 F7800.000
G1 X14.519 Y27.155 E9.86125 F540.000
G1 X15.999 Y27.025 E9.88314
G1 X173.999 Y27.025 E12.21055
G1 X175.479 Y27.155 E12.23243
G1 X176.909 Y27.535 E12.25423
G1 X178.249 Y28.165 E12.27604
G1 X179.459 Y29.015 E12.29782
G1 X180.509 Y30.065 E12.31969
G1 X181.359 Y31.275 E12.34148
G1 X181.989 Y32.615 E12.36329
G1 X182.369 Y34.045 E12.38508
G1 X182.499 Y35.525 E12.40697
G1 X182.489 Y61.904 E12.79556
G1 X178.489 Y151.904 E14.12261
G1 X178.379 Y152.945 E14.13801
G1 X178.189 Y154.065 E14.15474
G1 X177.809 Y155.515 E14.17682
G1 X177.189 Y156.875 E14.19884
G1 X176.639 Y157.834 E14.21514
G1 X175.699 Y159.154 E14.23901
G1 X174.529 Y160.274 E14.26287
G1 X173.719 Y160.915 E14.27807
G1 X172.169 Y161.885 E14.30501
G1 X170.449 Y162.505 E14.33194
G1 X169.499 Y162.735 E14.34634
G1 X168.509 Y162.915 E14.36116
G1 X167.499 Y162.974 E14.37607
G1 X22.499 Y162.974 E16.51198
G1 X21.499 Y162.915 E16.52673
G1 X20.519 Y162.745 E16.54139
G1 X19.559 Y162.515 E16.55593
G1 X17.829 Y161.894 E16.58300
G1 X16.269 Y160.915 E16.61014
G1 X15.459 Y160.274 E16.62534
G1 X14.269 Y159.125 E16.64972
G1 X13.319 Y157.774 E16.67404
G1 X12.779 Y156.815 E16.69026
G1 X12.179 Y155.485 E16.71175
G1 X11.809 Y154.065 E16.73337
G1 X11.619 Y152.945 E16.75010
G1 X11.509 Y151.904 E16.76551
G1 X7.499 Y61.525 E18.09815
G1 X7.499 Y35.525 E18.48115
G1 X7.629 Y34.045 E18.50303
G1 X8.009 Y32.615 E18.52483
G1 X8.639 Y31.275 E18.54664
G1 X9.489 Y30.065 E18.56842
G1 X10.539 Y29.015 E18.59029
G1 X11.749 Y28.165 E18.61208
G1 X13.021 Y27.566 E18.63278
G1 X13.259 Y28.005 F7800.000
G1 X14.609 Y27.645 E18.65336 F540.000
G1 X15.999 Y27.525 E18.67391
G1 X173.999 Y27.525 E21.00132
G1 X175.389 Y27.645 E21.02187
G1 X176.739 Y28.005 E21.04246
G1 X177.999 Y28.595 E21.06295
G1 X179.139 Y29.395 E21.08346
G1 X180.129 Y30.385 E21.10409
G1 X180.929 Y31.525 E21.12460
G1 X181.519 Y32.785 E21.14510
G1 X181.879 Y34.135 E21.16568
G1 X181.999 Y35.525 E21.18623
G1 X181.989 Y61.885 E21.57452
G1 X177.989 Y151.885 E22.90157
G1 X177.889 Y152.864 E22.91608
G1 X177.699 Y153.985 E22.93282
G1 X177.339 Y155.344 E22.95354
G1 X176.749 Y156.625 E22.97430
G1 X176.199 Y157.584 E22.99060
G1 X175.319 Y158.825 E23.01300
G1 X174.219 Y159.885 E23.03550
G1 X173.409 Y160.524 E23.05071
G1 X171.949 Y161.435 E23.07605
G1 X170.329 Y162.024 E23.10144
G1 X169.379 Y162.255 E23.11584
G1 X168.449 Y162.415 E23.12974
G1 X167.499 Y162.474 E23.14377
G1 X22.499 Y162.474 E25.27968
G1 X21.559 Y162.415 E25.29355
G1 X20.639 Y162.255 E25.30731
G1 X19.679 Y162.024 E25.32185
G1 X18.049 Y161.445 E25.34733
G1 X16.579 Y160.524 E25.37288
G1 X15.769 Y159.885 E25.38809
G1 X14.649 Y158.805 E25.41100
G1 X13.759 Y157.524 E25.43397
G1 X13.219 Y156.565 E25.45019
G1 X12.649 Y155.315 E25.47043
G1 X12.299 Y153.985 E25.49069
G1 X12.109 Y152.864 E25.50742
G1 X12.009 Y151.885 E25.52193
G1 X7.999 Y61.525 E26.85429
G1 X7.999 Y35.525 E27.23728
G1 X8.119 Y34.135 E27.25783
G1 X8.479 Y32.785 E27.27841
G1 X9.069 Y31.525 E27.29890
G1 X9.869 Y30.385 E27.31942
G1 X10.859 Y29.395 E27.34004
G1 X11.999 Y28.595 E27.36056
G1 X13.191 Y28.036 E27.37995
G1 X13.129 Y28.595 F7800.000
G1 X14.539 Y28.165 E27.40166 F540.000
G1 X15.999 Y28.025 E27.42327
G1 X173.999 Y28.025 E29.75068
G1 X175.459 Y28.165 E29.77228
G1 X176.869 Y28.595 E29.79399
G1 X178.169 Y29.285 E29.81567
G1 X179.299 Y30.225 E29.83733
G1 X180.239 Y31.355 E29.85898
G1 X180.929 Y32.655 E29.88066
G1 X181.359 Y34.065 E29.90237
G1 X181.499 Y35.525 E29.92398
G1 X181.499 Y61.525 E30.30697
G1 X177.489 Y151.855 E31.63888
G1 X177.389 Y152.774 E31.65251
G1 X177.199 Y153.894 E31.66924
G1 X176.869 Y155.174 E31.68872
G1 X176.319 Y156.375 E31.70816
G1 X175.769 Y157.334 E31.72446
G1 X174.939 Y158.505 E31.74559
G1 X173.909 Y159.485 E31.76653
G1 X173.099 Y160.125 E31.78174
G1 X171.729 Y160.985 E31.80557
G1 X170.209 Y161.534 E31.82938
G1 X169.259 Y161.765 E31.84377
G1 X168.389 Y161.924 E31.85681
G1 X167.499 Y161.974 E31.86994
G1 X22.499 Y161.974 E34.00585
G1 X21.619 Y161.924 E34.01883
G1 X20.749 Y161.765 E34.03186
G1 X19.789 Y161.534 E34.04640
G1 X18.259 Y160.995 E34.07030
G1 X16.889 Y160.125 E34.09421
G1 X16.079 Y159.485 E34.10942
G1 X15.029 Y158.474 E34.13088
G1 X14.189 Y157.284 E34.15233
G1 X13.649 Y156.325 E34.16856
G1 X13.119 Y155.144 E34.18761
G1 X12.799 Y153.894 E34.20662
G1 X12.609 Y152.774 E34.22335
G1 X12.509 Y151.855 E34.23699
G1 X8.499 Y61.525 E35.56890
G1 X8.499 Y35.525 E35.95189
G1 X8.639 Y34.065 E35.97349
G1 X9.069 Y32.655 E35.99521
G1 X9.759 Y31.355 E36.01689
G1 X10.699 Y30.225 E36.03854
G1 X11.829 Y29.285 E36.06019
G1 X13.063 Y28.630 E36.08077
G1 X13.319 Y29.055 F7800.000
G1 X14.629 Y28.655 E36.10094 F540.000
G1 X15.999 Y28.525 E36.12121
G1 X173.999 Y28.525 E38.44862
G1 X175.369 Y28.655 E38.46889
G1 X176.679 Y29.055 E38.48907
G1 X177.889 Y29.705 E38.50930
G1 X178.949 Y30.575 E38.52950
G1 X179.819 Y31.635 E38.54970
G1 X180.469 Y32.845 E38.56993
G1 X180.869 Y34.155 E38.59011
G1 X180.999 Y35.525 E38.61038
G1 X180.999 Y61.525 E38.99337
G1 X176.989 Y151.834 E40.32499
G1 X176.899 Y152.695 E40.33773
G1 X176.709 Y153.815 E40.35446
G1 X176.399 Y155.005 E40.37257
G1 X175.879 Y156.125 E40.39076
G1 X175.329 Y157.084 E40.40706
G1 X174.559 Y158.174 E40.42672
G1 X173.599 Y159.094 E40.44631
G1 X172.789 Y159.735 E40.46151
G1 X171.509 Y160.534 E40.48375
G1 X170.099 Y161.045 E40.50583
G1 X169.149 Y161.274 E40.52023
G1 X168.329 Y161.424 E40.53251
G1 X167.499 Y161.474 E40.54476
G1 X22.499 Y161.474 E42.68067
G1 X21.679 Y161.424 E42.69277
G1 X20.869 Y161.284 E42.70488
G1 X19.909 Y161.055 E42.71942
G1 X18.479 Y160.545 E42.74179
G1 X17.199 Y159.735 E42.76410
G1 X16.389 Y159.094 E42.77931
G1 X15.409 Y158.154 E42.79931
G1 X14.629 Y157.034 E42.81942
G1 X14.089 Y156.075 E42.83564
G1 X13.589 Y154.985 E42.85331
G1 X13.289 Y153.815 E42.87110
G1 X13.099 Y152.695 E42.88783
G1 X13.009 Y151.834 E42.90057
G1 X8.999 Y61.525 E44.23219
G1 X8.999 Y35.525 E44.61518
G1 X9.129 Y34.155 E44.63545
G1 X9.529 Y32.845 E44.65562
G1 X10.179 Y31.635 E44.67586
G1 X11.049 Y30.575 E44.69606
G1 X12.109 Y29.705 E44.71626
G1 X13.253 Y29.090 E44.73538
G1 X13.509 Y29.515 F7800.000
G1 X14.729 Y29.145 E44.75416 F540.000
G1 X15.999 Y29.025 E44.77296
G1 X173.999 Y29.025 E47.10036
G1 X175.269 Y29.145 E47.11915
G1 X176.489 Y29.515 E47.13793
G1 X177.609 Y30.125 E47.15672
G1 X178.599 Y30.925 E47.17547
G1 X179.399 Y31.915 E47.19422
G1 X180.009 Y33.035 E47.21301
G1 X180.379 Y34.255 E47.23178
G1 X180.499 Y35.525 E47.25058
G1 X180.499 Y61.525 E47.63357
G1 X176.489 Y151.815 E48.96489
G1 X176.409 Y152.614 E48.97673
G1 X176.219 Y153.735 E48.99347
G1 X175.929 Y154.834 E49.01022
G1 X175.449 Y155.875 E49.02710
G1 X174.899 Y156.834 E49.04339
G1 X174.179 Y157.844 E49.06166
G1 X173.289 Y158.705 E49.07989
G1 X172.479 Y159.344 E49.09510
G1 X171.299 Y160.084 E49.11562
G1 X169.979 Y160.565 E49.13631
G1 X169.029 Y160.795 E49.15071
G1 X168.269 Y160.924 E49.16206
G1 X167.499 Y160.974 E49.17343
G1 X22.499 Y160.974 E51.30934
G1 X21.739 Y160.935 E51.32055
G1 X20.989 Y160.795 E51.33179
G1 X20.029 Y160.565 E51.34633
G1 X18.699 Y160.094 E51.36711
G1 X17.509 Y159.344 E51.38783
G1 X16.699 Y158.705 E51.40304
G1 X15.789 Y157.825 E51.42169
G1 X15.059 Y156.795 E51.44028
G1 X14.519 Y155.834 E51.45651
G1 X14.059 Y154.815 E51.47299
G1 X13.779 Y153.735 E51.48942
G1 X13.589 Y152.614 E51.50616
G1 X13.509 Y151.815 E51.51800
G1 X9.499 Y61.525 E52.84932
G1 X9.499 Y35.525 E53.23231
G1 X9.619 Y34.255 E53.25111
G1 X9.989 Y33.035 E53.26989
G1 X10.599 Y31.915 E53.28867
G1 X11.399 Y30.925 E53.30742
G1 X12.389 Y30.125 E53.32617
G1 X13.443 Y29.550 E53.34385
G1 F600.000 E52.34385
G92 E0
G1 X23.750 Y60.276 F7800.000
G1 E1.00000 F600.000
G1 X166.250 Y60.276 E3.09909 F540.000
G1 X166.250 Y140.774 E4.28486
G1 X23.750 Y140.774 E6.38394
G1 X23.750 Y60.351 E7.56861
G1 X24.250 Y60.776 F7800.000
G1 X165.750 Y60.776 E9.65297 F540.000
G1 X165.750 Y140.274 E10.82400
G1 X24.250 Y140.274 E12.90836
G1 X24.250 Y60.851 E14.07830
G1 X24.750 Y61.276 F7800.000
G1 X165.250 Y61.276 E16.14792 F378.000
G1 X165.250 Y139.774 E17.30423
G1 X24.750 Y139.774 E19.37386
G1 X24.750 Y61.351 E20.52906
G1 X24.750 Y60.776 F7800.000
G1 X21.250 Y60.276 F7800.000
G1 X17.249 Y60.276 E20.58800 F540.000
G1 X17.249 Y36.775 E20.93419
G1 X172.751 Y36.775 E23.22480
G1 X172.751 Y60.276 E23.57100
G1 X168.750 Y60.276 E23.62993
G1 X168.750 Y151.421 E24.97253
G1 X168.614 Y152.228 E24.98459
G1 X168.301 Y152.782 E24.99397
G1 X167.901 Y153.098 E25.00147
G1 X167.500 Y153.192 E25.00754
G1 X167.099 Y153.098 E25.01360
G1 X166.699 Y152.782 E25.02111
G1 X166.385 Y152.228 E25.03048
G1 X166.250 Y151.422 E25.04254
G1 X166.250 Y143.277 E25.16252
G1 X23.750 Y143.277 E27.26160
G1 X23.750 Y151.421 E27.38157
G1 X23.614 Y152.228 E27.39364
G1 X23.301 Y152.782 E27.40301
G1 X22.901 Y153.098 E27.41051
G1 X22.500 Y153.192 E27.41658
G1 X22.099 Y153.098 E27.42265
G1 X21.699 Y152.782 E27.43015
G1 X21.385 Y152.228 E27.43953
G1 X21.250 Y151.427 E27.45150
G1 X21.250 Y60.351 E28.79308
G1 X16.749 Y36.275 F7800.000
G1 X173.251 Y36.275 E31.09842 F540.000
G1 X173.251 Y60.776 E31.45935
G1 X169.250 Y60.776 E31.51828
G1 X169.250 Y151.463 E32.85413
G1 X169.092 Y152.398 E32.86810
G1 X168.688 Y153.114 E32.88022
G1 X168.123 Y153.559 E32.89080
G1 X167.500 Y153.705 E32.90024
G1 X166.877 Y153.559 E32.90967
G1 X166.312 Y153.114 E32.92026
G1 X165.907 Y152.398 E32.93238
G1 X165.750 Y151.463 E32.94634
G1 X165.750 Y143.777 E33.05957
G1 X24.250 Y143.777 E35.14392
G1 X24.250 Y151.463 E35.25715
G1 X24.092 Y152.398 E35.27112
G1 X23.688 Y153.114 E35.28323
G1 X23.123 Y153.559 E35.29382
G1 X22.500 Y153.705 E35.30325
G1 X21.877 Y153.559 E35.31268
G1 X21.312 Y153.114 E35.32327
G1 X20.907 Y152.398 E35.33540
G1 X20.750 Y151.469 E35.34928
G1 X20.750 Y60.776 E36.68521
G1 X16.749 Y60.776 E36.74415
G1 X16.749 Y36.350 E37.10397
G1 X16.249 Y35.775 F7800.000
G1 X173.751 Y35.775 E39.42404 F378.000
G1 X173.751 Y61.276 E39.79970
G1 X169.750 Y61.276 E39.85863
G1 X169.750 Y151.504 E41.18773
G1 X169.571 Y152.568 E41.20361
G1 X169.075 Y153.446 E41.21847
G1 X168.346 Y154.021 E41.23214
G1 X167.500 Y154.219 E41.24494
G1 X166.654 Y154.021 E41.25773
G1 X165.925 Y153.446 E41.27141
G1 X165.428 Y152.568 E41.28627
G1 X165.250 Y151.505 E41.30215
G1 X165.250 Y144.277 E41.40862
G1 X24.750 Y144.277 E43.47825
G1 X24.750 Y151.505 E43.58472
G1 X24.571 Y152.568 E43.60060
G1 X24.075 Y153.446 E43.61546
G1 X23.346 Y154.021 E43.62913
G1 X22.500 Y154.219 E43.64193
G1 X21.654 Y154.021 E43.65473
G1 X20.925 Y153.446 E43.66840
G1 X20.428 Y152.568 E43.68326
G1 X20.250 Y151.510 E43.69906
G1 X20.250 Y61.276 E45.02824
G1 X16.249 Y61.276 E45.08718
G1 X16.249 Y35.850 E45.46173
G1 X16.682 Y36.025 F7800.000
G1 X17.666 Y59.234 F7800.000
G1 X18.291 Y59.860 E45.48221 F1080.000
G1 X19.402 Y59.860 E45.50793
G1 X17.666 Y58.123 E45.56479
G1 X17.666 Y57.012 E45.59052
G1 X20.514 Y59.860 E45.68376
G1 X23.333 Y139.357 F7800.000
G1 X21.667 Y137.690 E45.73832 F1080.000
G1 X21.667 Y136.579 E45.76405
G1 X23.333 Y138.246 E45.81861
G1 X23.333 Y137.134 E45.84434
G1 X21.667 Y135.468 E45.89890
G1 X21.667 Y134.357 E45.92463
G1 X23.333 Y136.023 E45.97919
G1 X23.333 Y134.912 E46.00492
G1 X21.667 Y133.245 E46.05948
G1 X21.667 Y132.134 E46.08520
G1 X23.333 Y133.801 E46.13977
G1 X23.333 Y132.689 E46.16549
G1 X21.667 Y131.023 E46.22006
G1 X21.667 Y129.911 E46.24578
G1 X23.333 Y131.578 E46.30035
G1 X23.333 Y130.467 E46.32607
G1 X21.667 Y128.800 E46.38063
G1 X21.667 Y127.689 E46.40636
G1 X23.333 Y129.356 E46.46092
G1 X23.333 Y128.244 E46.48665
G1 X21.667 Y126.578 E46.54121
G1 X21.667 Y125.466 E46.56694
G1 X23.333 Y127.133 E46.62150
G1 X23.333 Y126.022 E46.64723
G1 X21.667 Y124.355 E46.70179
G1 X21.667 Y123.244 E46.72752
G1 X23.333 Y124.910 E46.78208
G1 X23.333 Y123.799 E46.80780
G1 X21.667 Y122.133 E46.86237
G1 X21.667 Y121.021 E46.88809
G1 X23.333 Y122.688 E46.94266
G1 X23.333 Y121.577 E46.96838
G1 X21.667 Y119.910 E47.02295
G1 X21.667 Y118.799 E47.04867
G1 X23.333 Y120.465 E47.10323
G1 X23.333 Y119.354 E47.12896
G1 X21.667 Y117.687 E47.18352
G1 X21.667 Y116.576 E47.20925
G1 X23.333 Y118.243 E47.26381
G1 X23.333 Y117.132 E47.28954
G1 X21.667 Y115.465 E47.34410
G1 X21.667 Y114.354 E47.36983
G1 X23.333 Y116.020 E47.42439
G1 X23.333 Y114.909 E47.45012
G1 X21.667 Y113.242 E47.50468
G1 X21.667 Y112.131 E47.53041
G1 X23.333 Y113.798 E47.58497
G1 X23.333 Y112.686 E47.61069
G1 X21.667 Y111.020 E47.66526
G1 X21.667 Y109.909 E47.69098
G1 X23.333 Y111.575 E47.74555
G1 X23.333 Y110.464 E47.77127
G1 X21.667 Y108.797 E47.82584
G1 X21.667 Y107.686 E47.85156
G1 X23.333 Y109.353 E47.90612
G1 X23.333 Y108.241 E47.93185
G1 X21.667 Y106.575 E47.98641
G1 X21.667 Y105.464 E48.01214
G1 X23.333 Y107.130 E48.06670
G1 X23.333 Y106.019 E48.09243
G1 X21.667 Y104.352 E48.14699
G1 X21.667 Y103.241 E48.17272
G1 X23.333 Y104.908 E48.22728
G1 X23.333 Y103.796 E48.25301
G1 X21.667 Y102.130 E48.30757
G1 X21.667 Y101.018 E48.33329
G1 X23.333 Y102.685 E48.38786
G1 X23.333 Y101.574 E48.41358
G1 X21.667 Y99.907 E48.46815
G1 X21.667 Y98.796 E48.49387
G1 X23.333 Y100.463 E48.54844
G1 X23.333 Y99.351 E48.57416
G1 X21.667 Y97.685 E48.62872
G1 X21.667 Y96.573 E48.65445
G1 X23.333 Y98.240 E48.70901
G1 X23.333 Y97.129 E48.73474
G1 X21.667 Y95.462 E48.78930
G1 X21.667 Y94.351 E48.81503
G1 X23.333 Y96.017 E48.86959
G1 X23.333 Y94.906 E48.89532
G1 X21.667 Y93.240 E48.94988
G1 X21.667 Y92.128 E48.97561
G1 X23.333 Y93.795 E49.03017
G1 X23.333 Y92.684 E49.05590
G1 X21.667 Y91.017 E49.11046
G1 X21.667 Y89.906 E49.13618
G1 X23.333 Y91.572 E49.19075
G1 X23.333 Y90.461 E49.21647
G1 X21.667 Y88.794 E49.27104
G1 X21.667 Y87.683 E49.29676
G1 X23.333 Y89.350 E49.35133
G1 X23.333 Y88.239 E49.37705
G1 X21.667 Y86.572 E49.43161
G1 X21.667 Y85.461 E49.45734
G1 X23.333 Y87.127 E49.51190
G1 X23.333 Y86.016 E49.53763
G1 X21.667 Y84.349 E49.59219
G1 X21.667 Y83.238 E49.61792
