; generated by Slic3r 1.0.0RC3 on 2014-03-23 at 18:51:54

; layer_height = 0.25
; perimeters = 3
; top_solid_layers = 4
; bottom_solid_layers = 4
; fill_density = 0.4
; perimeter_speed = 30
; infill_speed = 60
; travel_speed = 130
; nozzle_diameter = 0.5
; filament_diameter = 2.94
; extrusion_multiplier = 1
; perimeters extrusion width = 0.50mm
; infill extrusion width = 0.84mm
; solid infill extrusion width = 0.84mm
; top infill extrusion width = 0.84mm

G21 ; set units to millimeters
M107
M190 S110 ; wait for bed temperature to be reached
M104 S220 ; set temperature
G28 ; home all axes
M84 ; disable motors
M109 S220 ; wait for temperature to be reached
G90 ; use absolute coordinates
G92 E0
M82 ; use absolute distances for extrusion
G1 F600.000 E-1.00000
G92 E0
G1 Z0.200 F7800.000
G1 X14.239 Y17.090 F7800.000
G1 E1.00000 F600.000
G1 X20.239 Y12.090 E1.11505 F540.000
G1 X21.519 Y11.190 E1.13810
G1 X22.939 Y10.540 E1.16110
G1 X24.439 Y10.140 E1.18397
G1 X25.999 Y10.000 E1.20704
G1 X163.989 Y10.000 E3.23969
G1 X165.539 Y10.140 E3.26262
G1 X167.049 Y10.540 E3.28563
G1 X168.469 Y11.190 E3.30863
G1 X169.749 Y12.080 E3.33160
G1 X175.759 Y17.080 E3.44676
G1 X176.869 Y18.190 E3.46988
G1 X177.779 Y19.480 E3.49314
G1 X178.449 Y20.910 E3.51640
G1 X178.859 Y22.430 E3.53959
G1 X178.999 Y24.000 E3.56281
G1 X178.999 Y171.000 E5.72818
G1 X178.859 Y172.560 E5.75125
G1 X178.459 Y174.080 E5.77441
G1 X177.789 Y175.500 E5.79754
G1 X176.889 Y176.790 E5.82071
G1 X175.789 Y177.890 E5.84362
G1 X174.499 Y178.790 E5.86679
G1 X173.079 Y179.460 E5.88992
G1 X171.559 Y179.860 E5.91307
G1 X169.999 Y180.000 E5.93614
G1 X19.999 Y180.000 E8.14571
G1 X18.439 Y179.860 E8.16878
G1 X16.919 Y179.460 E8.19193
G1 X15.499 Y178.790 E8.21506
G1 X14.209 Y177.890 E8.23823
G1 X13.109 Y176.790 E8.26115
G1 X12.209 Y175.500 E8.28432
G1 X11.539 Y174.080 E8.30744
G1 X11.139 Y172.560 E8.33060
G1 X10.999 Y171.000 E8.35367
G1 X10.999 Y24.000 E10.51904
G1 X11.139 Y22.430 E10.54226
G1 X11.549 Y20.910 E10.56545
G1 X12.209 Y19.480 E10.58865
G1 X13.119 Y18.200 E10.61179
G1 X14.186 Y17.142 E10.63391
G1 X14.559 Y17.470 F7800.000
G1 X20.559 Y12.470 E10.74896 F540.000
G1 X21.769 Y11.630 E10.77065
G1 X23.109 Y11.010 E10.79240
G1 X24.529 Y10.630 E10.81406
G1 X25.999 Y10.500 E10.83580
G1 X163.989 Y10.500 E12.86845
G1 X165.459 Y10.630 E12.89019
G1 X166.879 Y11.010 E12.91184
G1 X168.219 Y11.630 E12.93359
G1 X169.429 Y12.470 E12.95529
G1 X175.439 Y17.470 E13.07045
G1 X176.489 Y18.510 E13.09222
G1 X177.349 Y19.730 E13.11420
G1 X177.979 Y21.080 E13.13615
G1 X178.369 Y22.520 E13.15813
G1 X178.499 Y24.000 E13.18001
G1 X178.499 Y171.000 E15.34538
G1 X178.369 Y172.480 E15.36727
G1 X177.989 Y173.910 E15.38906
G1 X177.359 Y175.250 E15.41088
G1 X176.509 Y176.460 E15.43266
G1 X175.459 Y177.510 E15.45453
G1 X174.249 Y178.360 E15.47631
G1 X172.909 Y178.990 E15.49813
G1 X171.479 Y179.370 E15.51992
G1 X169.999 Y179.500 E15.54181
G1 X19.999 Y179.500 E17.75137
G1 X18.519 Y179.370 E17.77326
G1 X17.089 Y178.990 E17.79505
G1 X15.749 Y178.360 E17.81686
G1 X14.539 Y177.510 E17.83864
G1 X13.489 Y176.460 E17.86052
G1 X12.639 Y175.250 E17.88230
G1 X12.009 Y173.910 E17.90411
G1 X11.629 Y172.480 E17.92591
G1 X11.499 Y171.000 E17.94779
G1 X11.499 Y24.000 E20.11317
G1 X11.629 Y22.520 E20.13505
G1 X12.019 Y21.080 E20.15703
G1 X12.649 Y19.740 E20.17884
G1 X13.499 Y18.520 E20.20074
G1 X14.506 Y17.522 E20.22161
G1 X14.879 Y17.850 F7800.000
G1 X20.879 Y12.850 E20.33666 F540.000
G1 X22.019 Y12.060 E20.35709
G1 X23.279 Y11.480 E20.37753
G1 X24.619 Y11.120 E20.39796
G1 X25.999 Y11.000 E20.41837
G1 X163.989 Y11.000 E22.45102
G1 X165.369 Y11.120 E22.47143
G1 X166.709 Y11.480 E22.49186
G1 X167.969 Y12.060 E22.51230
G1 X169.109 Y12.850 E22.53273
G1 X175.119 Y17.850 E22.64789
G1 X176.109 Y18.840 E22.66851
G1 X176.919 Y19.980 E22.68911
G1 X177.509 Y21.250 E22.70974
G1 X177.879 Y22.600 E22.73036
G1 X177.999 Y24.000 E22.75106
G1 X177.999 Y171.000 E24.91643
G1 X177.879 Y172.390 E24.93698
G1 X177.519 Y173.740 E24.95756
G1 X176.929 Y175.000 E24.97806
G1 X176.129 Y176.140 E24.99857
G1 X175.139 Y177.130 E25.01920
G1 X173.999 Y177.930 E25.03971
G1 X172.739 Y178.520 E25.06021
G1 X171.389 Y178.880 E25.08079
G1 X169.999 Y179.000 E25.10134
G1 X19.999 Y179.000 E27.31090
G1 X18.609 Y178.880 E27.33146
G1 X17.259 Y178.520 E27.35204
G1 X15.999 Y177.930 E27.37253
G1 X14.859 Y177.130 E27.39305
G1 X13.869 Y176.140 E27.41367
G1 X13.069 Y175.000 E27.43418
G1 X12.479 Y173.740 E27.45468
G1 X12.119 Y172.390 E27.47526
G1 X11.999 Y171.000 E27.49581
G1 X11.999 Y24.000 E29.66118
G1 X12.119 Y22.610 E29.68174
G1 X12.489 Y21.250 E29.70250
G1 X13.079 Y19.990 E29.72299
G1 X13.889 Y18.840 E29.74371
G1 X14.826 Y17.903 E29.76323
G1 X15.199 Y18.240 F7800.000
G1 X21.199 Y13.240 E29.87828 F540.000
G1 X22.649 Y12.290 E29.90381
G1 X24.279 Y11.700 E29.92935
G1 X25.999 Y11.500 E29.95486
G1 X163.989 Y11.500 E31.98751
G1 X165.709 Y11.700 E32.01302
G1 X167.339 Y12.290 E32.03855
G1 X168.789 Y13.230 E32.06401
G1 X174.799 Y18.230 E32.17917
G1 X175.939 Y19.420 E32.20344
G1 X176.789 Y20.820 E32.22757
G1 X177.319 Y22.370 E32.25170
G1 X177.499 Y24.000 E32.27585
G1 X177.499 Y171.000 E34.44123
G1 X177.359 Y172.460 E34.46283
G1 X176.929 Y173.870 E34.48455
G1 X176.239 Y175.170 E34.50623
G1 X175.299 Y176.300 E34.52788
G1 X174.169 Y177.240 E34.54953
G1 X172.869 Y177.930 E34.57121
G1 X171.459 Y178.360 E34.59292
G1 X169.999 Y178.500 E34.61453
G1 X19.999 Y178.500 E36.82409
G1 X18.539 Y178.360 E36.84570
G1 X17.129 Y177.930 E36.86741
G1 X15.829 Y177.240 E36.88909
G1 X14.699 Y176.300 E36.91075
G1 X13.759 Y175.170 E36.93240
G1 X13.069 Y173.870 E36.95408
G1 X12.639 Y172.460 E36.97579
G1 X12.499 Y171.000 E36.99740
G1 X12.499 Y24.000 E39.16277
G1 X12.679 Y22.370 E39.18693
G1 X13.209 Y20.820 E39.21106
G1 X14.059 Y19.420 E39.23518
G1 X15.147 Y18.293 E39.25825
G1 X15.519 Y18.620 F7800.000
G1 X21.519 Y13.620 E39.37329 F540.000
G1 X22.869 Y12.740 E39.39703
G1 X24.389 Y12.190 E39.42084
G1 X25.999 Y12.000 E39.44472
G1 X163.989 Y12.000 E41.47738
G1 X165.589 Y12.190 E41.50111
G1 X167.109 Y12.740 E41.52492
G1 X168.469 Y13.620 E41.54878
G1 X174.479 Y18.620 E41.66394
G1 X175.539 Y19.720 E41.68645
G1 X176.339 Y21.030 E41.70906
G1 X176.829 Y22.480 E41.73160
G1 X176.999 Y24.000 E41.75413
G1 X176.999 Y171.000 E43.91951
G1 X176.869 Y172.370 E43.93978
G1 X176.469 Y173.680 E43.95995
G1 X175.819 Y174.890 E43.98019
G1 X174.949 Y175.950 E44.00039
G1 X173.889 Y176.820 E44.02059
G1 X172.679 Y177.470 E44.04082
G1 X171.369 Y177.870 E44.06100
G1 X169.999 Y178.000 E44.08127
G1 X19.999 Y178.000 E46.29083
G1 X18.629 Y177.870 E46.31110
G1 X17.319 Y177.470 E46.33128
G1 X16.109 Y176.820 E46.35151
G1 X15.049 Y175.950 E46.37171
G1 X14.179 Y174.890 E46.39191
G1 X13.529 Y173.680 E46.41215
G1 X13.129 Y172.370 E46.43232
G1 X12.999 Y171.000 E46.45259
G1 X12.999 Y24.000 E48.61797
G1 X13.169 Y22.480 E48.64050
G1 X13.659 Y21.030 E48.66304
G1 X14.459 Y19.720 E48.68565
G1 X15.467 Y18.674 E48.70705
G1 X15.839 Y19.010 F7800.000
G1 X21.839 Y14.010 E48.82210 F540.000
G1 X23.099 Y13.180 E48.84432
G1 X24.509 Y12.670 E48.86641
G1 X25.999 Y12.500 E48.88850
G1 X163.989 Y12.500 E50.92115
G1 X165.479 Y12.670 E50.94324
G1 X166.889 Y13.180 E50.96533
G1 X168.149 Y14.000 E50.98748
G1 X174.159 Y19.000 E51.10264
G1 X175.139 Y20.030 E51.12358
G1 X175.889 Y21.240 E51.14455
G1 X176.339 Y22.590 E51.16551
G1 X176.499 Y24.000 E51.18642
G1 X176.499 Y171.000 E53.35179
G1 X176.379 Y172.270 E53.37058
G1 X176.009 Y173.490 E53.38936
G1 X175.399 Y174.610 E53.40815
G1 X174.599 Y175.600 E53.42689
G1 X173.609 Y176.400 E53.44564
G1 X172.489 Y177.010 E53.46443
G1 X171.269 Y177.380 E53.48321
G1 X169.999 Y177.500 E53.50200
G1 X19.999 Y177.500 E55.71157
G1 X18.729 Y177.380 E55.73036
G1 X17.509 Y177.010 E55.74914
G1 X16.389 Y176.400 E55.76792
G1 X15.399 Y175.600 E55.78667
G1 X14.599 Y174.610 E55.80542
G1 X13.989 Y173.490 E55.82421
G1 X13.619 Y172.270 E55.84299
G1 X13.499 Y171.000 E55.86178
G1 X13.499 Y24.000 E58.02715
G1 X13.659 Y22.590 E58.04805
G1 X14.109 Y21.240 E58.06902
G1 X14.849 Y20.030 E58.08991
G1 X15.787 Y19.063 E58.10974
G1 F600.000 E57.10974
G92 E0
G1 X28.751 Y41.752 F7800.000
G1 E1.00000 F600.000
G1 X31.352 Y41.752 E1.03831 F540.000
G1 X31.352 Y56.556 E1.25639
G1 X32.734 Y55.632 E1.28087
G1 X33.542 Y54.424 E1.30228
G1 X33.825 Y52.998 E1.32370
G1 X33.727 Y52.503 E1.33113
G1 X33.937 Y52.292 E1.33552
G1 X34.292 Y51.120 E1.35356
G1 X34.964 Y49.864 E1.37454
G1 X35.867 Y48.765 E1.39549
G1 X36.966 Y47.862 E1.41644
G1 X38.222 Y47.191 E1.43742
G1 X39.394 Y46.836 E1.45546
G1 X39.604 Y46.625 E1.45984
G1 X40.099 Y46.724 E1.46727
G1 X41.525 Y46.440 E1.48869
G1 X42.734 Y45.632 E1.51011
G1 X43.542 Y44.424 E1.53152
G1 X44.074 Y41.752 E1.57166
G1 X145.926 Y41.752 E3.07198
G1 X146.458 Y44.428 E3.11218
G1 X147.266 Y45.636 E3.13359
G1 X148.475 Y46.444 E3.15500
G1 X149.901 Y46.727 E3.17642
G1 X150.396 Y46.629 E3.18385
G1 X150.605 Y46.839 E3.18822
G1 X151.779 Y47.195 E3.20629
G1 X153.034 Y47.866 E3.22725
G1 X154.133 Y48.768 E3.24820
G1 X155.036 Y49.869 E3.26917
G1 X155.708 Y51.124 E3.29014
G1 X156.062 Y52.295 E3.30816
G1 X156.273 Y52.506 E3.31255
G1 X156.175 Y53.001 E3.32000
G1 X156.458 Y54.427 E3.34141
G1 X157.266 Y55.636 E3.36283
G1 X158.648 Y56.560 E3.38731
G1 X158.648 Y41.752 E3.60545
G1 X161.249 Y41.752 E3.64376
G1 X161.249 Y133.025 E4.98826
G1 X158.574 Y133.558 E5.02844
G1 X157.365 Y134.366 E5.04985
G1 X156.557 Y135.574 E5.07127
G1 X156.274 Y137.000 E5.09269
G1 X156.372 Y137.493 E5.10009
G1 X156.162 Y137.704 E5.10446
G1 X155.805 Y138.878 E5.12254
G1 X155.135 Y140.133 E5.14350
G1 X154.232 Y141.233 E5.16447
G1 X153.132 Y142.136 E5.18543
G1 X151.878 Y142.807 E5.20638
G1 X150.705 Y143.162 E5.22444
G1 X150.494 Y143.373 E5.22882
G1 X149.999 Y143.274 E5.23626
G1 X148.574 Y143.558 E5.25766
G1 X147.365 Y144.366 E5.27908
G1 X146.557 Y145.574 E5.30049
G1 X146.025 Y148.250 E5.34067
G1 X43.972 Y148.250 E6.84396
G1 X43.440 Y145.574 E6.88414
G1 X42.633 Y144.366 E6.90555
G1 X41.424 Y143.558 E6.92697
G1 X39.998 Y143.274 E6.94839
G1 X39.503 Y143.372 E6.95582
G1 X39.293 Y143.162 E6.96020
G1 X38.121 Y142.807 E6.97824
G1 X36.865 Y142.136 E6.99921
G1 X35.765 Y141.233 E7.02018
G1 X34.863 Y140.133 E7.04113
G1 X34.192 Y138.878 E7.06209
G1 X33.835 Y137.704 E7.08017
G1 X33.625 Y137.494 E7.08454
G1 X33.724 Y137.000 E7.09196
G1 X33.440 Y135.574 E7.11338
G1 X32.633 Y134.366 E7.13479
G1 X31.424 Y133.558 E7.15620
G1 X28.751 Y133.026 E7.19635
G1 X28.751 Y41.827 E8.53975
G1 X29.251 Y42.252 F7800.000
G1 X30.852 Y42.252 E8.56334 F540.000
G1 X30.852 Y57.084 E8.78182
G1 X31.720 Y56.911 E8.79487
G1 X33.094 Y55.993 E8.81921
G1 X34.013 Y54.619 E8.84355
G1 X34.328 Y53.036 E8.86733
G1 X34.333 Y52.985 E8.86808
G1 X34.270 Y52.667 E8.87285
G1 X34.380 Y52.557 E8.87514
G1 X34.757 Y51.312 E8.89431
G1 X35.382 Y50.144 E8.91383
G1 X36.222 Y49.121 E8.93333
G1 X37.245 Y48.280 E8.95283
G1 X38.414 Y47.655 E8.97236
G1 X39.659 Y47.278 E8.99152
G1 X39.769 Y47.168 E8.99381
G1 X40.086 Y47.231 E8.99858
G1 X40.137 Y47.226 E8.99933
G1 X41.720 Y46.911 E9.02311
G1 X43.094 Y45.993 E9.04745
G1 X44.013 Y44.619 E9.07180
G1 X44.484 Y42.252 E9.10735
G1 X145.515 Y42.252 E10.59559
G1 X145.987 Y44.623 E10.63121
G1 X146.906 Y45.997 E10.65555
G1 X148.280 Y46.915 E10.67989
G1 X149.901 Y47.237 E10.70424
G1 X150.231 Y47.171 E10.70920
G1 X150.340 Y47.281 E10.71148
G1 X151.587 Y47.659 E10.73066
G1 X152.755 Y48.284 E10.75018
G1 X153.778 Y49.124 E10.76967
G1 X154.619 Y50.148 E10.78919
G1 X155.243 Y51.316 E10.80871
G1 X155.620 Y52.560 E10.82785
G1 X155.731 Y52.670 E10.83015
G1 X155.667 Y52.989 E10.83494
G1 X155.672 Y53.039 E10.83568
G1 X155.987 Y54.622 E10.85945
G1 X156.906 Y55.997 E10.88381
G1 X158.280 Y56.915 E10.90815
G1 X159.148 Y57.087 E10.92119
G1 X159.148 Y42.252 E11.13973
G1 X160.749 Y42.252 E11.16331
G1 X160.749 Y132.615 E12.49440
G1 X158.379 Y133.087 E12.53000
G1 X157.005 Y134.005 E12.55435
G1 X156.086 Y135.379 E12.57869
G1 X155.764 Y137.000 E12.60304
G1 X155.829 Y137.329 E12.60798
G1 X155.720 Y137.439 E12.61026
G1 X155.341 Y138.686 E12.62946
G1 X154.718 Y139.854 E12.64897
G1 X153.877 Y140.878 E12.66848
G1 X152.853 Y141.718 E12.68799
G1 X151.685 Y142.343 E12.70749
G1 X150.440 Y142.720 E12.72667
G1 X150.330 Y142.830 E12.72896
G1 X150.012 Y142.767 E12.73373
G1 X149.961 Y142.772 E12.73449
G1 X148.379 Y143.087 E12.75825
G1 X147.005 Y144.005 E12.78259
G1 X146.086 Y145.379 E12.80694
G1 X145.615 Y147.750 E12.84254
G1 X44.382 Y147.750 E14.33374
G1 X43.911 Y145.379 E14.36934
G1 X42.993 Y144.005 E14.39368
G1 X41.619 Y143.087 E14.41802
G1 X40.036 Y142.772 E14.44180
G1 X39.985 Y142.767 E14.44255
G1 X39.668 Y142.830 E14.44732
G1 X39.558 Y142.720 E14.44961
G1 X38.313 Y142.343 E14.46877
G1 X37.144 Y141.718 E14.48829
G1 X36.120 Y140.877 E14.50781
G1 X35.280 Y139.854 E14.52731
G1 X34.656 Y138.686 E14.54682
G1 X34.277 Y137.439 E14.56602
G1 X34.168 Y137.330 E14.56829
G1 X34.233 Y137.000 E14.57324
G1 X33.911 Y135.379 E14.59759
G1 X32.993 Y134.005 E14.62193
G1 X31.619 Y133.087 E14.64627
G1 X29.251 Y132.616 E14.68184
G1 X29.251 Y42.327 E16.01184
G1 X29.751 Y42.752 F7800.000
G1 X30.352 Y42.752 E16.02069 F378.000
G1 X30.352 Y57.693 E16.24079
G1 X31.915 Y57.382 E16.26427
G1 X33.455 Y56.353 E16.29155
G1 X34.484 Y54.814 E16.31882
G1 X34.823 Y53.109 E16.34442
G1 X34.838 Y52.960 E16.34663
G1 X34.812 Y52.832 E16.34856
G1 X34.855 Y52.789 E16.34944
G1 X34.866 Y52.677 E16.35110
G1 X35.221 Y51.504 E16.36915
G1 X35.799 Y50.423 E16.38722
G1 X36.577 Y49.476 E16.40527
G1 X37.524 Y48.698 E16.42333
G1 X38.606 Y48.119 E16.44139
G1 X39.779 Y47.764 E16.45945
G1 X39.891 Y47.753 E16.46111
G1 X39.933 Y47.711 E16.46199
G1 X40.062 Y47.736 E16.46392
G1 X40.211 Y47.721 E16.46612
G1 X41.915 Y47.382 E16.49173
G1 X43.455 Y46.353 E16.51900
G1 X44.484 Y44.814 E16.54627
G1 X44.894 Y42.752 E16.57725
G1 X145.105 Y42.752 E18.05340
G1 X145.516 Y44.818 E18.08444
G1 X146.545 Y46.357 E18.11171
G1 X148.085 Y47.386 E18.13898
G1 X149.792 Y47.725 E18.16463
G1 X149.938 Y47.739 E18.16678
G1 X150.066 Y47.714 E18.16871
G1 X150.108 Y47.756 E18.16959
G1 X150.221 Y47.767 E18.17126
G1 X151.394 Y48.123 E18.18932
G1 X152.476 Y48.702 E18.20738
G1 X153.423 Y49.479 E18.22543
G1 X154.201 Y50.427 E18.24350
G1 X154.779 Y51.508 E18.26156
G1 X155.134 Y52.681 E18.27962
G1 X155.145 Y52.792 E18.28126
G1 X155.188 Y52.835 E18.28215
G1 X155.162 Y52.964 E18.28409
G1 X155.177 Y53.113 E18.28629
G1 X155.516 Y54.817 E18.31188
G1 X156.545 Y56.357 E18.33917
G1 X158.085 Y57.386 E18.36644
G1 X159.648 Y57.696 E18.38992
G1 X159.648 Y42.752 E18.61006
G1 X160.249 Y42.752 E18.61892
G1 X160.249 Y132.205 E19.93660
G1 X158.184 Y132.616 E19.96762
G1 X156.644 Y133.645 E19.99490
G1 X155.615 Y135.184 E20.02217
G1 X155.275 Y136.892 E20.04783
G1 X155.261 Y137.037 E20.04997
G1 X155.287 Y137.165 E20.05189
G1 X155.244 Y137.208 E20.05277
G1 X155.233 Y137.321 E20.05445
G1 X154.877 Y138.494 E20.07250
G1 X154.300 Y139.575 E20.09056
G1 X153.522 Y140.522 E20.10862
G1 X152.574 Y141.300 E20.12669
G1 X151.493 Y141.879 E20.14474
G1 X150.320 Y142.234 E20.16279
G1 X150.208 Y142.245 E20.16445
G1 X150.165 Y142.288 E20.16534
G1 X150.037 Y142.262 E20.16727
G1 X149.887 Y142.277 E20.16949
G1 X148.184 Y142.616 E20.19507
G1 X146.644 Y143.645 E20.22235
G1 X145.615 Y145.184 E20.24962
G1 X145.204 Y147.250 E20.28064
G1 X44.793 Y147.250 E21.75975
G1 X44.382 Y145.184 E21.79077
G1 X43.354 Y143.645 E21.81804
G1 X41.814 Y142.616 E21.84531
G1 X40.110 Y142.277 E21.87092
G1 X39.961 Y142.262 E21.87312
G1 X39.832 Y142.287 E21.87505
G1 X39.790 Y142.245 E21.87593
G1 X39.678 Y142.234 E21.87759
G1 X38.505 Y141.879 E21.89565
G1 X37.423 Y141.300 E21.91371
G1 X36.475 Y140.522 E21.93178
G1 X35.698 Y139.575 E21.94983
G1 X35.120 Y138.494 E21.96789
G1 X34.764 Y137.321 E21.98595
G1 X34.753 Y137.208 E21.98762
G1 X34.710 Y137.165 E21.98850
G1 X34.736 Y137.037 E21.99042
G1 X34.721 Y136.891 E21.99258
G1 X34.382 Y135.184 E22.01822
G1 X33.354 Y133.645 E22.04550
G1 X31.814 Y132.616 E22.07277
G1 X29.751 Y132.205 E22.10376
G1 X29.751 Y42.827 E23.42035
G1 X29.751 Y42.252 F7800.000
G1 X28.751 Y40.251 F7800.000
G1 X161.249 Y40.251 E25.37210 F540.000
G1 X161.249 Y20.250 E25.66672
