; generated by Slic3r 1.0.0RC3 on 2014-03-02 at 22:13:16

; layer_height = 0.25
; perimeters = 3
; top_solid_layers = 4
; bottom_solid_layers = 4
; fill_density = 0.4
; perimeter_speed = 30
; infill_speed = 60
; travel_speed = 130
; nozzle_diameter = 0.5
; filament_diameter = 2.94
; extrusion_multiplier = 1
; perimeters extrusion width = 0.50mm
; infill extrusion width = 0.84mm
; solid infill extrusion width = 0.84mm
; top infill extrusion width = 0.84mm
; first layer extrusion width = 0.40mm

G21 ; set units to millimeters
M107
M190 S110 ; wait for bed temperature to be reached
M104 S220 ; set temperature
G28 ; home all axes
M109 S220 ; wait for temperature to be reached
G90 ; use absolute coordinates
G92 E0
M82 ; use absolute distances for extrusion
G1 F1800.000 E-1.25000
G92 E0
G1 Z0.200 F7800.000
G1 X82.690 Y76.560 F7800.000
G1 E1.25000 F1800.000
G1 X83.960 Y75.510 E1.27046 F540.000
G1 X85.420 Y74.720 E1.29107
G1 X87.010 Y74.240 E1.31169
G1 X88.660 Y74.080 E1.33228
G1 X101.230 Y74.080 E1.48835
G1 X102.860 Y74.240 E1.50869
G1 X104.430 Y74.710 E1.52904
G1 X105.880 Y75.480 E1.54942
G1 X107.160 Y76.520 E1.56990
G1 X113.430 Y82.730 E1.67948
G1 X114.490 Y84.010 E1.70011
G1 X115.270 Y85.470 E1.72067
G1 X115.760 Y87.060 E1.74132
G1 X115.920 Y88.710 E1.76191
G1 X115.920 Y101.170 E1.91662
G1 X115.760 Y102.800 E1.93695
G1 X115.290 Y104.370 E1.95730
G1 X114.520 Y105.820 E1.97769
G1 X113.490 Y107.090 E1.99799
G1 X107.620 Y113.030 E2.10168
G1 X107.020 Y113.600 E2.11196
G1 X105.770 Y114.590 E2.13176
G1 X104.350 Y115.320 E2.15158
G1 X102.810 Y115.770 E2.17150
G1 X101.220 Y115.920 E2.19133
G1 X88.660 Y115.920 E2.34729
G1 X86.990 Y115.750 E2.36813
G1 X85.390 Y115.260 E2.38891
G1 X83.910 Y114.460 E2.40980
G1 X82.630 Y113.380 E2.43059
G1 X76.470 Y107.060 E2.54017
G1 X75.450 Y105.790 E2.56040
G1 X74.700 Y104.350 E2.58056
G1 X74.240 Y102.800 E2.60063
G1 X74.080 Y101.180 E2.62085
G1 X74.080 Y88.700 E2.77580
G1 X74.240 Y87.060 E2.79626
G1 X74.710 Y85.490 E2.81661
G1 X75.490 Y84.040 E2.83706
G1 X76.530 Y82.760 E2.85753
G1 X82.645 Y76.605 E2.96527
G1 F1800.000 E1.71527
G92 E0
G1 X82.547 Y79.977 F7800.000
G1 E1.25000 F1800.000
G1 X86.129 Y76.389 E1.31294 F540.000
G1 X94.643 Y76.389 E1.41866
G1 X94.901 Y76.427 E1.42190
G1 X95.130 Y76.389 E1.42479
G1 X105.437 Y76.389 E1.55276
G1 X107.616 Y82.063 E1.62823
G1 X107.736 Y82.187 E1.63038
G1 X113.611 Y84.648 E1.70946
G1 X113.611 Y103.470 E1.94317
G1 X110.589 Y106.925 E2.00016
G1 X109.140 Y107.120 E2.01832
G1 X108.990 Y107.210 E2.02049
G1 X108.855 Y107.403 E2.02342
G1 X108.747 Y107.622 E2.02645
G1 X108.504 Y108.030 E2.03234
G1 X108.116 Y108.578 E2.04069
G1 X107.961 Y108.861 E2.04469
G1 X107.659 Y109.316 E2.05147
G1 X107.204 Y109.887 E2.06054
G1 X107.016 Y110.190 E2.06496
G1 X106.642 Y110.681 E2.07262
G1 X106.037 Y111.364 E2.08396
G1 X104.584 Y112.741 E2.10881
G1 X102.404 Y113.611 E2.13796
G1 X86.053 Y113.611 E2.34098
G1 X82.444 Y109.847 E2.40573
G1 X82.538 Y107.639 E2.43316
G1 X82.395 Y107.415 E2.43646
G1 X82.111 Y107.307 E2.44023
G1 X81.533 Y107.239 E2.44746
G1 X79.020 Y106.641 E2.47954
G1 X76.389 Y103.310 E2.53224
G1 X76.389 Y87.452 E2.72914
G1 X77.370 Y85.153 E2.76018
G1 X78.892 Y83.695 E2.78634
G1 X79.446 Y83.225 E2.79537
G1 X80.179 Y82.693 E2.80661
G1 X80.716 Y82.234 E2.81539
G1 X81.056 Y81.982 E2.82064
G1 X82.279 Y81.208 E2.83861
G1 X82.462 Y81.071 E2.84145
G1 X82.549 Y80.894 E2.84390
G1 X82.547 Y80.040 E2.85450
G1 X82.969 Y80.151 F7800.000
G1 X86.303 Y76.810 E2.91310 F540.000
G1 X94.597 Y76.810 E3.01608
G1 X94.929 Y76.851 E3.02024
G1 X95.171 Y76.810 E3.02328
G1 X105.147 Y76.810 E3.14715
G1 X107.287 Y82.383 E3.22127
G1 X107.407 Y82.506 E3.22341
G1 X113.190 Y84.928 E3.30125
G1 X113.190 Y103.311 E3.52950
G1 X110.376 Y106.528 E3.58257
G1 X108.903 Y106.727 E3.60103
G1 X108.753 Y106.817 E3.60320
G1 X108.510 Y107.157 E3.60839
G1 X108.150 Y107.799 E3.61753
G1 X107.757 Y108.356 E3.62599
G1 X107.599 Y108.644 E3.63007
G1 X107.318 Y109.068 E3.63639
G1 X106.858 Y109.644 E3.64555
G1 X106.668 Y109.952 E3.65003
G1 X106.320 Y110.409 E3.65717
G1 X105.733 Y111.071 E3.66816
G1 X104.353 Y112.380 E3.69177
G1 X102.323 Y113.190 E3.71891
G1 X86.233 Y113.190 E3.91869
G1 X82.873 Y109.685 E3.97898
G1 X82.961 Y107.621 E4.00463
G1 X82.932 Y107.472 E4.00651
G1 X82.898 Y107.398 E4.00752
G1 X82.693 Y107.117 E4.01184
G1 X82.601 Y107.045 E4.01329
G1 X82.219 Y106.895 E4.01839
G1 X81.606 Y106.823 E4.02604
G1 X79.260 Y106.265 E4.05599
G1 X76.810 Y103.163 E4.10507
G1 X76.810 Y87.538 E4.29907
G1 X77.724 Y85.398 E4.32797
G1 X79.178 Y84.005 E4.35298
G1 X79.710 Y83.554 E4.36162
G1 X80.439 Y83.025 E4.37281
G1 X80.979 Y82.564 E4.38163
G1 X81.296 Y82.329 E4.38653
G1 X82.537 Y81.544 E4.40476
G1 X82.877 Y81.290 E4.41003
G1 X82.971 Y81.108 E4.41258
G1 X82.969 Y80.214 E4.42368
G1 X83.391 Y80.325 F7800.000
G1 X86.478 Y77.232 E4.47794 F540.000
G1 X94.551 Y77.232 E4.57818
G1 X94.686 Y77.261 E4.57989
G1 X94.958 Y77.274 E4.58327
G1 X95.212 Y77.232 E4.58647
G1 X104.858 Y77.232 E4.70624
G1 X106.958 Y82.702 E4.77899
G1 X107.078 Y82.826 E4.78114
G1 X112.768 Y85.209 E4.85773
G1 X112.768 Y103.153 E5.08054
G1 X110.163 Y106.132 E5.12967
G1 X108.650 Y106.335 E5.14863
G1 X108.490 Y106.441 E5.15102
G1 X108.148 Y106.939 E5.15852
G1 X107.797 Y107.569 E5.16748
G1 X107.398 Y108.133 E5.17605
G1 X107.237 Y108.427 E5.18021
G1 X106.977 Y108.820 E5.18605
G1 X106.512 Y109.402 E5.19530
G1 X106.319 Y109.713 E5.19985
G1 X105.997 Y110.137 E5.20646
G1 X105.429 Y110.778 E5.21710
G1 X104.122 Y112.018 E5.23948
G1 X102.242 Y112.768 E5.26461
G1 X86.413 Y112.768 E5.46115
G1 X83.302 Y109.523 E5.51697
G1 X83.378 Y107.517 E5.54189
G1 X83.287 Y107.216 E5.54580
G1 X82.992 Y106.819 E5.55194
G1 X82.821 Y106.679 E5.55468
G1 X82.338 Y106.484 E5.56114
G1 X81.680 Y106.407 E5.56937
G1 X79.500 Y105.888 E5.59720
G1 X77.232 Y103.017 E5.64263
G1 X77.232 Y87.624 E5.83375
G1 X78.078 Y85.642 E5.86051
G1 X79.465 Y84.314 E5.88435
G1 X79.973 Y83.883 E5.89263
G1 X80.699 Y83.357 E5.90376
G1 X81.242 Y82.893 E5.91263
G1 X81.535 Y82.676 E5.91716
G1 X82.769 Y81.898 E5.93527
G1 X83.292 Y81.519 E5.94329
G1 X83.393 Y81.332 E5.94593
G1 X83.391 Y80.388 E5.95765
G1 X83.813 Y80.499 F7800.000
G1 X86.653 Y77.653 E6.00757 F540.000
G1 X94.505 Y77.653 E6.10507
G1 X94.654 Y77.686 E6.10697
G1 X94.986 Y77.698 E6.11109
G1 X95.252 Y77.653 E6.11444
G1 X104.568 Y77.653 E6.23011
G1 X106.629 Y83.021 E6.30150
G1 X106.750 Y83.145 E6.30365
G1 X112.347 Y85.489 E6.37900
G1 X112.347 Y102.995 E6.59636
G1 X109.950 Y105.735 E6.64156
G1 X108.393 Y105.945 E6.66107
G1 X108.232 Y106.050 E6.66346
G1 X108.063 Y106.333 E6.66755
G1 X107.785 Y106.722 E6.67348
G1 X107.443 Y107.339 E6.68225
G1 X107.039 Y107.910 E6.69093
G1 X106.876 Y108.210 E6.69517
G1 X106.636 Y108.571 E6.70055
G1 X106.167 Y109.159 E6.70989
G1 X105.971 Y109.475 E6.71451
G1 X105.675 Y109.864 E6.72058
G1 X105.125 Y110.485 E6.73088
G1 X103.890 Y111.657 E6.75201
G1 X102.161 Y112.347 E6.77513
G1 X86.592 Y112.347 E6.96844
G1 X83.730 Y109.361 E7.01979
G1 X83.802 Y107.474 E7.04324
G1 X83.727 Y107.175 E7.04707
G1 X83.664 Y107.023 E7.04911
G1 X83.308 Y106.536 E7.05660
G1 X83.041 Y106.314 E7.06091
G1 X82.502 Y106.081 E7.06820
G1 X81.754 Y105.992 E7.07756
G1 X79.740 Y105.512 E7.10326
G1 X77.653 Y102.870 E7.14506
G1 X77.653 Y87.711 E7.33330
G1 X78.432 Y85.887 E7.35791
G1 X79.751 Y84.624 E7.38059
G1 X80.236 Y84.212 E7.38849
G1 X80.958 Y83.690 E7.39956
G1 X81.505 Y83.223 E7.40849
G1 X81.775 Y83.023 E7.41266
G1 X83.000 Y82.251 E7.43064
G1 X83.714 Y81.745 E7.44151
G1 X83.815 Y81.558 E7.44414
G1 X83.813 Y80.562 E7.45651
G1 X84.234 Y80.673 F7800.000
G1 X86.828 Y78.075 E7.50209 F540.000
G1 X94.459 Y78.075 E7.59684
G1 X94.623 Y78.111 E7.59893
G1 X95.014 Y78.122 E7.60379
G1 X95.293 Y78.075 E7.60730
G1 X104.278 Y78.075 E7.71887
G1 X106.300 Y83.340 E7.78890
G1 X106.421 Y83.464 E7.79104
G1 X111.925 Y85.769 E7.86515
G1 X111.925 Y102.836 E8.07706
G1 X109.737 Y105.339 E8.11833
G1 X108.123 Y105.556 E8.13856
G1 X107.952 Y105.678 E8.14117
G1 X107.710 Y106.102 E8.14722
G1 X107.423 Y106.504 E8.15337
G1 X107.090 Y107.109 E8.16194
G1 X106.681 Y107.687 E8.17073
G1 X106.514 Y107.993 E8.17505
G1 X106.295 Y108.323 E8.17997
G1 X105.821 Y108.916 E8.18940
G1 X105.623 Y109.237 E8.19408
G1 X105.352 Y109.592 E8.19963
G1 X104.822 Y110.192 E8.20957
G1 X103.659 Y111.295 E8.22947
G1 X102.080 Y111.925 E8.25058
G1 X86.772 Y111.925 E8.44065
G1 X84.159 Y109.199 E8.48754
G1 X84.225 Y107.431 E8.50951
G1 X84.130 Y107.049 E8.51440
G1 X84.070 Y106.891 E8.51650
G1 X84.007 Y106.773 E8.51816
G1 X83.640 Y106.271 E8.52588
G1 X83.260 Y105.949 E8.53206
G1 X82.602 Y105.659 E8.54099
G1 X81.827 Y105.576 E8.55067
G1 X79.980 Y105.136 E8.57424
G1 X78.075 Y102.724 E8.61241
G1 X78.075 Y87.797 E8.79775
G1 X78.785 Y86.132 E8.82023
G1 X80.153 Y84.830 E8.84368
G1 X80.630 Y84.441 E8.85132
G1 X81.233 Y84.011 E8.86052
G1 X81.768 Y83.553 E8.86926
G1 X82.014 Y83.370 E8.87307
G1 X83.232 Y82.605 E8.89092
G1 X83.627 Y82.308 E8.89706
G1 X84.136 Y81.971 E8.90464
G1 X84.236 Y81.784 E8.90728
G1 X84.235 Y80.736 E8.92029
G1 X84.656 Y80.847 F7800.000
G1 X87.003 Y78.496 E8.96153 F540.000
G1 X94.413 Y78.496 E9.05354
G1 X94.592 Y78.535 E9.05581
G1 X95.042 Y78.546 E9.06141
G1 X95.333 Y78.496 E9.06507
G1 X103.989 Y78.496 E9.17255
G1 X106.085 Y83.954 E9.24514
G1 X106.530 Y84.050 E9.25080
G1 X106.590 Y83.992 E9.25184
G1 X111.504 Y86.050 E9.31799
G1 X111.504 Y102.678 E9.52446
G1 X109.524 Y104.942 E9.56180
G1 X107.878 Y105.163 E9.58242
G1 X107.730 Y105.251 E9.58455
G1 X107.608 Y105.424 E9.58718
G1 X107.357 Y105.870 E9.59354
G1 X107.060 Y106.287 E9.59989
G1 X106.736 Y106.879 E9.60828
G1 X106.322 Y107.465 E9.61718
G1 X106.152 Y107.776 E9.62158
G1 X105.954 Y108.074 E9.62603
G1 X105.475 Y108.674 E9.63556
G1 X105.275 Y108.998 E9.64030
G1 X105.030 Y109.320 E9.64532
G1 X104.518 Y109.900 E9.65492
G1 X103.428 Y110.934 E9.67358
G1 X101.999 Y111.504 E9.69268
G1 X86.952 Y111.504 E9.87951
G1 X84.588 Y109.037 E9.92193
G1 X84.649 Y107.388 E9.94242
G1 X84.533 Y106.923 E9.94838
G1 X84.456 Y106.720 E9.95107
G1 X84.367 Y106.552 E9.95344
G1 X83.944 Y105.978 E9.96228
G1 X83.699 Y105.752 E9.96642
G1 X83.479 Y105.584 E9.96986
G1 X82.971 Y105.373 E9.97669
G1 X82.702 Y105.238 E9.98042
G1 X82.606 Y105.215 E9.98165
G1 X82.366 Y105.215 E9.98463
G1 X81.901 Y105.160 E9.99045
G1 X80.220 Y104.760 E10.01190
G1 X78.496 Y102.578 E10.04643
G1 X78.496 Y87.883 E10.22889
G1 X79.139 Y86.377 E10.24923
G1 X80.323 Y85.243 E10.26958
G1 X80.881 Y84.780 E10.27859
G1 X81.493 Y84.343 E10.28792
G1 X82.031 Y83.883 E10.29671
G1 X82.254 Y83.717 E10.30016
G1 X83.463 Y82.958 E10.31789
G1 X83.866 Y82.656 E10.32414
G1 X84.558 Y82.197 E10.33445
G1 X84.658 Y82.010 E10.33709
G1 X84.656 Y80.910 E10.35074
G1 F1800.000 E9.10074
G92 E0
G1 X100.814 Y80.500 F7800.000
G1 X108.035 Y86.778 F7800.000
G1 X99.316 Y88.945 F7800.000
G1 E1.25000 F1800.000
G1 X100.129 Y88.382 E1.26228 F540.000
G1 X100.723 Y88.036 E1.27082
G1 X101.246 Y87.644 E1.27893
G1 X101.876 Y87.247 E1.28818
G1 X102.163 Y87.028 E1.29267
G1 X102.502 Y86.720 E1.29836
G1 X103.160 Y86.235 E1.30850
G1 X103.645 Y85.790 E1.31668
G1 X104.216 Y86.323 E1.32638
G1 X102.994 Y87.858 E1.35074
G1 X102.537 Y88.535 E1.36088
G1 X102.281 Y88.993 E1.36739
G1 X101.673 Y89.877 E1.38072
G1 X101.427 Y90.304 E1.38684
G1 X101.262 Y90.635 E1.39143
G1 X101.121 Y90.830 E1.39441
G1 X100.847 Y90.908 E1.39796
G1 X100.364 Y90.717 E1.40440
G1 X100.271 Y90.646 E1.40585
G1 X99.962 Y90.293 E1.41168
G1 X99.702 Y90.057 E1.41605
G1 X99.415 Y89.645 E1.42227
G1 X99.233 Y89.249 E1.42769
G1 X99.299 Y89.006 E1.43081
G1 X99.853 Y89.093 F7800.000
G1 X100.362 Y88.735 E1.43854 F540.000
G1 X100.949 Y88.392 E1.44698
G1 X101.230 Y88.198 E1.45122
G1 X101.638 Y87.866 E1.45775
G1 X102.170 Y88.302 E1.46629
G1 X101.920 Y88.773 E1.47291
G1 X101.415 Y89.498 E1.48388
G1 X100.967 Y90.258 E1.49484
G1 X100.541 Y90.304 E1.50015
G1 X100.260 Y89.995 E1.50535
G1 X100.033 Y89.788 E1.50916
G1 X99.789 Y89.444 E1.51440
G1 X99.842 Y89.155 E1.51804
G1 X99.121 Y88.569 F7800.000
G1 X98.826 Y88.836 E1.52298 F540.000
G1 X98.758 Y89.049 E1.52576
G1 X98.840 Y89.405 E1.53029
G1 X99.041 Y89.846 E1.53630
G1 X99.371 Y90.325 E1.54353
G1 X99.663 Y90.591 E1.54844
G1 X100.052 Y91.029 E1.55571
G1 X100.957 Y91.430 E1.56800
G1 X101.253 Y91.359 E1.57178
G1 X101.603 Y90.890 E1.57905
G1 X102.034 Y90.095 E1.59027
G1 X102.641 Y89.212 E1.60358
G1 X102.893 Y88.761 E1.60999
G1 X103.339 Y88.101 E1.61988
G1 X104.445 Y86.711 E1.64193
G1 X106.685 Y84.489 E1.68112
G1 X111.082 Y86.330 E1.74031
G1 X111.082 Y102.520 E1.94133
G1 X109.311 Y104.545 E1.97474
G1 X107.644 Y104.770 E1.99562
G1 X107.497 Y104.857 E1.99775
G1 X107.265 Y105.173 E2.00261
G1 X107.005 Y105.639 E2.00925
G1 X106.680 Y106.098 E2.01623
G1 X106.383 Y106.649 E2.02400
G1 X105.963 Y107.242 E2.03302
G1 X105.790 Y107.559 E2.03750
G1 X105.613 Y107.826 E2.04148
G1 X105.130 Y108.431 E2.05110
G1 X104.926 Y108.760 E2.05590
G1 X104.707 Y109.048 E2.06039
G1 X104.214 Y109.607 E2.06965
G1 X103.196 Y110.573 E2.08707
G1 X101.918 Y111.082 E2.10416
G1 X87.132 Y111.082 E2.28775
G1 X85.017 Y108.876 E2.32571
G1 X85.073 Y107.345 E2.34472
G1 X84.936 Y106.797 E2.35174
G1 X84.842 Y106.548 E2.35504
G1 X84.727 Y106.330 E2.35810
G1 X84.248 Y105.685 E2.36807
G1 X83.749 Y105.251 E2.37628
G1 X83.146 Y104.989 E2.38444
G1 X82.833 Y104.824 E2.38885
G1 X82.722 Y104.793 E2.39027
G1 X82.391 Y104.793 E2.39438
G1 X81.974 Y104.744 E2.39959
G1 X80.460 Y104.384 E2.41892
G1 X78.918 Y102.431 E2.44982
G1 X78.918 Y87.969 E2.62939
G1 X79.493 Y86.621 E2.64758
G1 X80.703 Y85.469 E2.66834
G1 X81.132 Y85.118 E2.67521
G1 X81.753 Y84.675 E2.68468
G1 X82.294 Y84.212 E2.69352
G1 X82.493 Y84.064 E2.69660
G1 X83.695 Y83.312 E2.71421
G1 X84.105 Y83.003 E2.72058
G1 X84.830 Y82.517 E2.73143
G1 X85.018 Y82.323 E2.73478
G1 X85.080 Y82.170 E2.73682
G1 X85.078 Y81.021 E2.75110
G1 X87.177 Y78.918 E2.78799
G1 X94.367 Y78.918 E2.87727
G1 X94.560 Y78.960 E2.87972
G1 X95.071 Y78.970 E2.88606
G1 X95.374 Y78.918 E2.88988
G1 X103.699 Y78.918 E2.99325
G1 X105.464 Y83.514 E3.05439
G1 X103.493 Y85.290 E3.08734
G1 X103.179 Y85.646 E3.09323
G1 X102.892 Y85.909 E3.09806
G1 X102.234 Y86.394 E3.10821
G1 X101.893 Y86.705 E3.11394
G1 X101.636 Y86.901 E3.11795
G1 X101.000 Y87.301 E3.12729
G1 X100.496 Y87.680 E3.13511
G1 X99.896 Y88.030 E3.14374
G1 X99.173 Y88.534 E3.15468
G1 X98.859 Y88.237 F7800.000
G1 X98.410 Y88.622 E3.16202 F540.000
G1 X98.321 Y88.801 E3.16451
G1 X98.321 Y89.040 E3.16748
G1 X98.415 Y89.468 E3.17292
G1 X98.666 Y90.046 E3.18075
G1 X99.040 Y90.594 E3.18898
G1 X99.365 Y90.890 E3.19444
G1 X99.686 Y91.270 E3.20062
G1 X99.801 Y91.369 E3.20251
G1 X99.976 Y91.470 E3.20501
G1 X100.514 Y91.683 E3.21219
G1 X100.884 Y91.879 E3.21740
G1 X101.095 Y91.931 E3.22009
G1 X101.202 Y91.924 E3.22142
G1 X101.343 Y91.878 E3.22326
G1 X101.448 Y91.802 E3.22487
G1 X101.965 Y91.109 E3.23561
G1 X102.165 Y90.711 E3.24114
G1 X102.394 Y90.314 E3.24684
G1 X103.002 Y89.432 E3.26013
G1 X103.249 Y88.987 E3.26645
G1 X103.683 Y88.344 E3.27609
G1 X104.766 Y86.985 E3.29766
G1 X106.781 Y84.986 E3.33291
G1 X110.661 Y86.611 E3.38514
G1 X110.661 Y102.362 E3.58071
G1 X109.098 Y104.149 E3.61019
G1 X107.411 Y104.376 E3.63133
G1 X107.263 Y104.463 E3.63346
G1 X106.904 Y104.953 E3.64100
G1 X106.652 Y105.408 E3.64746
G1 X106.318 Y105.880 E3.65464
G1 X106.029 Y106.419 E3.66223
G1 X105.605 Y107.019 E3.67136
G1 X105.429 Y107.342 E3.67592
G1 X105.272 Y107.577 E3.67943
G1 X104.784 Y108.189 E3.68915
G1 X104.578 Y108.522 E3.69401
G1 X104.385 Y108.776 E3.69797
G1 X103.911 Y109.314 E3.70688
G1 X102.965 Y110.211 E3.72306
G1 X101.837 Y110.661 E3.73814
G1 X87.312 Y110.661 E3.91849
G1 X85.445 Y108.714 E3.95199
G1 X85.502 Y107.362 E3.96878
G1 X85.339 Y106.671 E3.97760
G1 X85.237 Y106.399 E3.98121
G1 X85.104 Y106.136 E3.98487
G1 X84.681 Y105.544 E3.99391
G1 X84.552 Y105.392 E3.99637
G1 X83.993 Y104.906 E4.00557
G1 X83.862 Y104.830 E4.00745
G1 X83.322 Y104.606 E4.01471
G1 X82.950 Y104.402 E4.01998
G1 X82.839 Y104.372 E4.02141
G1 X82.415 Y104.372 E4.02667
G1 X82.048 Y104.329 E4.03126
G1 X80.700 Y104.008 E4.04846
G1 X79.339 Y102.285 E4.07573
G1 X79.339 Y88.055 E4.25241
G1 X79.847 Y86.866 E4.26846
