; generated by Slic3r 0.9.9 on 2014-01-29 at 21:03:40

; layer_height = 0.4
; perimeters = 3
; top_solid_layers = 3
; bottom_solid_layers = 3
; fill_density = 0.1
; perimeter_speed = 30
; infill_speed = 60
; travel_speed = 130
; nozzle_diameter = 0.5
; filament_diameter = 3
; extrusion_multiplier = 1
; perimeters extrusion width = 0.53mm
; infill extrusion width = 0.53mm
; solid infill extrusion width = 0.53mm
; top infill extrusion width = 0.53mm
; first layer extrusion width = 0.60mm

G21 ; set units to millimeters
M190 S120 ; wait for bed temperature to be reached
M104 S205 ; set temperature
G28 ; home all axes
M109 S205 ; wait for temperature to be reached
G90 ; use absolute coordinates
G92 E0
M82 ; use absolute distances for extrusion
M106 S89
G1 F1800.000 E-1.25000
G92 E0
G1 Z0.100 F7800.000
G1 X73.850 Y74.370
G1 F1800.000 E1.25000
G1 X74.640 Y73.600 F540.000 E1.25903
G1 X74.910 Y73.360 E1.26199
G1 X75.490 Y72.910 E1.26799
G1 X76.090 Y72.490 E1.27399
G1 X76.710 Y72.110 E1.27994
G1 X77.350 Y71.760 E1.28591
G1 X78.020 Y71.450 E1.29195
G1 X79.040 Y71.060 E1.30089
G1 X79.740 Y70.850 E1.30687
G1 X80.460 Y70.680 E1.31293
G1 X81.180 Y70.550 E1.31892
G1 X81.900 Y70.470 E1.32484
G1 X82.270 Y70.440 E1.32788
G1 X83.000 Y70.420 E1.33386
G1 X107.000 Y70.420 E1.53029
G1 X107.730 Y70.440 E1.53627
G1 X108.100 Y70.470 E1.53931
G1 X108.820 Y70.550 E1.54524
G1 X109.180 Y70.610 E1.54822
G1 X110.260 Y70.850 E1.55728
G1 X111.300 Y71.180 E1.56621
G1 X112.320 Y71.600 E1.57524
G1 X112.970 Y71.930 E1.58120
G1 X113.600 Y72.290 E1.58714
G1 X113.910 Y72.490 E1.59016
G1 X114.800 Y73.130 E1.59913
G1 X115.090 Y73.360 E1.60216
G1 X115.630 Y73.850 E1.60813
G1 X116.400 Y74.640 E1.61716
G1 X116.640 Y74.910 E1.62012
G1 X117.090 Y75.490 E1.62613
G1 X117.510 Y76.090 E1.63212
G1 X117.890 Y76.710 E1.63807
G1 X118.240 Y77.350 E1.64404
G1 X118.550 Y78.020 E1.65008
G1 X118.940 Y79.040 E1.65902
G1 X119.150 Y79.740 E1.66500
G1 X119.320 Y80.460 E1.67106
G1 X119.450 Y81.180 E1.67705
G1 X119.530 Y81.900 E1.68298
G1 X119.560 Y82.270 E1.68601
G1 X119.580 Y83.000 E1.69199
G1 X119.580 Y107.000 E1.88842
G1 X119.560 Y107.730 E1.89440
G1 X119.530 Y108.100 E1.89744
G1 X119.450 Y108.820 E1.90337
G1 X119.390 Y109.180 E1.90636
G1 X119.150 Y110.260 E1.91541
G1 X118.820 Y111.300 E1.92434
G1 X118.400 Y112.320 E1.93337
G1 X118.070 Y112.970 E1.93934
G1 X117.710 Y113.600 E1.94527
G1 X117.510 Y113.910 E1.94829
G1 X116.870 Y114.800 E1.95727
G1 X116.640 Y115.090 E1.96030
G1 X116.150 Y115.630 E1.96626
G1 X115.360 Y116.400 E1.97529
G1 X115.090 Y116.640 E1.97825
G1 X114.510 Y117.090 E1.98426
G1 X113.910 Y117.510 E1.99025
G1 X113.290 Y117.890 E1.99620
G1 X112.650 Y118.240 E2.00217
G1 X111.980 Y118.550 E2.00822
G1 X110.960 Y118.940 E2.01715
G1 X110.260 Y119.150 E2.02314
G1 X109.540 Y119.320 E2.02919
G1 X108.820 Y119.450 E2.03518
G1 X108.100 Y119.530 E2.04111
G1 X107.730 Y119.560 E2.04415
G1 X107.000 Y119.580 E2.05012
G1 X83.000 Y119.580 E2.24656
G1 X82.270 Y119.560 E2.25253
G1 X81.900 Y119.530 E2.25557
G1 X81.180 Y119.450 E2.26150
G1 X80.820 Y119.390 E2.26449
G1 X79.740 Y119.150 E2.27354
G1 X78.700 Y118.820 E2.28247
G1 X77.680 Y118.400 E2.29150
G1 X77.030 Y118.070 E2.29747
G1 X76.400 Y117.710 E2.30341
G1 X76.090 Y117.510 E2.30643
G1 X75.200 Y116.870 E2.31540
G1 X74.910 Y116.640 E2.31843
G1 X74.370 Y116.150 E2.32440
G1 X73.600 Y115.360 E2.33342
G1 X73.360 Y115.090 E2.33638
G1 X72.910 Y114.510 E2.34239
G1 X72.490 Y113.910 E2.34838
G1 X72.110 Y113.290 E2.35434
G1 X71.760 Y112.650 E2.36031
G1 X71.450 Y111.980 E2.36635
G1 X71.060 Y110.960 E2.37529
G1 X70.850 Y110.260 E2.38127
G1 X70.680 Y109.540 E2.38732
G1 X70.550 Y108.820 E2.39331
G1 X70.470 Y108.100 E2.39924
G1 X70.440 Y107.730 E2.40228
G1 X70.420 Y107.000 E2.40826
G1 X70.420 Y83.000 E2.60469
G1 X70.440 Y82.270 E2.61066
G1 X70.470 Y81.900 E2.61370
G1 X70.550 Y81.180 E2.61963
G1 X70.610 Y80.820 E2.62262
G1 X70.850 Y79.740 E2.63167
G1 X71.180 Y78.700 E2.64060
G1 X71.600 Y77.680 E2.64963
G1 X71.930 Y77.030 E2.65560
G1 X72.290 Y76.400 E2.66154
G1 X72.490 Y76.090 E2.66456
G1 X73.130 Y75.200 E2.67353
G1 X73.360 Y74.910 E2.67656
G1 X73.791 Y74.434 E2.68182
G1 F1800.000 E1.43182
G92 E0
G1 X75.768 Y80.005 F7800.000
G1 F1800.000 E1.25000
G1 X80.005 Y75.768 F540.000 E1.29903
G1 X109.995 Y75.768 E1.54450
G1 X114.232 Y80.005 E1.59353
G1 X114.232 Y109.995 E1.83900
G1 X109.995 Y114.232 E1.88803
G1 X80.005 Y114.232 E2.13350
G1 X75.768 Y109.995 E2.18253
G1 X75.768 Y80.091 E2.42729
G1 X76.347 Y80.244 F7800.000
G1 X80.244 Y76.347 F540.000 E2.47240
G1 X109.756 Y76.347 E2.71395
G1 X113.653 Y80.244 E2.75906
G1 X113.653 Y109.756 E3.00060
G1 X109.756 Y113.653 E3.04571
G1 X80.244 Y113.653 E3.28725
G1 X76.347 Y109.756 E3.33237
G1 X76.347 Y80.331 E3.57320
G1 X76.925 Y80.484 F7800.000
G1 X80.484 Y76.925 F540.000 E3.61439
G1 X109.516 Y76.925 E3.85201
G1 X113.075 Y80.484 E3.89320
G1 X113.075 Y109.516 E4.13082
G1 X109.516 Y113.075 E4.17201
G1 X80.484 Y113.075 E4.40963
G1 X76.925 Y109.516 E4.45082
G1 X76.925 Y80.571 E4.68773
G1 X77.504 Y80.723 F7800.000
G1 X80.723 Y77.504 F540.000 E4.72499
G1 X109.277 Y77.504 E4.95869
G1 X112.496 Y80.723 E4.99596
G1 X112.496 Y109.277 E5.22965
G1 X109.277 Y112.496 E5.26692
G1 X80.723 Y112.496 E5.50062
G1 X77.504 Y109.277 E5.53788
G1 X77.504 Y80.810 E5.77087
G1 X78.082 Y80.963 F7800.000
G1 X80.963 Y78.082 F540.000 E5.80421
G1 X109.037 Y78.082 E6.03399
G1 X111.918 Y80.963 E6.06733
G1 X111.918 Y109.037 E6.29711
G1 X109.037 Y111.918 E6.33045
G1 X80.963 Y111.918 E6.56023
G1 X78.082 Y109.037 E6.59357
G1 X78.082 Y81.050 E6.82263
G1 X78.661 Y81.203 F7800.000
G1 X81.203 Y78.661 F540.000 E6.85205
G1 X108.797 Y78.661 E7.07791
G1 X111.339 Y81.203 E7.10733
G1 X111.339 Y108.797 E7.33318
G1 X108.797 Y111.339 E7.36260
G1 X81.203 Y111.339 E7.58845
G1 X78.661 Y108.797 E7.61787
G1 X78.661 Y81.289 E7.84301
G1 X79.239 Y81.442 F7800.000
G1 X81.442 Y79.239 F540.000 E7.86851
G1 X108.558 Y79.239 E8.09044
G1 X110.761 Y81.442 E8.11594
G1 X110.761 Y108.558 E8.33787
G1 X108.558 Y110.761 E8.36337
G1 X81.442 Y110.761 E8.58530
G1 X79.239 Y108.558 E8.61079
G1 X79.239 Y81.529 E8.83201
G1 X79.818 Y81.682 F7800.000
G1 X81.682 Y79.818 F540.000 E8.85359
G1 X108.318 Y79.818 E9.07160
G1 X110.182 Y81.682 E9.09317
G1 X110.182 Y108.318 E9.31118
G1 X108.318 Y110.182 E9.33275
G1 X81.682 Y110.182 E9.55076
G1 X79.818 Y108.318 E9.57234
G1 X79.818 Y81.769 E9.78963
G1 X80.397 Y81.922 F7800.000
G1 X81.922 Y80.397 F540.000 E9.80728
G1 X108.078 Y80.397 E10.02137
G1 X109.603 Y81.922 E10.03902
G1 X109.603 Y108.078 E10.25310
G1 X108.078 Y109.603 E10.27076
G1 X81.922 Y109.603 E10.48484
G1 X80.397 Y108.078 E10.50249
G1 X80.397 Y82.008 E10.71587
G1 X80.975 Y82.161 F7800.000
G1 X82.161 Y80.975 F540.000 E10.72960
G1 X107.839 Y80.975 E10.93976
G1 X109.025 Y82.161 E10.95349
G1 X109.025 Y107.839 E11.16365
G1 X107.839 Y109.025 E11.17738
G1 X82.161 Y109.025 E11.38754
G1 X80.975 Y107.839 E11.40127
G1 X80.975 Y82.248 E11.61072
G1 X81.554 Y82.401 F7800.000
G1 X82.401 Y81.554 F540.000 E11.62053
G1 X107.599 Y81.554 E11.82677
G1 X108.446 Y82.401 E11.83657
G1 X108.446 Y107.599 E12.04281
G1 X107.599 Y108.446 E12.05262
G1 X82.401 Y108.446 E12.25886
G1 X81.554 Y107.599 E12.26866
G1 X81.554 Y82.488 E12.47419
G1 X82.132 Y82.641 F7800.000
G1 X82.641 Y82.132 F540.000 E12.48008
G1 X107.359 Y82.132 E12.68239
G1 X107.868 Y82.641 E12.68828
G1 X107.868 Y107.359 E12.89059
G1 X107.359 Y107.868 E12.89648
G1 X82.641 Y107.868 E13.09879
G1 X82.132 Y107.359 E13.10468
G1 X82.132 Y82.727 E13.30628
G1 X82.711 Y82.880 F7800.000
G1 X82.880 Y82.711 F540.000 E13.30824
G1 X107.120 Y82.711 E13.50664
G1 X107.289 Y82.880 E13.50860
G1 X107.289 Y107.120 E13.70699
G1 X107.120 Y107.289 E13.70895
G1 X82.880 Y107.289 E13.90735
G1 X82.711 Y107.120 E13.90931
G1 X82.711 Y82.967 E14.10699
G1 X83.289 Y83.289 F7800.000
G1 X106.711 Y83.289 F378.000 E14.29869
G1 X106.711 Y106.711 E14.49039
G1 X83.289 Y106.711 E14.68208
G1 X83.289 Y83.376 E14.87307
G1 X83.790 Y83.579 F7800.000
G1 X83.868 Y83.868
G1 X106.132 Y83.868 F540.000 E15.05530
G1 X106.132 Y106.132 E15.23752
G1 X83.868 Y106.132 E15.41975
G1 X83.868 Y83.955 E15.60126
G1 X105.554 Y84.446 F7800.000
G1 X105.554 Y105.554 F540.000 E15.77402
G1 X84.446 Y105.554 E15.94678
G1 X84.446 Y84.446 E16.11953
G1 X105.467 Y84.446 E16.29158
G1 X105.134 Y84.866 F7800.000
G1 X104.307 Y84.866 F1080.000 E16.29843
G1 X105.134 Y85.693 E16.30811
G1 X105.134 Y86.520 E16.31496
G1 X103.480 Y84.866 E16.33432
G1 X102.652 Y84.866 E16.34117
G1 X105.134 Y87.348 E16.37022
G1 X105.134 Y88.175 E16.37706
G1 X101.825 Y84.866 E16.41580
G1 X100.998 Y84.866 E16.42264
G1 X105.134 Y89.002 E16.47105
G1 X105.134 Y89.830 E16.47790
G1 X100.170 Y84.866 E16.53600
G1 X99.343 Y84.866 E16.54284
G1 X105.134 Y90.657 E16.61062
G1 X105.134 Y91.484 E16.61747
G1 X98.516 Y84.866 E16.69493
G1 X97.689 Y84.866 E16.70177
G1 X105.134 Y92.311 E16.78892
G1 X105.134 Y93.139 E16.79576
G1 X96.861 Y84.866 E16.89259
G1 X96.034 Y84.866 E16.89943
G1 X105.134 Y93.966 E17.00594
G1 X105.134 Y94.793 E17.01279
G1 X95.207 Y84.866 E17.12898
G1 X94.379 Y84.866 E17.13582
G1 X105.134 Y95.621 E17.26169
G1 X105.134 Y96.448 E17.26854
G1 X93.552 Y84.866 E17.40409
G1 X92.725 Y84.866 E17.41094
G1 X105.134 Y97.275 E17.55618
G1 X105.134 Y98.102 E17.56302
G1 X91.898 Y84.866 E17.71794
G1 X91.070 Y84.866 E17.72479
G1 X105.134 Y98.930 E17.88939
G1 X105.134 Y99.757 E17.89623
G1 X90.243 Y84.866 E18.07052
G1 X89.416 Y84.866 E18.07736
G1 X105.134 Y100.584 E18.26133
G1 X105.134 Y101.412 E18.26818
G1 X88.588 Y84.866 E18.46182
G1 X87.761 Y84.866 E18.46867
G1 X105.134 Y102.239 E18.67200
G1 X105.134 Y103.066 E18.67885
G1 X86.934 Y84.866 E18.89186
G1 X86.107 Y84.866 E18.89870
G1 X105.134 Y103.893 E19.12140
G1 X105.134 Y104.721 E19.12825
G1 X85.279 Y84.866 E19.36062
G1 X84.866 Y85.279 E19.36546
G1 X104.721 Y105.134 E19.59784
G1 X103.893 Y105.134 E19.60469
G1 X84.866 Y86.107 E19.82738
G1 X84.866 Y86.934 E19.83423
G1 X103.066 Y105.134 E20.04724
G1 X102.239 Y105.134 E20.05409
G1 X84.866 Y87.761 E20.25742
G1 X84.866 Y88.588 E20.26426
G1 X101.412 Y105.134 E20.45791
G1 X100.584 Y105.134 E20.46476
G1 X84.866 Y89.416 E20.64872
G1 X84.866 Y90.243 E20.65557
G1 X99.757 Y105.134 E20.82985
G1 X98.930 Y105.134 E20.83670
G1 X84.866 Y91.070 E21.00130
G1 X84.866 Y91.898 E21.00815
G1 X98.102 Y105.134 E21.16307
G1 X97.275 Y105.134 E21.16991
G1 X84.866 Y92.725 E21.31515
G1 X84.866 Y93.552 E21.32200
G1 X96.448 Y105.134 E21.45755
G1 X95.621 Y105.134 E21.46440
G1 X84.866 Y94.379 E21.59027
G1 X84.866 Y95.207 E21.59712
G1 X94.793 Y105.134 E21.71331
G1 X93.966 Y105.134 E21.72015
G1 X84.866 Y96.034 E21.82666
G1 X84.866 Y96.861 E21.83351
G1 X93.139 Y105.134 E21.93033
G1 X92.311 Y105.134 E21.93718
G1 X84.866 Y97.689 E22.02432
G1 X84.866 Y98.516 E22.03117
G1 X91.484 Y105.134 E22.10863
G1 X90.657 Y105.134 E22.11548
G1 X84.866 Y99.343 E22.18325
G1 X84.866 Y100.170 E22.19010
G1 X89.830 Y105.134 E22.24820
G1 X89.002 Y105.134 E22.25504
G1 X84.866 Y100.998 E22.30346
G1 X84.866 Y101.825 E22.31030
G1 X88.175 Y105.134 E22.34903
G1 X87.348 Y105.134 E22.35588
G1 X84.866 Y102.652 E22.38493
G1 X84.866 Y103.480 E22.39178
G1 X86.520 Y105.134 E22.41114
G1 X85.693 Y105.134 E22.41799
G1 X84.866 Y104.307 E22.42767
G1 X84.866 Y105.134 E22.43452
M106 S255
G1 F1800.000 E21.18452
G92 E0
G1 Z0.200 F7800.000
G1 X105.701 Y84.299
G1 F1800.000 E1.25000
G1 X105.701 Y105.701 F1477.502 E1.40733
G1 X84.299 Y105.701 E1.56466
G1 X84.299 Y84.299 E1.72200
G1 X105.623 Y84.299 E1.87875
G1 X106.221 Y83.779 F7800.000
G1 X106.221 Y106.221 F1477.502 E2.04373
G1 X83.779 Y106.221 E2.20870
G1 X83.779 Y83.779 E2.37367
G1 X106.143 Y83.779 E2.53807
G1 X106.740 Y83.260 F7800.000
G1 X106.740 Y106.740 F1034.251 E2.71068
G1 X83.260 Y106.740 E2.88329
G1 X83.260 Y83.260 E3.05591
G1 X106.662 Y83.260 E3.22794
G1 X106.480 Y83.710 F7800.000
G1 X105.324 Y105.324
G1 X104.587 Y105.324 F2955.003 E3.23339
G1 X105.324 Y104.587 E3.24108
G1 X105.324 Y103.849 E3.24652
G1 X103.849 Y105.324 E3.26191
G1 X103.112 Y105.324 E3.26735
G1 X105.324 Y103.112 E3.29043
G1 X105.324 Y102.374 E3.29587
G1 X102.374 Y105.324 E3.32665
G1 X101.637 Y105.324 E3.33209
G1 X105.324 Y101.637 E3.37056
G1 X105.324 Y100.899 E3.37600
G1 X100.899 Y105.324 E3.42216
G1 X100.162 Y105.324 E3.42760
G1 X105.324 Y100.162 E3.48146
G1 X105.324 Y99.425 E3.48690
G1 X99.425 Y105.324 E3.54845
G1 X98.687 Y105.324 E3.55389
G1 X105.324 Y98.687 E3.62313
G1 X105.324 Y97.950 E3.62857
G1 X97.950 Y105.324 E3.70551
G1 X97.212 Y105.324 E3.71095
G1 X105.324 Y97.212 E3.79558
G1 X105.324 Y96.475 E3.80102
G1 X96.475 Y105.324 E3.89335
G1 X95.737 Y105.324 E3.89879
G1 X105.324 Y95.737 E3.99881
G1 X105.324 Y95.000 E4.00425
G1 X95.000 Y105.324 E4.11196
G1 X94.262 Y105.324 E4.11740
G1 X105.324 Y94.262 E4.23280
G1 X105.324 Y93.525 E4.23824
G1 X93.525 Y105.324 E4.36134
G1 X92.788 Y105.324 E4.36678
G1 X105.324 Y92.788 E4.49757
G1 X105.324 Y92.050 E4.50301
G1 X92.050 Y105.324 E4.64150
G1 X91.313 Y105.324 E4.64694
G1 X105.324 Y91.313 E4.79312
G1 X105.324 Y90.575 E4.79856
G1 X90.575 Y105.324 E4.95243
G1 X89.838 Y105.324 E4.95787
G1 X105.324 Y89.838 E5.11944
G1 X105.324 Y89.100 E5.12488
G1 X89.100 Y105.324 E5.29414
G1 X88.363 Y105.324 E5.29958
G1 X105.324 Y88.363 E5.47653
G1 X105.324 Y87.625 E5.48197
G1 X87.625 Y105.324 E5.66662
G1 X86.888 Y105.324 E5.67206
G1 X105.324 Y86.888 E5.86440
G1 X105.324 Y86.151 E5.86984
G1 X86.151 Y105.324 E6.06987
G1 X85.413 Y105.324 E6.07531
G1 X105.324 Y85.413 E6.28304
G1 X105.324 Y84.676 E6.28848
G1 X84.676 Y105.324 E6.50390
G1 X84.676 Y104.587 E6.50934
G1 X104.587 Y84.676 E6.71707
G1 X103.849 Y84.676 E6.72251
G1 X84.676 Y103.849 E6.92254
G1 X84.676 Y103.112 E6.92798
G1 X103.112 Y84.676 E7.12032
G1 X102.374 Y84.676 E7.12576
G1 X84.676 Y102.374 E7.31040
G1 X84.676 Y101.637 E7.31584
G1 X101.637 Y84.676 E7.49280
G1 X100.900 Y84.676 E7.49824
G1 X84.676 Y100.900 E7.66750
G1 X84.676 Y100.162 E7.67294
G1 X100.162 Y84.676 E7.83450
G1 X99.425 Y84.676 E7.83994
G1 X84.676 Y99.425 E7.99381
G1 X84.676 Y98.687 E7.99925
G1 X98.687 Y84.676 E8.14543
G1 X97.950 Y84.676 E8.15087
G1 X84.676 Y97.950 E8.28936
G1 X84.676 Y97.212 E8.29480
G1 X97.212 Y84.676 E8.42559
G1 X96.475 Y84.676 E8.43103
G1 X84.676 Y96.475 E8.55413
G1 X84.676 Y95.737 E8.55957
G1 X95.737 Y84.676 E8.67497
G1 X95.000 Y84.676 E8.68041
G1 X84.676 Y95.000 E8.78812
G1 X84.676 Y94.263 E8.79356
G1 X94.263 Y84.676 E8.89358
G1 X93.525 Y84.676 E8.89902
G1 X84.676 Y93.525 E8.99134
G1 X84.676 Y92.788 E8.99678
G1 X92.788 Y84.676 E9.08141
G1 X92.050 Y84.676 E9.08685
G1 X84.676 Y92.050 E9.16379
G1 X84.676 Y91.313 E9.16923
G1 X91.313 Y84.676 E9.23847
G1 X90.575 Y84.676 E9.24391
G1 X84.676 Y90.575 E9.30546
G1 X84.676 Y89.838 E9.31090
G1 X89.838 Y84.676 E9.36476
G1 X89.100 Y84.676 E9.37020
G1 X84.676 Y89.100 E9.41636
G1 X84.676 Y88.363 E9.42180
G1 X88.363 Y84.676 E9.46027
G1 X87.626 Y84.676 E9.46571
G1 X84.676 Y87.626 E9.49649
G1 X84.676 Y86.888 E9.50193
G1 X86.888 Y84.676 E9.52501
G1 X86.151 Y84.676 E9.53045
G1 X84.676 Y86.151 E9.54584
G1 X84.676 Y85.413 E9.55128
G1 X85.413 Y84.676 E9.55897
G1 X84.676 Y84.676 E9.56441
G1 F1800.000 E8.31441
G92 E0
G1 Z0.300 F7800.000
G1 X105.701 Y84.299
G1 F1800.000 E1.25000
G1 X105.701 Y105.701 F1477.502 E1.40733
G1 X84.299 Y105.701 E1.56466
G1 X84.299 Y84.299 E1.72200
G1 X105.623 Y84.299 E1.87875
G1 X106.221 Y83.779 F7800.000
G1 X106.221 Y106.221 F1477.502 E2.04373
G1 X83.779 Y106.221 E2.20870
G1 X83.779 Y83.779 E2.37367
G1 X106.143 Y83.779 E2.53807
G1 X106.740 Y83.260 F7800.000
G1 X106.740 Y106.740 F1034.251 E2.71068
G1 X83.260 Y106.740 E2.88329
G1 X83.260 Y83.260 E3.05591
G1 X106.662 Y83.260 E3.22794
G1 X106.480 Y83.710 F7800.000
G1 X105.324 Y84.676
G1 X105.324 Y85.413 F2955.003 E3.23339
G1 X104.587 Y84.676 E3.24108
G1 X103.849 Y84.676 E3.24652
G1 X105.324 Y86.151 E3.26191
G1 X105.324 Y86.888 E3.26735
G1 X103.112 Y84.676 E3.29043
G1 X102.374 Y84.676 E3.29587
G1 X105.324 Y87.626 E3.32665
G1 X105.324 Y88.363 E3.33209
G1 X101.637 Y84.676 E3.37056
G1 X100.900 Y84.676 E3.37600
G1 X105.324 Y89.100 E3.42216
G1 X105.324 Y89.838 E3.42760
G1 X100.162 Y84.676 E3.48145
G1 X99.425 Y84.676 E3.48689
G1 X105.324 Y90.575 E3.54844
