; generated by Slic3r 0.9.9 on 2014-01-28 at 23:11:06

; layer_height = 0.1
; perimeters = 3
; top_solid_layers = 3
; bottom_solid_layers = 3
; fill_density = 0.4
; perimeter_speed = 30
; infill_speed = 60
; travel_speed = 130
; nozzle_diameter = 0.5
; filament_diameter = 3
; extrusion_multiplier = 1
; perimeters extrusion width = 0.85mm
; infill extrusion width = 1.98mm
; solid infill extrusion width = 0.85mm
; top infill extrusion width = 0.85mm
; first layer extrusion width = 0.60mm

G21 ; set units to millimeters
M190 S120 ; wait for bed temperature to be reached
M104 S205 ; set temperature
G28 ; home all axes
M109 S205 ; wait for temperature to be reached
G90 ; use absolute coordinates
G92 E0
M82 ; use absolute distances for extrusion
M106 S89
G1 F1800.000 E-1.25000
G92 E0
G1 Z0.400 F7800.000
G1 X73.850 Y74.370
G1 F1800.000 E1.25000
G1 X74.640 Y73.600 F540.000 E1.28612
G1 X74.910 Y73.360 E1.29794
G1 X75.490 Y72.910 E1.32198
G1 X76.090 Y72.490 E1.34595
G1 X76.710 Y72.110 E1.36976
G1 X77.350 Y71.760 E1.39364
G1 X78.020 Y71.450 E1.41781
G1 X79.040 Y71.060 E1.45356
G1 X79.740 Y70.850 E1.47749
G1 X80.460 Y70.680 E1.50171
G1 X81.180 Y70.550 E1.52566
G1 X81.900 Y70.470 E1.54938
G1 X82.270 Y70.440 E1.56153
G1 X83.000 Y70.420 E1.58544
G1 X107.000 Y70.420 E2.37117
G1 X107.730 Y70.440 E2.39508
G1 X108.100 Y70.470 E2.40723
G1 X108.820 Y70.550 E2.43095
G1 X109.180 Y70.610 E2.44289
G1 X110.260 Y70.850 E2.47911
G1 X111.300 Y71.180 E2.51484
G1 X112.320 Y71.600 E2.55095
G1 X112.970 Y71.930 E2.57481
G1 X113.600 Y72.290 E2.59857
G1 X113.910 Y72.490 E2.61065
G1 X114.800 Y73.130 E2.64654
G1 X115.090 Y73.360 E2.65865
G1 X115.630 Y73.850 E2.68253
G1 X116.400 Y74.640 E2.71864
G1 X116.640 Y74.910 E2.73047
G1 X117.090 Y75.490 E2.75450
G1 X117.510 Y76.090 E2.77848
G1 X117.890 Y76.710 E2.80229
G1 X118.240 Y77.350 E2.82617
G1 X118.550 Y78.020 E2.85034
G1 X118.940 Y79.040 E2.88609
G1 X119.150 Y79.740 E2.91002
G1 X119.320 Y80.460 E2.93424
G1 X119.450 Y81.180 E2.95819
G1 X119.530 Y81.900 E2.98191
G1 X119.560 Y82.270 E2.99406
G1 X119.580 Y83.000 E3.01797
G1 X119.580 Y107.000 E3.80369
G1 X119.560 Y107.730 E3.82760
G1 X119.530 Y108.100 E3.83976
G1 X119.450 Y108.820 E3.86347
G1 X119.390 Y109.180 E3.87542
G1 X119.150 Y110.260 E3.91164
G1 X118.820 Y111.300 E3.94736
G1 X118.400 Y112.320 E3.98348
G1 X118.070 Y112.970 E4.00734
G1 X117.710 Y113.600 E4.03110
G1 X117.510 Y113.910 E4.04317
G1 X116.870 Y114.800 E4.07906
G1 X116.640 Y115.090 E4.09118
G1 X116.150 Y115.630 E4.11505
G1 X115.360 Y116.400 E4.15117
G1 X115.090 Y116.640 E4.16300
G1 X114.510 Y117.090 E4.18703
G1 X113.910 Y117.510 E4.21101
G1 X113.290 Y117.890 E4.23482
G1 X112.650 Y118.240 E4.25870
G1 X111.980 Y118.550 E4.28287
G1 X110.960 Y118.940 E4.31862
G1 X110.260 Y119.150 E4.34254
G1 X109.540 Y119.320 E4.36676
G1 X108.820 Y119.450 E4.39072
G1 X108.100 Y119.530 E4.41443
G1 X107.730 Y119.560 E4.42659
G1 X107.000 Y119.580 E4.45049
G1 X83.000 Y119.580 E5.23622
G1 X82.270 Y119.560 E5.26013
G1 X81.900 Y119.530 E5.27228
G1 X81.180 Y119.450 E5.29600
G1 X80.820 Y119.390 E5.30795
G1 X79.740 Y119.150 E5.34417
G1 X78.700 Y118.820 E5.37989
G1 X77.680 Y118.400 E5.41600
G1 X77.030 Y118.070 E5.43987
G1 X76.400 Y117.710 E5.46362
G1 X76.090 Y117.510 E5.47570
G1 X75.200 Y116.870 E5.51159
G1 X74.910 Y116.640 E5.52371
G1 X74.370 Y116.150 E5.54758
G1 X73.600 Y115.360 E5.58370
G1 X73.360 Y115.090 E5.59552
G1 X72.910 Y114.510 E5.61956
G1 X72.490 Y113.910 E5.64353
G1 X72.110 Y113.290 E5.66734
G1 X71.760 Y112.650 E5.69122
G1 X71.450 Y111.980 E5.71539
G1 X71.060 Y110.960 E5.75114
G1 X70.850 Y110.260 E5.77507
G1 X70.680 Y109.540 E5.79929
G1 X70.550 Y108.820 E5.82324
G1 X70.470 Y108.100 E5.84696
G1 X70.440 Y107.730 E5.85911
G1 X70.420 Y107.000 E5.88302
G1 X70.420 Y83.000 E6.66875
G1 X70.440 Y82.270 E6.69266
G1 X70.470 Y81.900 E6.70481
G1 X70.550 Y81.180 E6.72853
G1 X70.610 Y80.820 E6.74047
G1 X70.850 Y79.740 E6.77670
G1 X71.180 Y78.700 E6.81242
G1 X71.600 Y77.680 E6.84853
G1 X71.930 Y77.030 E6.87240
G1 X72.290 Y76.400 E6.89615
G1 X72.490 Y76.090 E6.90823
G1 X73.130 Y75.200 E6.94412
G1 X73.360 Y74.910 E6.95624
G1 X73.791 Y74.434 E6.97727
G1 F1800.000 E5.72727
G92 E0
G1 X75.768 Y80.005 F7800.000
G1 F1800.000 E1.25000
G1 X80.005 Y75.768 F540.000 E1.44614
G1 X109.995 Y75.768 E2.42800
G1 X114.232 Y80.005 E2.62414
G1 X114.232 Y109.995 E3.60600
G1 X109.995 Y114.232 E3.80214
G1 X80.005 Y114.232 E4.78400
G1 X75.768 Y109.995 E4.98014
G1 X75.768 Y80.091 E5.95916
G1 X76.347 Y80.244 F7800.000
G1 X80.244 Y76.347 F540.000 E6.13961
G1 X109.756 Y76.347 E7.10578
G1 X113.653 Y80.244 E7.28623
G1 X113.653 Y109.756 E8.25240
G1 X109.756 Y113.653 E8.43284
G1 X80.244 Y113.653 E9.39902
G1 X76.347 Y109.756 E9.57946
G1 X76.347 Y80.331 E10.54280
G1 X76.925 Y80.484 F7800.000
G1 X80.484 Y76.925 F540.000 E10.70755
G1 X109.516 Y76.925 E11.65803
G1 X113.075 Y80.484 E11.82279
G1 X113.075 Y109.516 E12.77327
G1 X109.516 Y113.075 E12.93802
G1 X80.484 Y113.075 E13.88851
G1 X76.925 Y109.516 E14.05326
G1 X76.925 Y80.571 E15.00090
G1 X77.504 Y80.723 F7800.000
G1 X80.723 Y77.504 F540.000 E15.14997
G1 X109.277 Y77.504 E16.08476
G1 X112.496 Y80.723 E16.23382
G1 X112.496 Y109.277 E17.16861
G1 X109.277 Y112.496 E17.31768
G1 X80.723 Y112.496 E18.25247
G1 X77.504 Y109.277 E18.40153
G1 X77.504 Y80.810 E19.33348
G1 X78.082 Y80.963 F7800.000
G1 X80.963 Y78.082 F540.000 E19.46686
G1 X109.037 Y78.082 E20.38596
G1 X111.918 Y80.963 E20.51933
G1 X111.918 Y109.037 E21.43843
G1 X109.037 Y111.918 E21.57180
G1 X80.963 Y111.918 E22.49090
G1 X78.082 Y109.037 E22.62428
G1 X78.082 Y81.050 E23.54053
G1 X78.661 Y81.203 F7800.000
G1 X81.203 Y78.661 F540.000 E23.65822
G1 X108.797 Y78.661 E24.56163
G1 X111.339 Y81.203 E24.67931
G1 X111.339 Y108.797 E25.58272
G1 X108.797 Y111.339 E25.70040
G1 X81.203 Y111.339 E26.60381
G1 X78.661 Y108.797 E26.72149
G1 X78.661 Y81.289 E27.62206
G1 X79.239 Y81.442 F7800.000
G1 X81.442 Y79.239 F540.000 E27.72405
G1 X108.558 Y79.239 E28.61177
G1 X110.761 Y81.442 E28.71376
G1 X110.761 Y108.558 E29.60148
G1 X108.558 Y110.761 E29.70347
G1 X81.442 Y110.761 E30.59119
G1 X79.239 Y108.558 E30.69318
G1 X79.239 Y81.529 E31.57806
G1 X79.818 Y81.682 F7800.000
G1 X81.682 Y79.818 F540.000 E31.66436
G1 X108.318 Y79.818 E32.53638
G1 X110.182 Y81.682 E32.62268
G1 X110.182 Y108.318 E33.49471
G1 X108.318 Y110.182 E33.58101
G1 X81.682 Y110.182 E34.45304
G1 X79.818 Y108.318 E34.53934
G1 X79.818 Y81.769 E35.40853
G1 X80.397 Y81.922 F7800.000
G1 X81.922 Y80.397 F540.000 E35.47914
G1 X108.078 Y80.397 E36.33547
G1 X109.603 Y81.922 E36.40608
G1 X109.603 Y108.078 E37.26242
G1 X108.078 Y109.603 E37.33303
G1 X81.922 Y109.603 E38.18936
G1 X80.397 Y108.078 E38.25997
G1 X80.397 Y82.008 E39.11347
G1 X80.975 Y82.161 F7800.000
G1 X82.161 Y80.975 F540.000 E39.16839
G1 X107.839 Y80.975 E40.00903
G1 X109.025 Y82.161 E40.06395
G1 X109.025 Y107.839 E40.90460
G1 X107.839 Y109.025 E40.95952
G1 X82.161 Y109.025 E41.80016
G1 X80.975 Y107.839 E41.85508
G1 X80.975 Y82.248 E42.69289
G1 X81.554 Y82.401 F7800.000
G1 X82.401 Y81.554 F540.000 E42.73211
G1 X107.599 Y81.554 E43.55707
G1 X108.446 Y82.401 E43.59629
G1 X108.446 Y107.599 E44.42125
G1 X107.599 Y108.446 E44.46048
G1 X82.401 Y108.446 E45.28543
G1 X81.554 Y107.599 E45.32466
G1 X81.554 Y82.488 E46.14677
G1 X82.132 Y82.641 F7800.000
G1 X82.641 Y82.132 F540.000 E46.17031
G1 X107.359 Y82.132 E46.97957
G1 X107.868 Y82.641 E47.00311
G1 X107.868 Y107.359 E47.81237
G1 X107.359 Y107.868 E47.83591
G1 X82.641 Y107.868 E48.64517
G1 X82.132 Y107.359 E48.66871
G1 X82.132 Y82.727 E49.47513
G1 X82.711 Y82.880 F7800.000
G1 X82.880 Y82.711 F540.000 E49.48298
G1 X107.120 Y82.711 E50.27655
G1 X107.289 Y82.880 E50.28440
G1 X107.289 Y107.120 E51.07797
G1 X107.120 Y107.289 E51.08582
G1 X82.880 Y107.289 E51.87939
G1 X82.711 Y107.120 E51.88724
G1 X82.711 Y82.967 E52.67797
G1 X83.289 Y83.289 F7800.000
G1 X106.711 Y83.289 F378.000 E53.44475
G1 X106.711 Y106.711 E54.21154
G1 X83.289 Y106.711 E54.97833
G1 X83.289 Y83.376 E55.74227
G1 X83.790 Y83.579 F7800.000
G1 X83.868 Y83.868
G1 X106.132 Y83.868 F540.000 E56.47118
G1 X106.132 Y106.132 E57.20009
G1 X83.868 Y106.132 E57.92899
G1 X83.868 Y83.955 E58.65506
G1 X105.554 Y105.554 F7800.000
G1 X84.446 Y105.554 F540.000 E59.34608
G1 X84.446 Y84.446 E60.03711
G1 X105.554 Y84.446 E60.72813
G1 X105.554 Y105.467 E61.41632
G1 X105.134 Y84.866 F7800.000
G1 X104.307 Y84.866 F1080.000 E61.44371
G1 X105.134 Y85.693 E61.48244
G1 X105.134 Y86.520 E61.50983
G1 X103.480 Y84.866 E61.58729
G1 X102.652 Y84.866 E61.61468
G1 X105.134 Y87.348 E61.73087
G1 X105.134 Y88.175 E61.75826
G1 X101.825 Y84.866 E61.91318
G1 X100.998 Y84.866 E61.94057
G1 X105.134 Y89.002 E62.13422
G1 X105.134 Y89.830 E62.16161
G1 X100.170 Y84.866 E62.39399
G1 X99.343 Y84.866 E62.42137
G1 X105.134 Y90.657 E62.69248
G1 X105.134 Y91.484 E62.71987
G1 X98.516 Y84.866 E63.02971
G1 X97.689 Y84.866 E63.05710
G1 X105.134 Y92.311 E63.40566
G1 X105.134 Y93.139 E63.43305
G1 X96.861 Y84.866 E63.82035
G1 X96.034 Y84.866 E63.84773
G1 X105.134 Y93.966 E64.27376
G1 X105.134 Y94.793 E64.30115
G1 X95.207 Y84.866 E64.76590
G1 X94.379 Y84.866 E64.79329
G1 X105.134 Y95.621 E65.29678
G1 X105.134 Y96.448 E65.32416
G1 X93.552 Y84.866 E65.86638
G1 X92.725 Y84.866 E65.89376
G1 X105.134 Y97.275 E66.47471
G1 X105.134 Y98.102 E66.50209
G1 X91.898 Y84.866 E67.12177
G1 X91.070 Y84.866 E67.14915
G1 X105.134 Y98.930 E67.80755
G1 X105.134 Y99.757 E67.83494
G1 X90.243 Y84.866 E68.53207
G1 X89.416 Y84.866 E68.55946
G1 X105.134 Y100.584 E69.29532
G1 X105.134 Y101.412 E69.32270
G1 X88.588 Y84.866 E70.09729
G1 X87.761 Y84.866 E70.12468
G1 X105.134 Y102.239 E70.93800
G1 X105.134 Y103.066 E70.96538
G1 X86.934 Y84.866 E71.81743
G1 X86.107 Y84.866 E71.84482
G1 X105.134 Y103.893 E72.73560
G1 X105.134 Y104.721 E72.76298
G1 X85.279 Y84.866 E73.69249
G1 X84.866 Y85.279 E73.71185
G1 X104.721 Y105.134 E74.64136
G1 X103.893 Y105.134 E74.66875
G1 X84.866 Y86.107 E75.55953
G1 X84.866 Y86.934 E75.58691
G1 X103.066 Y105.134 E76.43896
G1 X102.239 Y105.134 E76.46635
G1 X84.866 Y87.761 E77.27967
G1 X84.866 Y88.588 E77.30706
G1 X101.412 Y105.134 E78.08165
G1 X100.584 Y105.134 E78.10904
G1 X84.866 Y89.416 E78.84490
G1 X84.866 Y90.243 E78.87229
G1 X99.757 Y105.134 E79.56942
G1 X98.930 Y105.134 E79.59681
G1 X84.866 Y91.070 E80.25521
G1 X84.866 Y91.898 E80.28260
G1 X98.102 Y105.134 E80.90227
G1 X97.275 Y105.134 E80.92966
G1 X84.866 Y92.725 E81.51060
G1 X84.866 Y93.552 E81.53799
G1 X96.448 Y105.134 E82.08021
G1 X95.621 Y105.134 E82.10759
G1 X84.866 Y94.379 E82.61108
G1 X84.866 Y95.207 E82.63847
G1 X94.793 Y105.134 E83.10323
G1 X93.966 Y105.134 E83.13061
G1 X84.866 Y96.034 E83.55664
G1 X84.866 Y96.861 E83.58403
G1 X93.139 Y105.134 E83.97133
G1 X92.311 Y105.134 E83.99872
G1 X84.866 Y97.689 E84.34729
G1 X84.866 Y98.516 E84.37467
G1 X91.484 Y105.134 E84.68452
G1 X90.657 Y105.134 E84.71190
G1 X84.866 Y99.343 E84.98301
G1 X84.866 Y100.170 E85.01040
G1 X89.830 Y105.134 E85.24278
G1 X89.002 Y105.134 E85.27017
G1 X84.866 Y100.998 E85.46383
G1 X84.866 Y101.825 E85.49121
G1 X88.175 Y105.134 E85.64614
G1 X87.348 Y105.134 E85.67352
G1 X84.866 Y102.652 E85.78972
G1 X84.866 Y103.480 E85.81711
G1 X86.520 Y105.134 E85.89457
G1 X85.693 Y105.134 E85.92196
G1 X84.866 Y104.307 E85.96070
G1 X84.866 Y105.134 E85.98809
M106 S255
G1 F1800.000 E84.73809
G92 E0
G1 Z0.800 F7800.000
G1 X104.929 Y104.929
G1 F1800.000 E1.25000
G1 X85.071 Y104.929 F1040.425 E2.18102
G1 X85.071 Y85.071 E3.11205
G1 X104.929 Y85.071 E4.04307
G1 X104.929 Y104.804 E4.96827
G1 X105.757 Y105.757 F7800.000
G1 X84.243 Y105.757 F1040.425 E5.97699
G1 X84.243 Y84.243 E6.98571
G1 X105.757 Y84.243 E7.99443
G1 X105.757 Y105.633 E8.99732
G1 X106.586 Y106.586 F7800.000
G1 X83.414 Y106.586 F728.297 E10.08373
G1 X83.414 Y83.414 E11.17014
G1 X106.586 Y83.414 E12.25655
G1 X106.586 Y106.461 E13.33714
G1 X105.868 Y106.171 F7800.000
G1 X104.328 Y104.328
G1 X103.124 Y104.328 F2080.850 E13.39511
G1 X104.328 Y103.124 E13.47711
G1 X104.328 Y101.921 E13.53507
G1 X101.921 Y104.328 E13.69904
G1 X100.717 Y104.328 E13.75701
G1 X104.328 Y100.717 E14.00296
G1 X104.328 Y99.513 E14.06093
G1 X99.513 Y104.328 E14.38886
G1 X98.310 Y104.328 E14.44682
G1 X104.328 Y98.310 E14.85673
G1 X104.328 Y97.106 E14.91470
G1 X97.106 Y104.328 E15.40658
G1 X95.903 Y104.328 E15.46455
G1 X104.328 Y95.903 E16.03841
G1 X104.328 Y94.699 E16.09638
G1 X94.699 Y104.328 E16.75222
G1 X93.495 Y104.328 E16.81019
G1 X104.328 Y93.495 E17.54801
G1 X104.328 Y92.292 E17.60598
G1 X92.292 Y104.328 E18.42578
G1 X91.088 Y104.328 E18.48375
G1 X104.328 Y91.088 E19.38552
G1 X104.328 Y89.885 E19.44349
G1 X89.885 Y104.328 E20.42725
G1 X88.681 Y104.328 E20.48522
G1 X104.328 Y88.681 E21.55095
G1 X104.328 Y87.477 E21.60892
G1 X87.477 Y104.328 E22.75663
G1 X86.274 Y104.328 E22.81460
G1 X104.328 Y86.274 E24.04429
G1 X103.726 Y85.672 E24.08528
G1 X85.672 Y103.726 E25.31497
G1 X85.672 Y102.523 E25.37294
G1 X102.523 Y85.672 E26.52065
G1 X101.319 Y85.672 E26.57862
G1 X85.672 Y101.319 E27.64435
G1 X85.672 Y100.115 E27.70232
G1 X100.115 Y85.672 E28.68607
G1 X98.912 Y85.672 E28.74404
G1 X85.672 Y98.912 E29.64581
G1 X85.672 Y97.708 E29.70378
G1 X97.708 Y85.672 E30.52358
G1 X96.505 Y85.672 E30.58155
G1 X85.672 Y96.505 E31.31936
G1 X85.672 Y95.301 E31.37733
G1 X95.301 Y85.672 E32.03317
G1 X94.097 Y85.672 E32.09114
G1 X85.672 Y94.097 E32.66500
G1 X85.672 Y92.894 E32.72297
G1 X92.894 Y85.672 E33.21485
G1 X91.690 Y85.672 E33.27282
G1 X85.672 Y91.690 E33.68272
G1 X85.672 Y90.487 E33.74069
G1 X90.487 Y85.672 E34.06861
G1 X89.283 Y85.672 E34.12658
G1 X85.672 Y89.283 E34.37253
G1 X85.672 Y88.079 E34.43050
G1 X88.079 Y85.672 E34.59447
G1 X86.876 Y85.672 E34.65243
G1 X85.672 Y86.876 E34.73442
G1 X85.672 Y85.672 E34.79240
G1 F1800.000 E33.54240
G92 E0
G1 Z1.200 F7800.000
G1 X85.071 Y85.071
G1 F1800.000 E1.25000
G1 X104.929 Y85.071 F1040.425 E2.18102
G1 X104.929 Y104.929 E3.11205
G1 X85.071 Y104.929 E4.04307
G1 X85.071 Y85.196 E4.96827
G1 X84.243 Y84.243 F7800.000
G1 X105.757 Y84.243 F1040.425 E5.97699
G1 X105.757 Y105.757 E6.98571
G1 X84.243 Y105.757 E7.99443
G1 X84.243 Y84.367 E8.99732
G1 X83.414 Y83.414 F7800.000
G1 X106.586 Y83.414 F728.297 E10.08373
G1 X106.586 Y106.586 E11.17014
G1 X83.414 Y106.586 E12.25655
G1 X83.414 Y83.539 E13.33714
G1 X84.132 Y83.829 F7800.000
G1 X104.328 Y85.672
G1 X103.124 Y85.672 F2080.850 E13.39511
G1 X104.328 Y86.876 E13.47710
G1 X104.328 Y88.079 E13.53507
G1 X101.921 Y85.672 E13.69904
G1 X100.717 Y85.672 E13.75701
G1 X104.328 Y89.283 E14.00295
G1 X104.328 Y90.487 E14.06092
G1 X99.513 Y85.672 E14.38885
G1 X98.310 Y85.672 E14.44681
G1 X104.328 Y91.690 E14.85672
G1 X104.328 Y92.894 E14.91469
G1 X97.106 Y85.672 E15.40657
G1 X95.903 Y85.672 E15.46454
G1 X104.328 Y94.097 E16.03840
G1 X104.328 Y95.301 E16.09636
G1 X94.699 Y85.672 E16.75220
G1 X93.495 Y85.672 E16.81017
G1 X104.328 Y96.505 E17.54799
G1 X104.328 Y97.708 E17.60596
G1 X92.292 Y85.672 E18.42575
G1 X91.088 Y85.672 E18.48372
G1 X104.328 Y98.912 E19.38550
G1 X104.328 Y100.115 E19.44346
G1 X89.885 Y85.672 E20.42722
G1 X88.681 Y85.672 E20.48519
G1 X104.328 Y101.319 E21.55092
G1 X104.328 Y102.523 E21.60889
G1 X87.477 Y85.672 E22.75660
G1 X86.274 Y85.672 E22.81457
G1 X104.328 Y103.726 E24.04425
G1 X103.726 Y104.328 E24.08524
G1 X85.672 Y86.274 E25.31494
G1 X85.672 Y87.477 E25.37290
G1 X102.523 Y104.328 E26.52062
G1 X101.319 Y104.328 E26.57858
G1 X85.672 Y88.681 E27.64432
G1 X85.672 Y89.885 E27.70229
G1 X100.115 Y104.328 E28.68604
G1 X98.912 Y104.328 E28.74401
G1 X85.672 Y91.088 E29.64579
G1 X85.672 Y92.292 E29.70376
G1 X97.708 Y104.328 E30.52356
G1 X96.505 Y104.328 E30.58152
G1 X85.672 Y93.495 E31.31934
G1 X85.672 Y94.699 E31.37731
G1 X95.301 Y104.328 E32.03315
G1 X94.097 Y104.328 E32.09112
G1 X85.672 Y95.903 E32.66498
G1 X85.672 Y97.106 E32.72295
G1 X92.894 Y104.328 E33.21484
G1 X91.690 Y104.328 E33.27280
G1 X85.672 Y98.310 E33.68271
G1 X85.672 Y99.513 E33.74068
G1 X90.487 Y104.328 E34.06861
G1 X89.283 Y104.328 E34.12657
G1 X85.672 Y100.717 E34.37252
G1 X85.672 Y101.921 E34.43049
G1 X88.079 Y104.328 E34.59446
G1 X86.876 Y104.328 E34.65243
G1 X85.672 Y103.124 E34.73442
