; generated by Slic3r 0.9.9 on 2014-01-25 at 18:40:51

; layer_height = 0.4
; perimeters = 3
; top_solid_layers = 3
; bottom_solid_layers = 3
; fill_density = 0.4
; perimeter_speed = 30
; infill_speed = 60
; travel_speed = 130
; nozzle_diameter = 0.5
; filament_diameter = 3
; extrusion_multiplier = 1
; perimeters extrusion width = 0.53mm
; infill extrusion width = 0.53mm
; solid infill extrusion width = 0.53mm
; top infill extrusion width = 0.53mm
; first layer extrusion width = 0.60mm

G21 ; set units to millimeters
M190 S110 ; wait for bed temperature to be reached
M104 S205 ; set temperature
G28 ; home all axes
M109 S205 ; wait for temperature to be reached
G90 ; use absolute coordinates
G92 E0
M82 ; use absolute distances for extrusion
M106 S89
G1 F1800.000 E-4.00000
G92 E0
G1 Z0.300 F7800.000
G1 X31.260 Y27.777
G1 F1800.000 E4.00000
G1 X31.840 Y27.237 F540.000 E4.01946
G1 X32.260 Y26.927 E4.03228
G1 X32.940 Y26.507 E4.05190
G1 X33.420 Y26.287 E4.06487
G1 X34.170 Y26.017 E4.08444
G1 X34.680 Y25.887 E4.09736
G1 X35.470 Y25.777 E4.11695
G1 X36.000 Y25.757 E4.12997
G1 X154.000 Y25.757 E7.02734
G1 X154.530 Y25.777 E7.04036
G1 X155.320 Y25.887 E7.05995
G1 X155.830 Y26.017 E7.07287
G1 X156.580 Y26.287 E7.09244
G1 X157.060 Y26.507 E7.10541
G1 X157.740 Y26.927 E7.12503
G1 X158.160 Y27.237 E7.13785
G1 X158.740 Y27.777 E7.15731
G1 X159.100 Y28.177 E7.17052
G1 X159.560 Y28.817 E7.18987
G1 X159.830 Y29.277 E7.20297
G1 X160.050 Y29.757 E7.21594
G1 X160.320 Y30.507 E7.23551
G1 X160.450 Y31.017 E7.24843
G1 X160.560 Y31.807 E7.26802
G1 X160.580 Y32.337 E7.28104
G1 X160.580 Y157.667 E10.35839
G1 X160.560 Y158.197 E10.37141
G1 X160.450 Y158.987 E10.39100
G1 X160.320 Y159.497 E10.40392
G1 X160.050 Y160.247 E10.42349
G1 X159.830 Y160.727 E10.43646
G1 X159.410 Y161.407 E10.45608
G1 X159.100 Y161.827 E10.46890
G1 X158.560 Y162.407 E10.48836
G1 X158.160 Y162.767 E10.50157
G1 X157.520 Y163.227 E10.52093
G1 X157.060 Y163.497 E10.53402
G1 X156.580 Y163.717 E10.54699
G1 X155.830 Y163.987 E10.56656
G1 X155.320 Y164.117 E10.57948
G1 X154.530 Y164.227 E10.59907
G1 X154.000 Y164.247 E10.61209
G1 X36.000 Y164.247 E13.50946
G1 X35.470 Y164.227 E13.52248
G1 X34.680 Y164.117 E13.54207
G1 X34.170 Y163.987 E13.55499
G1 X33.420 Y163.717 E13.57456
G1 X32.940 Y163.497 E13.58753
G1 X32.260 Y163.077 E13.60715
G1 X31.840 Y162.767 E13.61997
G1 X31.260 Y162.227 E13.63943
G1 X30.900 Y161.827 E13.65264
G1 X30.440 Y161.187 E13.67200
G1 X30.170 Y160.727 E13.68509
G1 X29.950 Y160.247 E13.69806
G1 X29.680 Y159.497 E13.71763
G1 X29.550 Y158.987 E13.73055
G1 X29.440 Y158.197 E13.75014
G1 X29.420 Y157.667 E13.76316
G1 X29.420 Y32.337 E16.84051
G1 X29.440 Y31.807 E16.85353
G1 X29.550 Y31.017 E16.87312
G1 X29.680 Y30.507 E16.88604
G1 X29.850 Y30.007 E16.89901
G1 X30.170 Y29.277 E16.91858
G1 X30.440 Y28.817 E16.93168
G1 X30.900 Y28.177 E16.95103
G1 X31.202 Y27.841 E16.96211
G1 F1800.000 E12.96211
G92 E0
G1 X37.446 Y135.113 F7800.000
G1 F1800.000 E4.00000
G1 X58.554 Y135.113 F540.000 E4.51827
G1 X58.554 Y156.220 E5.03654
G1 X37.446 Y156.220 E5.55481
G1 X37.446 Y135.200 E6.07094
G1 X36.868 Y134.534 F7800.000
G1 X59.132 Y134.534 F540.000 E6.61762
G1 X59.132 Y156.799 E7.16430
G1 X36.868 Y156.799 E7.71098
G1 X36.868 Y134.621 E8.25553
G1 X36.289 Y133.956 F7800.000
G1 X59.711 Y133.956 F378.000 E8.83062
G1 X59.711 Y157.377 E9.40571
G1 X36.289 Y157.377 E9.98080
G1 X36.289 Y134.043 E10.55376
G1 X36.790 Y134.245 F7800.000
G1 X58.134 Y135.532
G1 X57.307 Y135.532 F1080.000 E10.57430
G1 X58.134 Y136.360 E10.60336
G1 X58.134 Y137.187 E10.62389
G1 X56.480 Y135.532 E10.68199
G1 X55.652 Y135.532 E10.70253
G1 X58.134 Y138.014 E10.78968
G1 X58.134 Y138.842 E10.81022
G1 X54.825 Y135.532 E10.92641
G1 X53.998 Y135.532 E10.94695
G1 X58.134 Y139.669 E11.09219
G1 X58.134 Y140.496 E11.11273
G1 X53.170 Y135.532 E11.28701
G1 X52.343 Y135.532 E11.30755
G1 X58.134 Y141.323 E11.51089
G1 X58.134 Y142.151 E11.53143
G1 X51.516 Y135.532 E11.76381
G1 X50.689 Y135.532 E11.78435
G1 X58.134 Y142.978 E12.04577
G1 X58.134 Y143.805 E12.06631
G1 X49.861 Y135.532 E12.35679
G1 X49.034 Y135.532 E12.37733
G1 X58.134 Y144.633 E12.69685
G1 X58.134 Y145.460 E12.71739
G1 X48.207 Y135.532 E13.06595
G1 X47.379 Y135.532 E13.08649
G1 X58.134 Y146.287 E13.46411
G1 X58.134 Y147.114 E13.48465
G1 X46.552 Y135.532 E13.89131
G1 X45.725 Y135.532 E13.91185
G1 X58.134 Y147.942 E14.34755
G1 X58.134 Y148.769 E14.36809
G1 X44.898 Y135.532 E14.83285
G1 X44.070 Y135.532 E14.85339
G1 X58.134 Y149.596 E15.34719
G1 X58.134 Y150.424 E15.36773
G1 X43.243 Y135.532 E15.89058
G1 X42.416 Y135.532 E15.91112
G1 X58.134 Y151.251 E16.46301
G1 X58.134 Y152.078 E16.48355
G1 X41.588 Y135.532 E17.06449
G1 X40.761 Y135.532 E17.08503
G1 X58.134 Y152.905 E17.69502
G1 X58.134 Y153.733 E17.71556
G1 X39.934 Y135.532 E18.35460
G1 X39.107 Y135.532 E18.37514
G1 X58.134 Y154.560 E19.04322
G1 X58.134 Y155.387 E19.06376
G1 X38.279 Y135.532 E19.76089
G1 X37.866 Y135.946 E19.77541
G1 X57.721 Y155.801 E20.47255
G1 X56.893 Y155.801 E20.49309
G1 X37.866 Y136.773 E21.16117
G1 X37.866 Y137.601 E21.18171
G1 X56.066 Y155.801 E21.82075
G1 X55.239 Y155.801 E21.84129
G1 X37.866 Y138.428 E22.45128
G1 X37.866 Y139.255 E22.47182
G1 X54.412 Y155.801 E23.05276
G1 X53.584 Y155.801 E23.07330
G1 X37.866 Y140.082 E23.62520
G1 X37.866 Y140.910 E23.64574
G1 X52.757 Y155.801 E24.16859
G1 X51.930 Y155.801 E24.18913
G1 X37.866 Y141.737 E24.68293
G1 X37.866 Y142.564 E24.70347
G1 X51.102 Y155.801 E25.16823
G1 X50.275 Y155.801 E25.18877
G1 X37.866 Y143.392 E25.62448
G1 X37.866 Y144.219 E25.64502
G1 X49.448 Y155.801 E26.05168
G1 X48.621 Y155.801 E26.07222
G1 X37.866 Y145.046 E26.44984
G1 X37.866 Y145.873 E26.47038
G1 X47.793 Y155.801 E26.81895
G1 X46.966 Y155.801 E26.83948
G1 X37.866 Y146.701 E27.15901
G1 X37.866 Y147.528 E27.17955
G1 X46.139 Y155.801 E27.47002
G1 X45.311 Y155.801 E27.49056
G1 X37.866 Y148.355 E27.75199
G1 X37.866 Y149.183 E27.77253
G1 X44.484 Y155.801 E28.00491
G1 X43.657 Y155.801 E28.02545
G1 X37.866 Y150.010 E28.22879
G1 X37.866 Y150.837 E28.24933
G1 X42.830 Y155.801 E28.42361
G1 X42.002 Y155.801 E28.44415
G1 X37.866 Y151.664 E28.58939
G1 X37.866 Y152.492 E28.60993
G1 X41.175 Y155.801 E28.72613
G1 X40.348 Y155.801 E28.74667
G1 X37.866 Y153.319 E28.83381
G1 X37.866 Y154.146 E28.85435
G1 X39.520 Y155.801 E28.91245
G1 X38.693 Y155.801 E28.93299
G1 X37.866 Y154.974 E28.96205
G1 X37.866 Y155.801 E28.98259
G1 F1800.000 E24.98259
G92 E0
G1 X34.757 Y160.667 F7800.000
G1 X61.243 Y160.667
G1 X128.757 Y130.667
G1 X155.243 Y130.667
G1 X152.554 Y135.113
G1 F1800.000 E4.00000
G1 X152.554 Y156.220 F540.000 E4.51827
G1 X131.446 Y156.220 E5.03654
G1 X131.446 Y135.113 E5.55481
G1 X152.467 Y135.113 E6.07094
G1 X153.132 Y134.534 F7800.000
G1 X153.132 Y156.799 F540.000 E6.61762
G1 X130.868 Y156.799 E7.16430
G1 X130.868 Y134.534 E7.71098
G1 X153.045 Y134.534 E8.25553
G1 X153.711 Y133.956 F7800.000
G1 X153.711 Y157.377 F378.000 E8.83062
G1 X130.289 Y157.377 E9.40571
G1 X130.289 Y133.956 E9.98080
G1 X153.624 Y133.956 E10.55376
G1 X153.421 Y134.457 F7800.000
G1 X152.134 Y135.532
G1 X151.307 Y135.532 F1080.000 E10.57430
G1 X152.134 Y136.360 E10.60336
G1 X152.134 Y137.187 E10.62389
G1 X150.480 Y135.532 E10.68199
G1 X149.652 Y135.532 E10.70253
G1 X152.134 Y138.014 E10.78968
G1 X152.134 Y138.842 E10.81022
G1 X148.825 Y135.532 E10.92641
G1 X147.998 Y135.532 E10.94695
G1 X152.134 Y139.669 E11.09219
G1 X152.134 Y140.496 E11.11273
G1 X147.170 Y135.532 E11.28701
G1 X146.343 Y135.532 E11.30755
G1 X152.134 Y141.323 E11.51089
G1 X152.134 Y142.151 E11.53143
G1 X145.516 Y135.532 E11.76381
G1 X144.689 Y135.532 E11.78435
G1 X152.134 Y142.978 E12.04577
G1 X152.134 Y143.805 E12.06631
G1 X143.861 Y135.532 E12.35679
G1 X143.034 Y135.532 E12.37733
G1 X152.134 Y144.633 E12.69685
G1 X152.134 Y145.460 E12.71739
G1 X142.207 Y135.532 E13.06595
G1 X141.379 Y135.532 E13.08649
G1 X152.134 Y146.287 E13.46411
G1 X152.134 Y147.114 E13.48465
G1 X140.552 Y135.532 E13.89131
G1 X139.725 Y135.532 E13.91185
G1 X152.134 Y147.942 E14.34755
G1 X152.134 Y148.769 E14.36809
G1 X138.898 Y135.532 E14.83285
G1 X138.070 Y135.532 E14.85339
G1 X152.134 Y149.596 E15.34719
G1 X152.134 Y150.424 E15.36773
G1 X137.243 Y135.532 E15.89058
G1 X136.416 Y135.532 E15.91112
G1 X152.134 Y151.251 E16.46301
G1 X152.134 Y152.078 E16.48355
G1 X135.588 Y135.532 E17.06449
G1 X134.761 Y135.532 E17.08503
G1 X152.134 Y152.905 E17.69502
G1 X152.134 Y153.733 E17.71556
G1 X133.934 Y135.532 E18.35460
G1 X133.107 Y135.532 E18.37514
G1 X152.134 Y154.560 E19.04322
G1 X152.134 Y155.387 E19.06376
G1 X132.279 Y135.532 E19.76089
G1 X131.866 Y135.946 E19.77541
G1 X151.721 Y155.801 E20.47255
G1 X150.893 Y155.801 E20.49309
G1 X131.866 Y136.773 E21.16117
G1 X131.866 Y137.601 E21.18171
G1 X150.066 Y155.801 E21.82075
G1 X149.239 Y155.801 E21.84129
G1 X131.866 Y138.428 E22.45128
G1 X131.866 Y139.255 E22.47182
G1 X148.412 Y155.801 E23.05276
G1 X147.584 Y155.801 E23.07330
G1 X131.866 Y140.082 E23.62520
G1 X131.866 Y140.910 E23.64574
G1 X146.757 Y155.801 E24.16859
G1 X145.930 Y155.801 E24.18913
G1 X131.866 Y141.737 E24.68293
G1 X131.866 Y142.564 E24.70347
G1 X145.102 Y155.801 E25.16823
G1 X144.275 Y155.801 E25.18877
G1 X131.866 Y143.392 E25.62448
G1 X131.866 Y144.219 E25.64502
G1 X143.448 Y155.801 E26.05168
G1 X142.621 Y155.801 E26.07222
G1 X131.866 Y145.046 E26.44984
G1 X131.866 Y145.873 E26.47038
G1 X141.793 Y155.801 E26.81895
G1 X140.966 Y155.801 E26.83948
G1 X131.866 Y146.701 E27.15901
G1 X131.866 Y147.528 E27.17955
G1 X140.139 Y155.801 E27.47002
G1 X139.311 Y155.801 E27.49056
G1 X131.866 Y148.355 E27.75199
G1 X131.866 Y149.183 E27.77253
G1 X138.484 Y155.801 E28.00491
G1 X137.657 Y155.801 E28.02545
G1 X131.866 Y150.010 E28.22879
G1 X131.866 Y150.837 E28.24933
G1 X136.830 Y155.801 E28.42361
G1 X136.002 Y155.801 E28.44415
G1 X131.866 Y151.664 E28.58939
G1 X131.866 Y152.492 E28.60993
G1 X135.175 Y155.801 E28.72613
G1 X134.348 Y155.801 E28.74667
G1 X131.866 Y153.319 E28.83381
G1 X131.866 Y154.146 E28.85435
G1 X133.520 Y155.801 E28.91245
G1 X132.693 Y155.801 E28.93299
G1 X131.866 Y154.974 E28.96205
G1 X131.866 Y155.801 E28.98259
G1 F1800.000 E24.98259
G92 E0
G1 X128.757 Y160.667 F7800.000
G1 X127.000 Y158.909
G1 X127.000 Y132.424
G1 X155.243 Y59.333
G1 X152.554 Y54.887
G1 F1800.000 E4.00000
G1 X131.446 Y54.887 F540.000 E4.51827
G1 X131.446 Y33.780 E5.03654
G1 X152.554 Y33.780 E5.55481
G1 X152.554 Y54.800 E6.07094
G1 X153.132 Y55.466 F7800.000
G1 X130.868 Y55.466 F540.000 E6.61762
G1 X130.868 Y33.201 E7.16430
G1 X153.132 Y33.201 E7.71098
G1 X153.132 Y55.379 E8.25553
G1 X153.711 Y56.044 F7800.000
G1 X130.289 Y56.044 F378.000 E8.83062
G1 X130.289 Y32.623 E9.40571
G1 X153.711 Y32.623 E9.98080
G1 X153.711 Y55.957 E10.55376
G1 X153.210 Y55.755 F7800.000
G1 X131.866 Y54.468
G1 X131.866 Y53.640 F1080.000 E10.57431
G1 X132.693 Y54.468 E10.60336
G1 X133.520 Y54.468 E10.62390
G1 X131.866 Y52.813 E10.68200
G1 X131.866 Y51.986 E10.70254
G1 X134.348 Y54.468 E10.78969
G1 X135.175 Y54.468 E10.81022
G1 X131.866 Y51.158 E10.92642
G1 X131.866 Y50.331 E10.94696
G1 X136.002 Y54.468 E11.09220
G1 X136.830 Y54.468 E11.11274
G1 X131.866 Y49.504 E11.28703
G1 X131.866 Y48.676 E11.30757
G1 X137.657 Y54.468 E11.51090
G1 X138.484 Y54.468 E11.53144
G1 X131.866 Y47.849 E11.76382
G1 X131.866 Y47.022 E11.78436
G1 X139.311 Y54.468 E12.04579
G1 X140.139 Y54.468 E12.06633
G1 X131.866 Y46.195 E12.35681
G1 X131.866 Y45.367 E12.37735
G1 X140.966 Y54.468 E12.69687
G1 X141.793 Y54.468 E12.71741
G1 X131.866 Y44.540 E13.06598
G1 X131.866 Y43.713 E13.08652
G1 X142.621 Y54.468 E13.46413
G1 X143.448 Y54.468 E13.48467
G1 X131.866 Y42.885 E13.89133
G1 X131.866 Y42.058 E13.91187
G1 X144.275 Y54.468 E14.34758
G1 X145.102 Y54.468 E14.36812
G1 X131.866 Y41.231 E14.83288
G1 X131.866 Y40.404 E14.85342
G1 X145.930 Y54.468 E15.34722
G1 X146.757 Y54.468 E15.36776
G1 X131.866 Y39.576 E15.89061
G1 X131.866 Y38.749 E15.91115
G1 X147.584 Y54.468 E16.46305
G1 X148.412 Y54.468 E16.48359
G1 X131.866 Y37.922 E17.06453
G1 X131.866 Y37.094 E17.08507
G1 X149.239 Y54.468 E17.69507
G1 X150.066 Y54.468 E17.71560
G1 X131.866 Y36.267 E18.35464
G1 X131.866 Y35.440 E18.37518
G1 X150.893 Y54.468 E19.04327
G1 X151.721 Y54.468 E19.06381
G1 X131.866 Y34.613 E19.76094
G1 X132.279 Y34.199 E19.77546
G1 X152.134 Y54.054 E20.47259
G1 X152.134 Y53.227 E20.49313
G1 X133.107 Y34.199 E21.16121
G1 X133.934 Y34.199 E21.18175
G1 X152.134 Y52.399 E21.82079
G1 X152.134 Y51.572 E21.84133
G1 X134.761 Y34.199 E22.45132
G1 X135.588 Y34.199 E22.47186
G1 X152.134 Y50.745 E23.05280
G1 X152.134 Y49.918 E23.07334
G1 X136.416 Y34.199 E23.62524
G1 X137.243 Y34.199 E23.64577
G1 X152.134 Y49.090 E24.16862
G1 X152.134 Y48.263 E24.18916
G1 X138.070 Y34.199 E24.68296
G1 X138.898 Y34.199 E24.70350
G1 X152.134 Y47.436 E25.16826
G1 X152.134 Y46.608 E25.18880
G1 X139.725 Y34.199 E25.62451
G1 X140.552 Y34.199 E25.64505
G1 X152.134 Y45.781 E26.05171
G1 X152.134 Y44.954 E26.07225
G1 X141.379 Y34.199 E26.44986
G1 X142.207 Y34.199 E26.47040
G1 X152.134 Y44.127 E26.81897
G1 X152.134 Y43.299 E26.83951
G1 X143.034 Y34.199 E27.15903
G1 X143.861 Y34.199 E27.17957
G1 X152.134 Y42.472 E27.47004
G1 X152.134 Y41.645 E27.49058
G1 X144.689 Y34.199 E27.75201
G1 X145.516 Y34.199 E27.77255
G1 X152.134 Y40.817 E28.00493
G1 X152.134 Y39.990 E28.02547
G1 X146.343 Y34.199 E28.22880
G1 X147.170 Y34.199 E28.24934
G1 X152.134 Y39.163 E28.42362
G1 X152.134 Y38.336 E28.44416
G1 X147.998 Y34.199 E28.58940
G1 X148.825 Y34.199 E28.60994
G1 X152.134 Y37.508 E28.72613
G1 X152.134 Y36.681 E28.74667
G1 X149.652 Y34.199 E28.83382
G1 X150.480 Y34.199 E28.85436
G1 X152.134 Y35.854 E28.91246
G1 X152.134 Y35.026 E28.93300
G1 X151.307 Y34.199 E28.96205
G1 X152.134 Y34.199 E28.98259
G1 F1800.000 E24.98259
G92 E0
G1 X157.000 Y31.091 F7800.000
G1 X155.243 Y29.333
G1 X128.757 Y29.333
G1 X61.243 Y59.333
G1 X58.554 Y54.887
G1 F1800.000 E4.00000
G1 X37.446 Y54.887 F540.000 E4.51827
G1 X37.446 Y33.780 E5.03654
G1 X58.554 Y33.780 E5.55481
G1 X58.554 Y54.800 E6.07094
G1 X59.132 Y55.466 F7800.000
G1 X36.868 Y55.466 F540.000 E6.61762
G1 X36.868 Y33.201 E7.16430
G1 X59.132 Y33.201 E7.71098
G1 X59.132 Y55.379 E8.25553
G1 X59.711 Y56.044 F7800.000
G1 X36.289 Y56.044 F378.000 E8.83062
G1 X36.289 Y32.623 E9.40571
G1 X59.711 Y32.623 E9.98080
G1 X59.711 Y55.957 E10.55376
G1 X59.210 Y55.755 F7800.000
G1 X37.866 Y54.468
G1 X37.866 Y53.640 F1080.000 E10.57431
G1 X38.693 Y54.468 E10.60336
G1 X39.520 Y54.468 E10.62390
G1 X37.866 Y52.813 E10.68200
G1 X37.866 Y51.986 E10.70254
G1 X40.348 Y54.468 E10.78969
G1 X41.175 Y54.468 E10.81022
G1 X37.866 Y51.158 E10.92642
G1 X37.866 Y50.331 E10.94696
G1 X42.002 Y54.468 E11.09220
G1 X42.830 Y54.468 E11.11274
G1 X37.866 Y49.504 E11.28703
G1 X37.866 Y48.676 E11.30757
G1 X43.657 Y54.468 E11.51090
G1 X44.484 Y54.468 E11.53144
G1 X37.866 Y47.849 E11.76382
G1 X37.866 Y47.022 E11.78436
G1 X45.311 Y54.468 E12.04579
G1 X46.139 Y54.468 E12.06633
G1 X37.866 Y46.195 E12.35681
G1 X37.866 Y45.367 E12.37735
G1 X46.966 Y54.468 E12.69687
G1 X47.793 Y54.468 E12.71741
G1 X37.866 Y44.540 E13.06598
G1 X37.866 Y43.713 E13.08652
G1 X48.621 Y54.468 E13.46413
G1 X49.448 Y54.468 E13.48467
G1 X37.866 Y42.885 E13.89133
G1 X37.866 Y42.058 E13.91187
G1 X50.275 Y54.468 E14.34758
G1 X51.102 Y54.468 E14.36812
G1 X37.866 Y41.231 E14.83288
G1 X37.866 Y40.404 E14.85342
G1 X51.930 Y54.468 E15.34722
G1 X52.757 Y54.468 E15.36776
G1 X37.866 Y39.576 E15.89061
G1 X37.866 Y38.749 E15.91115
G1 X53.584 Y54.468 E16.46305
G1 X54.412 Y54.468 E16.48359
G1 X37.866 Y37.922 E17.06453
G1 X37.866 Y37.094 E17.08507
G1 X55.239 Y54.468 E17.69507
G1 X56.066 Y54.468 E17.71560
G1 X37.866 Y36.267 E18.35464
G1 X37.866 Y35.440 E18.37518
G1 X56.893 Y54.468 E19.04327
G1 X57.721 Y54.468 E19.06381
G1 X37.866 Y34.613 E19.76094
G1 X38.279 Y34.199 E19.77546
G1 X58.134 Y54.054 E20.47259
G1 X58.134 Y53.227 E20.49313
G1 X39.107 Y34.199 E21.16121
G1 X39.934 Y34.199 E21.18175
G1 X58.134 Y52.399 E21.82079
G1 X58.134 Y51.572 E21.84133
G1 X40.761 Y34.199 E22.45132
G1 X41.588 Y34.199 E22.47186
G1 X58.134 Y50.745 E23.05280
G1 X58.134 Y49.918 E23.07334
G1 X42.416 Y34.199 E23.62524
