; generated by Slic3r 0.9.9 on 2014-01-10 at 20:05:34

; layer_height = 0.4
; perimeters = 3
; top_solid_layers = 3
; bottom_solid_layers = 3
; fill_density = 0.4
; perimeter_speed = 30
; infill_speed = 60
; travel_speed = 130
; nozzle_diameter = 0.5
; filament_diameter = 3
; extrusion_multiplier = 1
; perimeters extrusion width = 0.53mm
; infill extrusion width = 0.53mm
; solid infill extrusion width = 0.53mm
; top infill extrusion width = 0.53mm
; first layer extrusion width = 1.00mm

G21 ; set units to millimeters
M107
M190 S110 ; wait for bed temperature to be reached
M104 S205 ; set temperature
G28 ; home all axes
M109 S205 ; wait for temperature to be reached
G90 ; use absolute coordinates
G92 E0
M82 ; use absolute distances for extrusion
G1 F1800.000 E-1.00000
G92 E0
G1 Z0.500 F7800.000
G1 X77.940 Y78.320
G1 F1800.000 E1.00000
G1 X78.520 Y77.760 F540.000 E1.05091
G1 X78.950 Y77.420 E1.08552
G1 X79.400 Y77.120 E1.11968
G1 X80.110 Y76.740 E1.17053
G1 X80.870 Y76.440 E1.22212
G1 X81.390 Y76.300 E1.25613
G1 X81.920 Y76.190 E1.29031
G1 X82.730 Y76.110 E1.34170
G1 X107.270 Y76.110 E2.89129
G1 X108.080 Y76.190 E2.94269
G1 X108.340 Y76.240 E2.95941
G1 X109.130 Y76.440 E3.01087
G1 X109.640 Y76.630 E3.04524
G1 X110.130 Y76.860 E3.07942
G1 X110.600 Y77.120 E3.11333
G1 X111.050 Y77.420 E3.14748
G1 X111.680 Y77.940 E3.19907
G1 X112.240 Y78.520 E3.24998
G1 X112.580 Y78.950 E3.28459
G1 X112.880 Y79.400 E3.31874
G1 X113.260 Y80.110 E3.36959
G1 X113.560 Y80.870 E3.42119
G1 X113.700 Y81.390 E3.45519
G1 X113.810 Y81.920 E3.48937
G1 X113.890 Y82.730 E3.54077
G1 X113.890 Y107.270 E5.09036
G1 X113.810 Y108.080 E5.14176
G1 X113.760 Y108.340 E5.15848
G1 X113.560 Y109.130 E5.20993
G1 X113.370 Y109.640 E5.24430
G1 X113.140 Y110.130 E5.27848
G1 X112.880 Y110.600 E5.31240
G1 X112.580 Y111.050 E5.34655
G1 X112.060 Y111.680 E5.39813
G1 X111.480 Y112.240 E5.44904
G1 X111.050 Y112.580 E5.48366
G1 X110.600 Y112.880 E5.51781
G1 X109.890 Y113.260 E5.56866
G1 X109.130 Y113.560 E5.62025
G1 X108.610 Y113.700 E5.65426
G1 X108.080 Y113.810 E5.68844
G1 X107.270 Y113.890 E5.73983
G1 X82.730 Y113.890 E7.28943
G1 X81.920 Y113.810 E7.34082
G1 X81.660 Y113.760 E7.35754
G1 X80.870 Y113.560 E7.40900
G1 X80.360 Y113.370 E7.44337
G1 X79.870 Y113.140 E7.47755
G1 X79.400 Y112.880 E7.51146
G1 X78.950 Y112.580 E7.54562
G1 X78.320 Y112.060 E7.59720
G1 X77.760 Y111.480 E7.64811
G1 X77.420 Y111.050 E7.68272
G1 X77.120 Y110.600 E7.71687
G1 X76.740 Y109.890 E7.76772
G1 X76.440 Y109.130 E7.81932
G1 X76.300 Y108.610 E7.85332
G1 X76.190 Y108.080 E7.88750
G1 X76.110 Y107.270 E7.93890
G1 X76.110 Y82.730 E9.48849
G1 X76.190 Y81.920 E9.53989
G1 X76.240 Y81.660 E9.55661
G1 X76.440 Y80.870 E9.60807
G1 X76.630 Y80.360 E9.64243
G1 X76.860 Y79.870 E9.67661
G1 X77.120 Y79.400 E9.71053
G1 X77.420 Y78.950 E9.74468
G1 X77.850 Y78.420 E9.78782
G1 F1800.000 E8.78782
G92 E0
G1 X85.232 Y85.232 F7800.000
G1 F1800.000 E1.00000
G1 X104.768 Y85.232 F540.000 E2.23364
G1 X104.768 Y104.768 E3.46729
G1 X85.232 Y104.768 E4.70093
G1 X85.232 Y85.366 E5.92612
G1 X84.339 Y84.339 F7800.000
G1 X105.661 Y84.339 F540.000 E7.27250
G1 X105.661 Y105.661 E8.61888
G1 X84.339 Y105.661 E9.96527
G1 X84.339 Y84.473 E11.30319
G1 X83.446 Y83.446 F7800.000
G1 X106.554 Y83.446 F378.000 E12.76232
G1 X106.554 Y106.554 E14.22144
G1 X83.446 Y106.554 E15.68056
G1 X83.446 Y83.580 E17.13123
G1 X84.219 Y83.893 F7800.000
G1 X104.121 Y85.879
G1 X104.121 Y87.182 F1080.000 E17.21616
G1 X102.818 Y85.879 E17.33628
G1 X101.515 Y85.879 E17.42120
G1 X104.121 Y88.485 E17.66141
G1 X104.121 Y89.788 E17.74634
G1 X100.212 Y85.879 E18.10665
G1 X98.909 Y85.879 E18.19157
G1 X104.121 Y91.091 E18.67197
G1 X104.121 Y92.394 E18.75690
G1 X97.606 Y85.879 E19.35740
G1 X96.303 Y85.879 E19.44232
G1 X104.121 Y93.697 E20.16292
G1 X104.121 Y95.000 E20.24784
G1 X95.000 Y85.879 E21.08854
G1 X93.697 Y85.879 E21.17346
G1 X104.121 Y96.303 E22.13426
G1 X104.121 Y97.606 E22.21918
G1 X92.394 Y85.879 E23.30007
G1 X91.091 Y85.879 E23.38499
G1 X104.121 Y98.909 E24.58598
G1 X104.121 Y100.212 E24.67091
G1 X89.788 Y85.879 E25.99199
G1 X88.485 Y85.879 E26.07691
G1 X104.121 Y101.515 E27.51810
G1 X104.121 Y102.818 E27.60302
G1 X87.182 Y85.879 E29.16430
G1 X85.879 Y85.879 E29.24921
G1 X104.121 Y104.121 E30.93057
G1 X102.818 Y104.121 E31.01549
G1 X85.879 Y87.182 E32.57677
G1 X85.879 Y88.485 E32.66169
G1 X101.515 Y104.121 E34.10288
G1 X100.212 Y104.121 E34.18780
G1 X85.879 Y89.788 E35.50888
G1 X85.879 Y91.091 E35.59381
G1 X98.909 Y104.121 E36.79480
G1 X97.606 Y104.121 E36.87972
G1 X85.879 Y92.394 E37.96061
G1 X85.879 Y93.697 E38.04553
G1 X96.303 Y104.121 E39.00633
G1 X95.000 Y104.121 E39.09125
G1 X85.879 Y95.000 E39.93195
G1 X85.879 Y96.303 E40.01687
G1 X93.697 Y104.121 E40.73747
G1 X92.394 Y104.121 E40.82239
G1 X85.879 Y97.606 E41.42290
G1 X85.879 Y98.909 E41.50782
G1 X91.091 Y104.121 E41.98822
G1 X89.788 Y104.121 E42.07315
G1 X85.879 Y100.212 E42.43346
G1 X85.879 Y101.515 E42.51838
G1 X88.485 Y104.121 E42.75859
G1 X87.182 Y104.121 E42.84351
G1 X85.879 Y102.818 E42.96363
G1 X85.879 Y104.121 E43.04856
M106 S255
G1 F1800.000 E42.04856
G92 E0
G1 Z0.900 F7800.000
G1 X84.299 Y105.701
G1 F1800.000 E1.00000
G1 X84.299 Y84.299 F1477.502 E1.62933
G1 X105.701 Y84.299 E2.25866
G1 X105.701 Y105.701 E2.88798
G1 X84.377 Y105.701 E3.51502
G1 X83.779 Y106.221 F7800.000
G1 X83.779 Y83.779 F1477.502 E4.17491
G1 X106.221 Y83.779 E4.83479
G1 X106.221 Y106.221 E5.49468
G1 X83.857 Y106.221 E6.15228
G1 X83.260 Y106.740 F7800.000
G1 X83.260 Y83.260 F1034.251 E6.84273
G1 X106.740 Y83.260 E7.53317
G1 X106.740 Y106.740 E8.22362
G1 X83.338 Y106.740 E8.91178
G1 X83.520 Y106.290 F7800.000
G1 X84.676 Y84.676
G1 X85.413 Y84.676 F2955.003 E8.93354
G1 X84.676 Y85.413 E8.96432
G1 X84.676 Y86.151 E8.98608
G1 X86.151 Y84.676 E9.04763
G1 X86.888 Y84.676 E9.06939
G1 X84.676 Y86.888 E9.16172
G1 X84.676 Y87.626 E9.18348
G1 X87.626 Y84.676 E9.30658
G1 X88.363 Y84.676 E9.32835
G1 X84.676 Y88.363 E9.48222
G1 X84.676 Y89.100 E9.50398
G1 X89.100 Y84.676 E9.68863
G1 X89.838 Y84.676 E9.71039
G1 X84.676 Y89.838 E9.92582
G1 X84.676 Y90.575 E9.94758
G1 X90.575 Y84.676 E10.19378
G1 X91.313 Y84.676 E10.21554
G1 X84.676 Y91.313 E10.49251
G1 X84.676 Y92.050 E10.51427
G1 X92.050 Y84.676 E10.82202
G1 X92.788 Y84.676 E10.84378
G1 X84.676 Y92.788 E11.18230
G1 X84.676 Y93.525 E11.20406
G1 X93.525 Y84.676 E11.57335
G1 X94.263 Y84.676 E11.59511
G1 X84.676 Y94.263 E11.99518
G1 X84.676 Y95.000 E12.01694
G1 X95.000 Y84.676 E12.44779
G1 X95.737 Y84.676 E12.46955
G1 X84.676 Y95.737 E12.93116
G1 X84.676 Y96.475 E12.95292
G1 X96.475 Y84.676 E13.44531
G1 X97.212 Y84.676 E13.46708
G1 X84.676 Y97.212 E13.99024
G1 X84.676 Y97.950 E14.01200
G1 X97.950 Y84.676 E14.56594
G1 X98.687 Y84.676 E14.58770
G1 X84.676 Y98.687 E15.17242
G1 X84.676 Y99.425 E15.19418
G1 X99.425 Y84.676 E15.80966
G1 X100.162 Y84.676 E15.83142
G1 X84.676 Y100.162 E16.47769
G1 X84.676 Y100.900 E16.49945
G1 X100.900 Y84.676 E17.17648
G1 X101.637 Y84.676 E17.19824
G1 X84.676 Y101.637 E17.90605
G1 X84.676 Y102.374 E17.92781
G1 X102.374 Y84.676 E18.66640
G1 X103.112 Y84.676 E18.68816
G1 X84.676 Y103.112 E19.45752
G1 X84.676 Y103.849 E19.47928
G1 X103.849 Y84.676 E20.27941
G1 X104.587 Y84.676 E20.30117
G1 X84.676 Y104.587 E21.13208
G1 X84.676 Y105.324 E21.15384
G1 X105.324 Y84.676 E22.01551
G1 X105.324 Y85.413 E22.03727
G1 X85.413 Y105.324 E22.86818
G1 X86.151 Y105.324 E22.88994
G1 X105.324 Y86.151 E23.69007
G1 X105.324 Y86.888 E23.71183
G1 X86.888 Y105.324 E24.48120
G1 X87.625 Y105.324 E24.50296
G1 X105.324 Y87.625 E25.24154
G1 X105.324 Y88.363 E25.26330
G1 X88.363 Y105.324 E25.97112
G1 X89.100 Y105.324 E25.99288
G1 X105.324 Y89.100 E26.66992
G1 X105.324 Y89.838 E26.69168
G1 X89.838 Y105.324 E27.33794
G1 X90.575 Y105.324 E27.35970
G1 X105.324 Y90.575 E27.97519
G1 X105.324 Y91.313 E27.99696
G1 X91.313 Y105.324 E28.58167
G1 X92.050 Y105.324 E28.60343
G1 X105.324 Y92.050 E29.15738
G1 X105.324 Y92.788 E29.17914
G1 X92.788 Y105.324 E29.70230
G1 X93.525 Y105.324 E29.72407
G1 X105.324 Y93.525 E30.21646
G1 X105.324 Y94.262 E30.23822
G1 X94.262 Y105.324 E30.69984
G1 X95.000 Y105.324 E30.72160
G1 X105.324 Y95.000 E31.15245
G1 X105.324 Y95.737 E31.17421
G1 X95.737 Y105.324 E31.57428
G1 X96.475 Y105.324 E31.59604
G1 X105.324 Y96.475 E31.96534
G1 X105.324 Y97.212 E31.98710
G1 X97.212 Y105.324 E32.32562
G1 X97.950 Y105.324 E32.34738
G1 X105.324 Y97.950 E32.65513
G1 X105.324 Y98.687 E32.67689
G1 X98.687 Y105.324 E32.95387
G1 X99.425 Y105.324 E32.97563
G1 X105.324 Y99.425 E33.22183
G1 X105.324 Y100.162 E33.24359
G1 X100.162 Y105.324 E33.45902
G1 X100.899 Y105.324 E33.48078
G1 X105.324 Y100.899 E33.66543
G1 X105.324 Y101.637 E33.68719
G1 X101.637 Y105.324 E33.84107
G1 X102.374 Y105.324 E33.86283
G1 X105.324 Y102.374 E33.98594
G1 X105.324 Y103.112 E34.00770
G1 X103.112 Y105.324 E34.10003
G1 X103.849 Y105.324 E34.12179
G1 X105.324 Y103.849 E34.18335
G1 X105.324 Y104.587 E34.20511
G1 X104.587 Y105.324 E34.23589
G1 X105.324 Y105.324 E34.25766
G1 F1800.000 E33.25766
G92 E0
G1 Z1.300 F7800.000
G1 X105.701 Y105.701
G1 F1800.000 E1.00000
G1 X84.299 Y105.701 F1477.502 E1.62933
G1 X84.299 Y84.299 E2.25866
G1 X105.701 Y84.299 E2.88798
G1 X105.701 Y105.623 E3.51502
G1 X106.221 Y106.221 F7800.000
G1 X83.779 Y106.221 F1477.502 E4.17491
G1 X83.779 Y83.779 E4.83479
G1 X106.221 Y83.779 E5.49468
G1 X106.221 Y106.143 E6.15228
G1 X106.740 Y106.740 F7800.000
G1 X83.260 Y106.740 F1034.251 E6.84273
G1 X83.260 Y83.260 E7.53317
G1 X106.740 Y83.260 E8.22362
G1 X106.740 Y106.662 E8.91178
G1 X106.290 Y106.480 F7800.000
G1 X84.676 Y105.324
G1 X84.676 Y104.587 F2955.003 E8.93354
G1 X85.413 Y105.324 E8.96433
G1 X86.151 Y105.324 E8.98609
G1 X84.676 Y103.849 E9.04764
G1 X84.676 Y103.112 E9.06940
G1 X86.888 Y105.324 E9.16173
G1 X87.626 Y105.324 E9.18349
G1 X84.676 Y102.374 E9.30660
G1 X84.676 Y101.637 E9.32836
G1 X88.363 Y105.324 E9.48224
G1 X89.101 Y105.324 E9.50400
G1 X84.676 Y100.899 E9.68865
G1 X84.676 Y100.162 E9.71041
G1 X89.838 Y105.324 E9.92584
G1 X90.575 Y105.324 E9.94760
G1 X84.676 Y99.425 E10.19380
G1 X84.676 Y98.687 E10.21556
G1 X91.313 Y105.324 E10.49254
G1 X92.050 Y105.324 E10.51430
G1 X84.676 Y97.950 E10.82205
G1 X84.676 Y97.212 E10.84381
G1 X92.788 Y105.324 E11.18233
G1 X93.525 Y105.324 E11.20409
G1 X84.676 Y96.475 E11.57339
G1 X84.676 Y95.737 E11.59515
G1 X94.263 Y105.324 E11.99522
G1 X95.000 Y105.324 E12.01698
G1 X84.676 Y95.000 E12.44783
G1 X84.676 Y94.262 E12.46959
G1 X95.738 Y105.324 E12.93121
G1 X96.475 Y105.324 E12.95297
G1 X84.676 Y93.525 E13.44537
G1 X84.676 Y92.788 E13.46713
G1 X97.212 Y105.324 E13.99030
G1 X97.950 Y105.324 E14.01206
G1 X84.676 Y92.050 E14.56600
G1 X84.676 Y91.313 E14.58776
G1 X98.687 Y105.324 E15.17248
G1 X99.425 Y105.324 E15.19424
G1 X84.676 Y90.575 E15.80973
G1 X84.676 Y89.838 E15.83149
G1 X100.162 Y105.324 E16.47775
G1 X100.900 Y105.324 E16.49951
G1 X84.676 Y89.100 E17.17655
G1 X84.676 Y88.363 E17.19831
G1 X101.637 Y105.324 E17.90613
G1 X102.375 Y105.324 E17.92789
G1 X84.676 Y87.625 E18.66647
G1 X84.676 Y86.888 E18.68824
G1 X103.112 Y105.324 E19.45760
G1 X103.849 Y105.324 E19.47936
G1 X84.676 Y86.151 E20.27949
G1 X84.676 Y85.413 E20.30125
G1 X104.587 Y105.324 E21.13216
G1 X105.324 Y105.324 E21.15392
G1 X84.676 Y84.676 E22.01560
G1 X85.413 Y84.676 E22.03735
G1 X105.324 Y104.587 E22.86826
G1 X105.324 Y103.849 E22.89002
G1 X86.151 Y84.676 E23.69015
G1 X86.888 Y84.676 E23.71191
G1 X105.324 Y103.112 E24.48127
G1 X105.324 Y102.374 E24.50303
G1 X87.626 Y84.676 E25.24162
G1 X88.363 Y84.676 E25.26338
G1 X105.324 Y101.637 E25.97119
G1 X105.324 Y100.900 E25.99295
G1 X89.100 Y84.676 E26.66998
G1 X89.838 Y84.676 E26.69175
G1 X105.324 Y100.162 E27.33801
G1 X105.324 Y99.425 E27.35977
G1 X90.575 Y84.676 E27.97526
G1 X91.313 Y84.676 E27.99702
G1 X105.324 Y98.687 E28.58173
G1 X105.324 Y97.950 E28.60349
G1 X92.050 Y84.676 E29.15743
G1 X92.788 Y84.676 E29.17919
G1 X105.324 Y97.212 E29.70236
G1 X105.324 Y96.475 E29.72412
G1 X93.525 Y84.676 E30.21651
G1 X94.263 Y84.676 E30.23827
G1 X105.324 Y95.737 E30.69989
G1 X105.324 Y95.000 E30.72165
G1 X95.000 Y84.676 E31.15249
G1 X95.737 Y84.676 E31.17425
G1 X105.324 Y94.263 E31.57432
G1 X105.324 Y93.525 E31.59608
G1 X96.475 Y84.676 E31.96537
G1 X97.212 Y84.676 E31.98714
G1 X105.324 Y92.788 E32.32566
G1 X105.324 Y92.050 E32.34742
G1 X97.950 Y84.676 E32.65516
G1 X98.687 Y84.676 E32.67692
G1 X105.324 Y91.313 E32.95390
G1 X105.324 Y90.575 E32.97566
G1 X99.425 Y84.676 E33.22185
G1 X100.162 Y84.676 E33.24362
G1 X105.324 Y89.838 E33.45904
G1 X105.324 Y89.100 E33.48080
G1 X100.900 Y84.676 E33.66545
G1 X101.637 Y84.676 E33.68721
G1 X105.324 Y88.363 E33.84109
G1 X105.324 Y87.626 E33.86285
G1 X102.374 Y84.676 E33.98595
G1 X103.112 Y84.676 E34.00771
G1 X105.324 Y86.888 E34.10004
G1 X105.324 Y86.151 E34.12180
G1 X103.849 Y84.676 E34.18335
G1 X104.587 Y84.676 E34.20511
G1 X105.324 Y85.413 E34.23589
G1 X105.324 Y84.676 E34.25766
G1 F1800.000 E33.25766
G92 E0
G1 Z1.700 F7800.000
G1 X105.701 Y84.299
G1 F1800.000 E1.00000
G1 X105.701 Y105.701 F1037.793 E1.62933
G1 X84.299 Y105.701 E2.25866
G1 X84.299 Y84.299 E2.88798
G1 X105.623 Y84.299 E3.51502
G1 X106.221 Y83.779 F7800.000
G1 X106.221 Y106.221 F1037.793 E4.17491
G1 X83.779 Y106.221 E4.83479
G1 X83.779 Y83.779 E5.49468
G1 X106.143 Y83.779 E6.15228
G1 X106.740 Y83.260 F7800.000
G1 X106.740 Y106.740 F726.455 E6.84273
G1 X83.260 Y106.740 E7.53317
G1 X83.260 Y83.260 E8.22362
G1 X106.662 Y83.260 E8.91178
G1 X106.480 Y83.710 F7800.000
G1 X105.324 Y86.786
G1 X104.170 Y85.631 F2075.586 E8.95979
G1 X104.403 Y84.762 E8.98625
G1 X104.316 Y84.676 E8.98984
G1 X101.736 Y84.676 E9.06572
G1 X101.660 Y84.959 E9.07434
G1 X102.933 Y86.232 E9.12727
G1 X103.802 Y85.999 E9.15373
G1 X105.075 Y87.272 E9.20666
G1 X104.842 Y88.141 E9.23313
G1 X105.324 Y88.623 E9.25318
G1 X105.147 Y91.018 F7800.000
G1 X105.324 Y91.195 F2075.586 E9.26054
G1 X105.324 Y89.358 E9.31456
G1 X104.475 Y88.508 E9.34989
G1 X103.605 Y88.741 E9.37635
G1 X102.332 Y87.469 E9.42929
G1 X102.565 Y86.599 E9.45575
G1 X101.293 Y85.326 E9.50868
G1 X100.423 Y85.559 E9.53515
G1 X99.540 Y84.676 E9.57189
G1 X98.805 Y84.676 E9.59350
G1 X100.056 Y85.927 E9.64552
G1 X99.823 Y86.796 E9.67198
G1 X101.096 Y88.069 E9.72491
G1 X101.965 Y87.836 E9.75138
G1 X103.238 Y89.109 E9.80431
G1 X103.005 Y89.978 E9.83078
G1 X104.278 Y91.251 E9.88371
G1 X105.324 Y93.660 F7800.000
G1 X104.950 Y93.761 F2075.586 E9.89509
G1 X103.677 Y92.488 E9.94802
G1 X103.910 Y91.618 E9.97449
G1 X102.638 Y90.346 E10.02742
G1 X101.768 Y90.579 E10.05389
G1 X100.495 Y89.306 E10.10682
G1 X100.728 Y88.436 E10.13328
G1 X99.455 Y87.164 E10.18622
G1 X98.586 Y87.396 E10.21268
G1 X97.313 Y86.124 E10.26561
G1 X97.546 Y85.254 E10.29208
G1 X96.968 Y84.676 E10.31613
G1 X95.011 Y84.676 E10.37366
G1 X94.804 Y85.451 E10.39726
G1 X96.076 Y86.724 E10.45020
G1 X96.946 Y86.491 E10.47666
G1 X98.219 Y87.764 E10.52959
G1 X97.986 Y88.633 E10.55606
G1 X99.258 Y89.906 E10.60899
G1 X100.128 Y89.673 E10.63546
G1 X101.401 Y90.946 E10.68839
G1 X101.168 Y91.815 E10.71485
G1 X102.441 Y93.088 E10.76779
G1 X103.310 Y92.855 E10.79425
G1 X104.583 Y94.128 E10.84718
G1 X104.350 Y94.997 E10.87365
G1 X105.324 Y95.972 E10.91417
G1 X105.324 Y97.809 F7800.000
G1 X105.022 Y97.507 F2075.586 E10.92672
G1 X105.255 Y96.638 E10.95319
G1 X103.982 Y95.365 E11.00612
G1 X103.113 Y95.598 E11.03258
G1 X101.840 Y94.325 E11.08551
G1 X102.073 Y93.456 E11.11198
G1 X100.800 Y92.183 E11.16491
G1 X99.931 Y92.416 E11.19138
G1 X98.658 Y91.143 E11.24431
G1 X98.891 Y90.274 E11.27078
G1 X97.618 Y89.001 E11.32371
G1 X96.749 Y89.234 E11.35017
G1 X95.476 Y87.961 E11.40310
G1 X95.709 Y87.091 E11.42957
G1 X94.436 Y85.819 E11.48250
G1 X93.567 Y86.052 E11.50897
G1 X92.294 Y84.779 E11.56190
G1 X92.321 Y84.676 E11.56503
G1 X90.354 Y84.676 E11.62289
G1 X91.057 Y85.379 E11.65214
G1 X91.926 Y85.146 E11.67860
G1 X93.199 Y86.419 E11.73153
G1 X92.966 Y87.288 E11.75800
G1 X94.239 Y88.561 E11.81093
G1 X95.109 Y88.328 E11.83740
G1 X96.381 Y89.601 E11.89033
G1 X96.148 Y90.470 E11.91679
G1 X97.421 Y91.743 E11.96973
G1 X98.291 Y91.510 E11.99619
G1 X99.564 Y92.783 E12.04912
