; generated by Slic3r 0.9.9 on 2014-01-27 at 21:57:05

; layer_height = 0.4
; perimeters = 3
; top_solid_layers = 3
; bottom_solid_layers = 3
; fill_density = 0.4
; perimeter_speed = 30
; infill_speed = 60
; travel_speed = 130
; nozzle_diameter = 0.5
; filament_diameter = 3
; extrusion_multiplier = 1
; perimeters extrusion width = 0.53mm
; infill extrusion width = 0.53mm
; solid infill extrusion width = 0.53mm
; top infill extrusion width = 0.53mm
; first layer extrusion width = 0.60mm

G21 ; set units to millimeters
M190 S120 ; wait for bed temperature to be reached
M104 S205 ; set temperature
G28 ; home all axes
M109 S205 ; wait for temperature to be reached
G90 ; use absolute coordinates
G92 E0
M82 ; use absolute distances for extrusion
M106 S89
G1 F1800.000 E-1.25000
G92 E0
G1 Z0.300 F7800.000
G1 X40.363 Y71.930
G1 F1800.000 E1.25000
G1 X41.013 Y71.600 F540.000 E1.26790
G1 X41.693 Y71.310 E1.28605
G1 X42.373 Y71.060 E1.30384
G1 X43.073 Y70.850 E1.32178
G1 X43.793 Y70.680 E1.33995
G1 X44.513 Y70.550 E1.35791
G1 X45.603 Y70.440 E1.38481
G1 X46.333 Y70.420 E1.40275
G1 X143.663 Y70.420 E3.79259
G1 X144.393 Y70.440 E3.81052
G1 X145.483 Y70.550 E3.83742
G1 X146.563 Y70.760 E3.86443
G1 X147.623 Y71.060 E3.89148
G1 X148.303 Y71.310 E3.90927
G1 X148.983 Y71.600 E3.92742
G1 X149.633 Y71.930 E3.94532
G1 X150.263 Y72.290 E3.96314
G1 X150.573 Y72.490 E3.97220
G1 X151.173 Y72.910 E3.99018
G1 X151.753 Y73.360 E4.00820
G1 X152.293 Y73.850 E4.02611
G1 X153.063 Y74.640 E4.05320
G1 X153.533 Y75.200 E4.07115
G1 X154.173 Y76.090 E4.09806
G1 X154.553 Y76.710 E4.11592
G1 X154.903 Y77.350 E4.13383
G1 X155.213 Y78.020 E4.15196
G1 X155.603 Y79.040 E4.17877
G1 X155.813 Y79.740 E4.19671
G1 X155.983 Y80.460 E4.21488
G1 X156.113 Y81.180 E4.23284
G1 X156.193 Y81.900 E4.25063
G1 X156.223 Y82.270 E4.25975
G1 X156.243 Y83.000 E4.27768
G1 X156.243 Y107.000 E4.86697
G1 X156.223 Y107.730 E4.88490
G1 X156.113 Y108.820 E4.91180
G1 X155.903 Y109.900 E4.93882
G1 X155.603 Y110.960 E4.96587
G1 X155.213 Y111.980 E4.99268
G1 X154.903 Y112.650 E5.01081
G1 X154.373 Y113.600 E5.03752
G1 X153.753 Y114.510 E5.06456
G1 X153.303 Y115.090 E5.08258
G1 X152.813 Y115.630 E5.10049
G1 X152.023 Y116.400 E5.12757
G1 X151.463 Y116.870 E5.14553
G1 X150.573 Y117.510 E5.17244
G1 X150.263 Y117.710 E5.18150
G1 X149.633 Y118.070 E5.19932
G1 X148.983 Y118.400 E5.21722
G1 X147.963 Y118.820 E5.24430
G1 X146.923 Y119.150 E5.27109
G1 X146.203 Y119.320 E5.28926
G1 X145.483 Y119.450 E5.30722
G1 X144.393 Y119.560 E5.33412
G1 X143.663 Y119.580 E5.35205
G1 X46.333 Y119.580 E7.74189
G1 X45.603 Y119.560 E7.75982
G1 X44.513 Y119.450 E7.78672
G1 X43.433 Y119.240 E7.81374
G1 X42.373 Y118.940 E7.84079
G1 X41.353 Y118.550 E7.86760
G1 X40.683 Y118.240 E7.88573
G1 X39.733 Y117.710 E7.91244
G1 X38.823 Y117.090 E7.93948
G1 X38.243 Y116.640 E7.95750
G1 X37.703 Y116.150 E7.97541
G1 X36.933 Y115.360 E8.00249
G1 X36.463 Y114.800 E8.02044
G1 X35.823 Y113.910 E8.04736
G1 X35.623 Y113.600 E8.05642
G1 X35.263 Y112.970 E8.07424
G1 X34.933 Y112.320 E8.09213
G1 X34.513 Y111.300 E8.11922
G1 X34.183 Y110.260 E8.14601
G1 X34.013 Y109.540 E8.16418
G1 X33.883 Y108.820 E8.18214
G1 X33.773 Y107.730 E8.20904
G1 X33.753 Y107.000 E8.22697
G1 X33.753 Y83.000 E8.81627
G1 X33.773 Y82.270 E8.83420
G1 X33.803 Y81.900 E8.84331
G1 X33.883 Y81.180 E8.86110
G1 X33.943 Y80.820 E8.87006
G1 X34.093 Y80.100 E8.88812
G1 X34.283 Y79.390 E8.90617
G1 X34.513 Y78.700 E8.92403
G1 X34.783 Y78.020 E8.94199
G1 X35.093 Y77.350 E8.96012
G1 X35.443 Y76.710 E8.97803
G1 X35.823 Y76.090 E8.99588
G1 X36.243 Y75.490 E9.01387
G1 X36.693 Y74.910 E9.03189
G1 X37.183 Y74.370 E9.04980
G1 X37.703 Y73.850 E9.06785
G1 X38.243 Y73.360 E9.08576
G1 X38.823 Y72.910 E9.10378
G1 X39.423 Y72.490 E9.12177
G1 X40.288 Y71.973 E9.14650
G1 F1800.000 E7.89650
G92 E0
G1 X112.435 Y80.005 F7800.000
G1 F1800.000 E1.25000
G1 X116.671 Y75.768 F540.000 E1.39710
G1 X146.662 Y75.768 E2.13350
G1 X150.898 Y80.005 E2.28060
G1 X150.898 Y109.995 E3.01700
G1 X146.662 Y114.232 E3.16410
G1 X116.671 Y114.232 E3.90050
G1 X112.435 Y109.995 E4.04760
G1 X112.435 Y80.091 E4.78187
G1 F1800.000 E3.53187
G92 E0
G1 X72.333 Y79.000 F7800.000
G1 X77.565 Y80.005
G1 F1800.000 E1.25000
G1 X77.565 Y109.995 F540.000 E1.98640
G1 X73.329 Y114.232 E2.13350
G1 X43.338 Y114.232 E2.86990
G1 X39.102 Y109.995 E3.01700
G1 X39.102 Y80.005 E3.75340
G1 X43.338 Y75.768 E3.90050
G1 X73.329 Y75.768 E4.63690
G1 X77.504 Y79.943 E4.78187
G1 F1800.000 E3.53187
G92 E0
G1 X72.333 Y79.000 F7800.000
G1 X113.013 Y80.244
G1 F1800.000 E1.25000
G1 X116.911 Y76.347 F540.000 E1.38533
G1 X146.423 Y76.347 E2.10996
G1 X150.320 Y80.244 E2.24530
G1 X150.320 Y109.756 E2.96993
G1 X146.423 Y113.653 E3.10526
G1 X116.911 Y113.653 E3.82989
G1 X113.013 Y109.756 E3.96523
G1 X113.013 Y80.331 E4.68773
G1 F1800.000 E3.43773
G92 E0
G1 X72.333 Y79.000 F7800.000
G1 X76.987 Y80.244
G1 F1800.000 E1.25000
G1 X76.987 Y109.756 F540.000 E1.97463
G1 X73.089 Y113.653 E2.10996
G1 X43.577 Y113.653 E2.83459
G1 X39.680 Y109.756 E2.96993
G1 X39.680 Y80.244 E3.69456
G1 X43.577 Y76.347 E3.82989
G1 X73.089 Y76.347 E4.55452
G1 X76.925 Y80.183 E4.68773
G1 F1800.000 E3.43773
G92 E0
G1 X72.333 Y79.000 F7800.000
G1 X113.592 Y80.484
G1 F1800.000 E1.25000
G1 X117.150 Y76.925 F540.000 E1.37357
G1 X146.183 Y76.925 E2.08643
G1 X149.741 Y80.484 E2.20999
G1 X149.741 Y109.516 E2.92286
G1 X146.183 Y113.075 E3.04642
G1 X117.150 Y113.075 E3.75928
G1 X113.592 Y109.516 E3.88285
G1 X113.592 Y80.571 E4.59358
G1 F1800.000 E3.34358
G92 E0
G1 X72.333 Y79.000 F7800.000
G1 X76.408 Y80.484
G1 F1800.000 E1.25000
G1 X76.408 Y109.516 F540.000 E1.96286
G1 X72.850 Y113.075 E2.08643
G1 X43.817 Y113.075 E2.79929
G1 X40.259 Y109.516 E2.92286
G1 X40.259 Y80.484 E3.63572
G1 X43.817 Y76.925 E3.75928
G1 X72.850 Y76.925 E4.47215
G1 X76.347 Y80.422 E4.59358
G1 F1800.000 E3.34358
G92 E0
G1 X72.333 Y79.000 F7800.000
G1 X114.171 Y80.723
G1 F1800.000 E1.25000
G1 X117.390 Y77.504 F540.000 E1.36180
G1 X145.943 Y77.504 E2.06289
G1 X149.163 Y80.723 E2.17469
G1 X149.163 Y109.277 E2.87578
G1 X145.943 Y112.496 E2.98758
G1 X117.390 Y112.496 E3.68867
G1 X114.171 Y109.277 E3.80047
G1 X114.171 Y80.810 E4.49943
G1 F1800.000 E3.24943
G92 E0
G1 X72.333 Y79.000 F7800.000
G1 X75.829 Y80.723
G1 F1800.000 E1.25000
G1 X75.829 Y109.277 F540.000 E1.95109
G1 X72.610 Y112.496 E2.06289
G1 X44.057 Y112.496 E2.76398
G1 X40.837 Y109.277 E2.87578
G1 X40.837 Y80.723 E3.57688
G1 X44.057 Y77.504 E3.68867
G1 X72.610 Y77.504 E4.38977
G1 X75.768 Y80.662 E4.49943
G1 F1800.000 E3.24943
G92 E0
G1 X72.333 Y79.000 F7800.000
G1 X114.749 Y80.963
G1 F1800.000 E1.25000
G1 X117.630 Y78.082 F540.000 E1.35003
G1 X145.704 Y78.082 E2.03936
G1 X148.584 Y80.963 E2.13938
G1 X148.584 Y109.037 E2.82871
G1 X145.704 Y111.918 E2.92874
G1 X117.630 Y111.918 E3.61807
G1 X114.749 Y109.037 E3.71809
G1 X114.749 Y81.050 E4.40529
G1 F1800.000 E3.15529
G92 E0
G1 X72.333 Y79.000 F7800.000
G1 X75.251 Y80.963
G1 F1800.000 E1.25000
G1 X75.251 Y109.037 F540.000 E1.93933
G1 X72.370 Y111.918 E2.03936
G1 X44.296 Y111.918 E2.72868
G1 X41.416 Y109.037 E2.82871
G1 X41.416 Y80.963 E3.51804
G1 X44.296 Y78.082 E3.61807
G1 X72.370 Y78.082 E4.30739
G1 X75.190 Y80.902 E4.40529
G1 F1800.000 E3.15529
G92 E0
G1 X72.333 Y79.000 F7800.000
G1 X115.328 Y81.203
G1 F1800.000 E1.25000
G1 X117.869 Y78.661 F540.000 E1.33826
G1 X145.464 Y78.661 E2.01582
G1 X148.006 Y81.203 E2.10408
G1 X148.006 Y108.797 E2.78164
G1 X145.464 Y111.339 E2.86990
G1 X117.869 Y111.339 E3.54746
G1 X115.328 Y108.797 E3.63572
G1 X115.328 Y81.289 E4.31114
G1 F1800.000 E3.06114
G92 E0
G1 X72.333 Y79.000 F7800.000
G1 X74.672 Y81.203
G1 F1800.000 E1.25000
G1 X74.672 Y108.797 F540.000 E1.92756
G1 X72.131 Y111.339 E2.01582
G1 X44.536 Y111.339 E2.69338
G1 X41.994 Y108.797 E2.78164
G1 X41.994 Y81.203 E3.45919
G1 X44.536 Y78.661 E3.54746
G1 X72.131 Y78.661 E4.22501
G1 X74.611 Y81.141 E4.31114
G1 F1800.000 E3.06114
G92 E0
G1 X72.333 Y79.000 F7800.000
G1 X115.906 Y81.442
G1 F1800.000 E1.25000
G1 X118.109 Y79.239 F540.000 E1.32649
G1 X145.224 Y79.239 E1.99228
G1 X147.427 Y81.442 E2.06878
G1 X147.427 Y108.558 E2.73456
G1 X145.224 Y110.761 E2.81106
G1 X118.109 Y110.761 E3.47685
G1 X115.906 Y108.558 E3.55334
G1 X115.906 Y81.529 E4.21700
G1 F1800.000 E2.96700
G92 E0
G1 X72.333 Y79.000 F7800.000
G1 X74.094 Y81.442
G1 F1800.000 E1.25000
G1 X74.094 Y108.558 F540.000 E1.91579
G1 X71.891 Y110.761 E1.99228
G1 X44.776 Y110.761 E2.65807
G1 X42.573 Y108.558 E2.73456
G1 X42.573 Y81.442 E3.40035
G1 X44.776 Y79.239 E3.47685
G1 X71.891 Y79.239 E4.14264
G1 X74.032 Y81.381 E4.21700
G1 F1800.000 E2.96700
G92 E0
G1 X72.333 Y79.000 F7800.000
G1 X116.485 Y81.682
G1 F1800.000 E1.25000
G1 X118.349 Y79.818 F540.000 E1.31473
G1 X144.985 Y79.818 E1.96875
G1 X146.849 Y81.682 E2.03347
G1 X146.849 Y108.318 E2.68749
G1 X144.985 Y110.182 E2.75222
G1 X118.349 Y110.182 E3.40624
G1 X116.485 Y108.318 E3.47096
G1 X116.485 Y81.769 E4.12285
G1 F1800.000 E2.87285
G92 E0
G1 X72.333 Y79.000 F7800.000
G1 X73.515 Y81.682
G1 F1800.000 E1.25000
G1 X73.515 Y108.318 F540.000 E1.90402
G1 X71.651 Y110.182 E1.96875
G1 X45.015 Y110.182 E2.62277
G1 X43.151 Y108.318 E2.68749
G1 X43.151 Y81.682 E3.34151
G1 X45.015 Y79.818 E3.40624
G1 X71.651 Y79.818 E4.06026
G1 X73.454 Y81.621 E4.12285
G1 F1800.000 E2.87285
G92 E0
G1 X72.333 Y79.000 F7800.000
G1 X117.063 Y81.922
G1 F1800.000 E1.25000
G1 X118.588 Y80.397 F540.000 E1.30296
G1 X144.745 Y80.397 E1.94521
G1 X146.270 Y81.922 E1.99817
G1 X146.270 Y108.078 E2.64042
G1 X144.745 Y109.603 E2.69338
G1 X118.588 Y109.603 E3.33563
G1 X117.063 Y108.078 E3.38859
G1 X117.063 Y82.008 E4.02871
G1 F1800.000 E2.77871
G92 E0
G1 X72.333 Y79.000 F7800.000
G1 X72.937 Y81.922
G1 F1800.000 E1.25000
G1 X72.937 Y108.078 F540.000 E1.89225
G1 X71.412 Y109.603 E1.94521
G1 X45.255 Y109.603 E2.58746
G1 X43.730 Y108.078 E2.64042
G1 X43.730 Y81.922 E3.28267
G1 X45.255 Y80.397 E3.33563
G1 X71.412 Y80.397 E3.97788
G1 X72.875 Y81.860 E4.02871
G1 F1800.000 E2.77871
G92 E0
G1 X72.333 Y79.000 F7800.000
G1 X117.642 Y82.161
G1 F1800.000 E1.25000
G1 X118.828 Y80.975 F540.000 E1.29119
G1 X144.505 Y80.975 E1.92167
G1 X145.692 Y82.161 E1.96286
G1 X145.692 Y107.839 E2.59335
G1 X144.505 Y109.025 E2.63453
G1 X118.828 Y109.025 E3.26502
G1 X117.642 Y107.839 E3.30621
G1 X117.642 Y82.248 E3.93456
G1 F1800.000 E2.68456
G92 E0
G1 X72.333 Y79.000 F7800.000
G1 X72.358 Y82.161
G1 F1800.000 E1.25000
G1 X72.358 Y107.839 F540.000 E1.88048
G1 X71.172 Y109.025 E1.92167
G1 X45.495 Y109.025 E2.55216
G1 X44.308 Y107.839 E2.59335
G1 X44.308 Y82.161 E3.22383
G1 X45.495 Y80.975 E3.26502
G1 X71.172 Y80.975 E3.89550
G1 X72.297 Y82.100 E3.93456
G1 F1800.000 E2.68456
G92 E0
G1 X72.333 Y79.000 F7800.000
G1 X118.220 Y82.401
G1 F1800.000 E1.25000
G1 X119.068 Y81.554 F540.000 E1.27942
G1 X144.266 Y81.554 E1.89814
G1 X145.113 Y82.401 E1.92756
G1 X145.113 Y107.599 E2.54627
G1 X144.266 Y108.446 E2.57569
G1 X119.068 Y108.446 E3.19441
G1 X118.220 Y107.599 E3.22383
G1 X118.220 Y82.488 E3.84042
G1 F1800.000 E2.59042
G92 E0
G1 X72.333 Y79.000 F7800.000
G1 X71.780 Y82.401
G1 F1800.000 E1.25000
G1 X71.780 Y107.599 F540.000 E1.86872
G1 X70.932 Y108.446 E1.89814
G1 X45.734 Y108.446 E2.51685
G1 X44.887 Y107.599 E2.54627
G1 X44.887 Y82.401 E3.16499
G1 X45.734 Y81.554 E3.19441
G1 X70.932 Y81.554 E3.81313
G1 X71.718 Y82.340 E3.84042
G1 F1800.000 E2.59042
G92 E0
G1 X72.333 Y79.000 F7800.000
G1 X118.799 Y82.641
G1 F1800.000 E1.25000
G1 X119.307 Y82.132 F540.000 E1.26765
G1 X144.026 Y82.132 E1.87460
G1 X144.534 Y82.641 E1.89225
G1 X144.534 Y107.359 E2.49920
G1 X144.026 Y107.868 E2.51685
G1 X119.307 Y107.868 E3.12380
G1 X118.799 Y107.359 E3.14145
G1 X118.799 Y82.727 E3.74627
G1 F1800.000 E2.49627
G92 E0
G1 X72.333 Y79.000 F7800.000
G1 X71.201 Y82.641
G1 F1800.000 E1.25000
G1 X71.201 Y107.359 F540.000 E1.85695
G1 X70.693 Y107.868 E1.87460
G1 X45.974 Y107.868 E2.48155
G1 X45.466 Y107.359 E2.49920
G1 X45.466 Y82.641 E3.10615
G1 X45.974 Y82.132 E3.12380
G1 X70.693 Y82.132 E3.73075
G1 X71.140 Y82.579 E3.74627
G1 F1800.000 E2.49627
G92 E0
G1 X72.333 Y79.000 F7800.000
G1 X119.377 Y82.880
G1 F1800.000 E1.25000
G1 X119.547 Y82.711 F540.000 E1.25588
G1 X143.786 Y82.711 E1.85106
G1 X143.956 Y82.880 E1.85695
G1 X143.956 Y107.120 E2.45213
G1 X143.786 Y107.289 E2.45801
G1 X119.547 Y107.289 E3.05319
G1 X119.377 Y107.120 E3.05908
G1 X119.377 Y82.967 E3.65213
G1 F1800.000 E2.40213
G92 E0
G1 X72.333 Y79.000 F7800.000
G1 X70.623 Y82.880
G1 F1800.000 E1.25000
G1 X70.623 Y107.120 F540.000 E1.84518
G1 X70.453 Y107.289 E1.85106
G1 X46.214 Y107.289 E2.44624
G1 X46.044 Y107.120 E2.45213
G1 X46.044 Y82.880 E3.04731
G1 X46.214 Y82.711 E3.05319
G1 X70.453 Y82.711 E3.64837
G1 X70.561 Y82.819 E3.65212
G1 X70.044 Y83.289 F7800.000
G1 X70.044 Y106.711 F378.000 E4.22722
G1 X46.623 Y106.711 E4.80231
G1 X46.623 Y83.289 E5.37740
G1 X69.957 Y83.289 E5.95036
G1 X69.755 Y83.790 F7800.000
G1 X69.466 Y83.868
G1 X69.466 Y106.132 F540.000 E6.49703
G1 X47.201 Y106.132 E7.04371
G1 X47.201 Y83.868 E7.59039
G1 X69.379 Y83.868 E8.13494
G1 X47.780 Y105.554 F7800.000
G1 X47.780 Y84.446 F540.000 E8.65321
G1 X68.887 Y84.446 E9.17148
G1 X68.887 Y105.554 E9.68975
G1 X47.866 Y105.554 E10.20589
G1 X48.199 Y105.134 F7800.000
G1 X48.199 Y104.307 F1080.000 E10.22643
G1 X49.026 Y105.134 E10.25548
G1 X49.854 Y105.134 E10.27602
G1 X48.199 Y103.480 E10.33412
G1 X48.199 Y102.652 E10.35466
G1 X50.681 Y105.134 E10.44181
G1 X51.508 Y105.134 E10.46235
G1 X48.199 Y101.825 E10.57854
G1 X48.199 Y100.998 E10.59908
G1 X52.336 Y105.134 E10.74432
G1 X53.163 Y105.134 E10.76486
G1 X48.199 Y100.170 E10.93915
G1 X48.199 Y99.343 E10.95969
G1 X53.990 Y105.134 E11.16303
G1 X54.817 Y105.134 E11.18357
G1 X48.199 Y98.516 E11.41595
G1 X48.199 Y97.689 E11.43649
G1 X55.645 Y105.134 E11.69792
G1 X56.472 Y105.134 E11.71846
G1 X48.199 Y96.861 E12.00893
G1 X48.199 Y96.034 E12.02947
G1 X57.299 Y105.134 E12.34899
G1 X58.127 Y105.134 E12.36953
G1 X48.199 Y95.207 E12.71810
G1 X48.199 Y94.379 E12.73864
G1 X58.954 Y105.134 E13.11626
G1 X59.781 Y105.134 E13.13680
G1 X48.199 Y93.552 E13.54346
G1 X48.199 Y92.725 E13.56400
G1 X60.608 Y105.134 E13.99971
G1 X61.436 Y105.134 E14.02025
G1 X48.199 Y91.898 E14.48501
G1 X48.199 Y91.070 E14.50554
G1 X62.263 Y105.134 E14.99935
G1 X63.090 Y105.134 E15.01989
G1 X48.199 Y90.243 E15.54274
G1 X48.199 Y89.416 E15.56328
G1 X63.918 Y105.134 E16.11518
G1 X64.745 Y105.134 E16.13571
G1 X48.199 Y88.588 E16.71666
G1 X48.199 Y87.761 E16.73720
G1 X65.572 Y105.134 E17.34719
G1 X66.399 Y105.134 E17.36773
G1 X48.199 Y86.934 E18.00677
G1 X48.199 Y86.107 E18.02731
G1 X67.227 Y105.134 E18.69539
G1 X68.054 Y105.134 E18.71593
G1 X48.199 Y85.279 E19.41306
G1 X48.613 Y84.866 E19.42759
G1 X68.468 Y104.721 E20.12472
G1 X68.468 Y103.893 E20.14526
G1 X49.440 Y84.866 E20.81334
G1 X50.267 Y84.866 E20.83388
G1 X68.468 Y103.066 E21.47291
G1 X68.468 Y102.239 E21.49345
G1 X51.095 Y84.866 E22.10344
G1 X51.922 Y84.866 E22.12398
G1 X68.468 Y101.412 E22.70493
G1 X68.468 Y100.584 E22.72546
G1 X52.749 Y84.866 E23.27736
G1 X53.576 Y84.866 E23.29790
G1 X68.468 Y99.757 E23.82075
G1 X68.468 Y98.930 E23.84129
G1 X54.404 Y84.866 E24.33509
G1 X55.231 Y84.866 E24.35563
G1 X68.468 Y98.102 E24.82038
G1 X68.468 Y97.275 E24.84092
G1 X56.058 Y84.866 E25.27663
G1 X56.886 Y84.866 E25.29717
G1 X68.468 Y96.448 E25.70383
G1 X68.468 Y95.621 E25.72437
G1 X57.713 Y84.866 E26.10199
G1 X58.540 Y84.866 E26.12252
G1 X68.468 Y94.793 E26.47109
G1 X68.468 Y93.966 E26.49163
G1 X59.367 Y84.866 E26.81115
G1 X60.195 Y84.866 E26.83169
G1 X68.468 Y93.139 E27.12217
G1 X68.468 Y92.311 E27.14270
G1 X61.022 Y84.866 E27.40413
G1 X61.849 Y84.866 E27.42467
G1 X68.468 Y91.484 E27.65705
G1 X68.468 Y90.657 E27.67759
G1 X62.677 Y84.866 E27.88092
G1 X63.504 Y84.866 E27.90146
G1 X68.468 Y89.830 E28.07575
G1 X68.468 Y89.002 E28.09629
G1 X64.331 Y84.866 E28.24153
G1 X65.158 Y84.866 E28.26207
G1 X68.468 Y88.175 E28.37826
G1 X68.468 Y87.348 E28.39880
G1 X65.986 Y84.866 E28.48594
G1 X66.813 Y84.866 E28.50648
G1 X68.468 Y86.520 E28.56458
G1 X68.468 Y85.693 E28.58512
G1 X67.640 Y84.866 E28.61417
G1 X68.468 Y84.866 E28.63472
G1 F1800.000 E27.38472
G92 E0
