; generated by Slic3r 0.9.9 on 2014-01-31 at 22:51:29

; layer_height = 0.1
; perimeters = 3
; top_solid_layers = 6
; bottom_solid_layers = 3
; fill_density = 0.4
; perimeter_speed = 30
; infill_speed = 60
; travel_speed = 130
; nozzle_diameter = 0.5
; filament_diameter = 3
; extrusion_multiplier = 1
; perimeters extrusion width = 0.85mm
; infill extrusion width = 1.98mm
; solid infill extrusion width = 0.85mm
; top infill extrusion width = 0.85mm
; first layer extrusion width = 0.60mm

G21 ; set units to millimeters
M190 S120 ; wait for bed temperature to be reached
M104 S205 ; set temperature
G28 ; home all axes
M109 S205 ; wait for temperature to be reached
G90 ; use absolute coordinates
G92 E0
M82 ; use absolute distances for extrusion
M106 S89
G1 F1800.000 E-1.25000
G92 E0
G1 Z0.300 F7800.000
G1 X49.487 Y58.190
G1 F1800.000 E1.25000
G1 X50.357 Y57.520 F540.000 E1.27696
G1 X50.977 Y57.120 E1.29508
G1 X51.607 Y56.750 E1.31302
G1 X52.257 Y56.420 E1.33092
G1 X53.277 Y56.010 E1.35791
G1 X53.977 Y55.780 E1.37600
G1 X54.677 Y55.590 E1.39381
G1 X55.757 Y55.380 E1.42083
G1 X113.707 Y48.670 E2.85324
G1 X115.157 Y48.590 E2.88890
G1 X121.647 Y48.590 E3.04825
G1 X122.407 Y48.610 E3.06692
G1 X122.787 Y48.640 E3.07628
G1 X123.537 Y48.730 E3.09483
G1 X123.917 Y48.800 E3.10431
G1 X124.287 Y48.870 E3.11356
G1 X125.027 Y49.050 E3.13226
G1 X125.387 Y49.160 E3.14150
G1 X126.107 Y49.410 E3.16022
G1 X127.157 Y49.860 E3.18827
G1 X127.827 Y50.210 E3.20683
G1 X128.797 Y50.820 E3.23496
G1 X129.407 Y51.270 E3.25357
G1 X129.987 Y51.750 E3.27206
G1 X130.267 Y52.010 E3.28144
G1 X132.057 Y53.820 E3.34395
G1 X132.537 Y54.390 E3.36224
G1 X132.977 Y55.000 E3.38071
G1 X133.577 Y55.940 E3.40809
G1 X134.087 Y56.940 E3.43566
G1 X134.507 Y57.980 E3.46320
G1 X134.737 Y58.700 E3.48176
G1 X134.837 Y59.060 E3.49093
G1 X144.697 Y103.080 E4.59858
G1 X144.797 Y103.530 E4.60990
G1 X144.867 Y103.990 E4.62132
G1 X144.967 Y104.910 E4.64405
G1 X145.007 Y105.830 E4.66666
G1 X145.007 Y128.830 E5.23140
G1 X144.987 Y129.560 E5.24933
G1 X144.957 Y129.930 E5.25844
G1 X144.877 Y130.650 E5.27623
G1 X144.817 Y131.010 E5.28519
G1 X144.577 Y132.090 E5.31236
G1 X144.367 Y132.790 E5.33030
G1 X143.977 Y133.810 E5.35712
G1 X143.667 Y134.480 E5.37524
G1 X143.137 Y135.430 E5.40195
G1 X142.517 Y136.340 E5.42899
G1 X142.067 Y136.920 E5.44702
G1 X141.577 Y137.460 E5.46492
G1 X141.057 Y137.980 E5.48298
G1 X140.517 Y138.470 E5.50088
G1 X139.937 Y138.920 E5.51891
G1 X139.337 Y139.340 E5.53689
G1 X139.027 Y139.540 E5.54595
G1 X138.397 Y139.900 E5.56376
G1 X138.077 Y140.070 E5.57266
G1 X137.407 Y140.380 E5.59079
G1 X136.387 Y140.770 E5.61760
G1 X135.327 Y141.070 E5.64465
G1 X134.247 Y141.280 E5.67167
G1 X133.157 Y141.390 E5.69857
G1 X132.427 Y141.410 E5.71650
G1 X109.427 Y141.410 E6.28124
G1 X108.957 Y141.400 E6.29278
G1 X108.017 Y141.330 E6.31593
G1 X107.087 Y141.190 E6.33902
G1 X106.627 Y141.090 E6.35058
G1 X65.917 Y131.810 E7.37581
G1 X65.207 Y131.600 E7.39399
G1 X64.507 Y131.350 E7.41224
G1 X64.167 Y131.220 E7.42118
G1 X63.497 Y130.910 E7.43931
G1 X62.527 Y130.380 E7.46645
G1 X62.217 Y130.180 E7.47551
G1 X61.607 Y129.760 E7.49369
G1 X61.027 Y129.310 E7.51172
G1 X60.477 Y128.820 E7.52980
G1 X59.707 Y128.030 E7.55689
G1 X59.227 Y127.470 E7.57500
G1 X58.787 Y126.880 E7.59307
G1 X58.187 Y125.950 E7.62025
G1 X57.837 Y125.300 E7.63838
G1 X57.527 Y124.630 E7.65650
G1 X57.247 Y123.950 E7.67456
G1 X45.627 Y89.000 E8.57891
G1 X45.397 Y88.220 E8.59888
G1 X45.217 Y87.440 E8.61853
G1 X45.147 Y87.040 E8.62850
G1 X45.047 Y86.240 E8.64830
G1 X44.987 Y85.030 E8.67805
G1 X44.987 Y67.830 E9.10037
G1 X45.007 Y67.100 E9.11830
G1 X45.117 Y66.010 E9.14520
G1 X45.327 Y64.930 E9.17222
G1 X45.627 Y63.870 E9.19927
G1 X46.017 Y62.840 E9.22631
G1 X46.497 Y61.860 E9.25311
G1 X47.057 Y60.910 E9.28018
G1 X47.477 Y60.310 E9.29817
G1 X47.707 Y60.020 E9.30726
G1 X48.177 Y59.460 E9.32521
G1 X48.677 Y58.930 E9.34310
G1 X48.937 Y58.670 E9.35213
G1 X49.421 Y58.246 E9.36792
G1 F1800.000 E8.11792
G92 E0
G1 X102.202 Y102.838 F7800.000
G1 F1800.000 E1.25000
G1 X106.438 Y98.602 F540.000 E1.39710
G1 X135.429 Y98.602 E2.10895
G1 X139.665 Y102.838 E2.25605
G1 X139.665 Y131.829 E2.96789
G1 X135.429 Y136.065 E3.11500
G1 X106.438 Y136.065 E3.82684
G1 X102.202 Y131.829 E3.97394
G1 X102.202 Y102.925 E4.68366
G1 F1800.000 E3.43366
G92 E0
G1 X67.718 Y91.111 F7800.000
G1 X95.162 Y92.265
G1 F1800.000 E1.25000
G1 X87.898 Y92.265 F540.000 E1.42835
G1 X87.898 Y122.629 E2.17390
G1 X83.662 Y126.865 E2.32101
G1 X66.071 Y126.865 E2.75294
G1 X61.835 Y122.629 E2.90004
G1 X61.835 Y92.265 E3.64559
G1 X54.571 Y92.265 E3.82394
G1 X50.335 Y88.029 E3.97105
G1 X50.335 Y64.838 E4.54048
G1 X54.571 Y60.602 E4.68758
G1 X72.062 Y60.602 E5.11705
G1 X74.867 Y63.406 E5.21444
G1 X77.671 Y60.602 E5.31182
G1 X95.162 Y60.602 E5.74130
G1 X99.398 Y64.838 E5.88840
G1 X99.398 Y88.029 E6.45783
G1 X95.224 Y92.204 E6.60280
G1 F1800.000 E5.35280
G92 E0
G1 X67.718 Y91.111 F7800.000
G1 X107.267 Y90.210
G1 F1800.000 E1.25000
G1 X107.269 Y82.670 F540.000 E1.43512
G1 X109.247 Y80.693 E1.50381
G1 X109.240 Y80.010 E1.52056
G1 X109.285 Y79.965 E1.52213
G1 X109.285 Y79.629 E1.53037
G1 X109.147 Y79.312 E1.53886
G1 X108.881 Y78.063 E1.57022
G1 X108.801 Y77.307 E1.58888
G1 X108.801 Y73.526 E1.68171
G1 X108.881 Y72.770 E1.70039
G1 X109.149 Y71.514 E1.73193
G1 X109.274 Y71.229 E1.73956
G1 X109.277 Y70.171 E1.76553
G1 X107.269 Y68.163 E1.83527
G1 X107.267 Y60.624 E2.02038
G1 X108.529 Y57.804 E2.09622
G1 X111.793 Y54.886 E2.20374
G1 X114.285 Y53.935 E2.26922
G1 X122.532 Y53.935 E2.47172
G1 X125.024 Y54.886 E2.53721
G1 X128.288 Y57.804 E2.64473
G1 X129.549 Y60.624 E2.72056
G1 X129.548 Y68.163 E2.90568
G1 X127.509 Y70.202 E2.97649
G1 X127.530 Y71.197 E3.00094
G1 X127.668 Y71.513 E3.00939
G1 X127.936 Y72.770 E3.04095
G1 X128.016 Y73.526 E3.05963
G1 X128.016 Y77.307 E3.15246
G1 X127.936 Y78.063 E3.17112
G1 X127.670 Y79.312 E3.20248
G1 X127.533 Y79.627 E3.21090
G1 X127.527 Y80.649 E3.23602
G1 X129.548 Y82.670 E3.30620
G1 X129.549 Y90.210 E3.49132
G1 X128.288 Y93.029 E3.56716
G1 X125.024 Y95.947 E3.67467
G1 X122.532 Y96.898 E3.74016
G1 X114.285 Y96.898 E3.94266
G1 X111.793 Y95.947 E4.00815
G1 X108.529 Y93.029 E4.11566
G1 X107.303 Y90.289 E4.18937
G1 F1800.000 E2.93937
G92 E0
G1 X67.718 Y91.111 F7800.000
G1 X106.677 Y99.180
G1 F1800.000 E1.25000
G1 X135.189 Y99.180 F540.000 E1.95008
G1 X139.087 Y103.077 E2.08541
G1 X139.087 Y131.589 E2.78549
G1 X135.189 Y135.487 E2.92082
G1 X106.677 Y135.487 E3.62090
G1 X102.780 Y131.589 E3.75623
G1 X102.780 Y103.077 E4.45631
G1 X106.616 Y99.241 E4.58951
G1 F1800.000 E3.33951
G92 E0
G1 X67.718 Y91.111 F7800.000
G1 X67.717 Y85.000
G1 X98.820 Y87.789
G1 F1800.000 E1.25000
G1 X94.923 Y91.687 F540.000 E1.38533
G1 X87.320 Y91.687 E1.57201
G1 X87.320 Y122.389 E2.32588
G1 X83.423 Y126.287 E2.46122
G1 X66.311 Y126.287 E2.88138
G1 X62.413 Y122.389 E3.01671
G1 X62.413 Y91.687 E3.77058
G1 X54.811 Y91.687 E3.95726
G1 X50.913 Y87.789 E4.09259
G1 X50.913 Y65.077 E4.65026
G1 X54.811 Y61.180 E4.78559
G1 X71.823 Y61.180 E5.20329
G1 X74.867 Y64.224 E5.30900
G1 X77.911 Y61.180 E5.41471
G1 X94.923 Y61.180 E5.83241
G1 X98.820 Y65.077 E5.96775
G1 X98.820 Y87.702 E6.52328
G1 F1800.000 E5.27328
G92 E0
G1 X67.717 Y85.000 F7800.000
G1 X67.718 Y91.111
G1 X107.846 Y90.086
G1 F1800.000 E1.25000
G1 X107.847 Y82.910 F540.000 E1.42620
G1 X109.828 Y80.930 E1.49497
G1 X109.821 Y80.244 E1.51181
G1 X109.863 Y80.201 E1.51329
G1 X109.864 Y79.509 E1.53028
G1 X109.701 Y79.135 E1.54031
G1 X109.453 Y77.972 E1.56949
G1 X109.380 Y77.276 E1.58667
G1 X109.380 Y73.557 E1.67800
G1 X109.453 Y72.861 E1.69518
G1 X109.703 Y71.691 E1.72454
G1 X109.852 Y71.351 E1.73368
G1 X109.854 Y69.930 E1.76856
G1 X107.847 Y67.923 E1.83825
G1 X107.846 Y60.747 E2.01445
G1 X109.006 Y58.153 E2.08421
G1 X112.099 Y55.389 E2.18608
G1 X114.392 Y54.513 E2.24633
G1 X118.336 Y54.513 E2.34319
G1 X118.408 Y54.568 E2.34540
G1 X118.481 Y54.513 E2.34762
G1 X122.425 Y54.513 E2.44448
G1 X124.718 Y55.389 E2.50473
G1 X127.811 Y58.153 E2.60659
G1 X128.971 Y60.747 E2.67636
G1 X128.970 Y67.923 E2.85256
G1 X126.931 Y69.962 E2.92335
G1 X126.954 Y71.325 E2.95682
G1 X127.114 Y71.691 E2.96664
G1 X127.364 Y72.861 E2.99601
G1 X127.437 Y73.557 E3.01319
G1 X127.437 Y77.276 E3.10453
G1 X127.364 Y77.972 E3.12170
G1 X127.116 Y79.135 E3.15089
G1 X126.955 Y79.505 E3.16080
G1 X126.947 Y80.888 E3.19476
G1 X128.970 Y82.910 E3.26499
G1 X128.971 Y90.086 E3.44119
G1 X127.811 Y92.680 E3.51096
G1 X124.718 Y95.445 E3.61282
G1 X122.425 Y96.320 E3.67307
G1 X118.481 Y96.320 E3.76993
G1 X118.408 Y96.265 E3.77215
G1 X118.336 Y96.320 E3.77437
G1 X114.392 Y96.320 E3.87122
G1 X112.099 Y95.445 E3.93147
G1 X109.006 Y92.680 E4.03334
G1 X107.881 Y90.165 E4.10097
G1 F1800.000 E2.85097
G92 E0
G1 X67.718 Y91.111 F7800.000
G1 X106.917 Y99.759
G1 F1800.000 E1.25000
G1 X134.950 Y99.759 F540.000 E1.93831
G1 X138.508 Y103.317 E2.06187
G1 X138.508 Y131.350 E2.75018
G1 X134.950 Y134.908 E2.87375
G1 X106.917 Y134.908 E3.56206
G1 X103.359 Y131.350 E3.68562
G1 X103.359 Y103.317 E4.37393
G1 X106.856 Y99.820 E4.49536
G1 F1800.000 E3.24536
G92 E0
G1 X67.718 Y91.111 F7800.000
G1 X94.683 Y91.108
G1 F1800.000 E1.25000
G1 X86.741 Y91.108 F540.000 E1.44500
G1 X86.741 Y122.150 E2.20719
G1 X83.183 Y125.708 E2.33076
G1 X66.550 Y125.708 E2.73915
G1 X62.992 Y122.150 E2.86271
G1 X62.992 Y91.108 E3.62491
G1 X55.050 Y91.108 E3.81990
G1 X51.492 Y87.550 E3.94347
G1 X51.492 Y65.317 E4.48937
G1 X55.050 Y61.759 E4.61293
G1 X71.583 Y61.759 E5.01887
G1 X74.867 Y65.042 E5.13290
G1 X78.150 Y61.759 E5.24692
G1 X94.683 Y61.759 E5.65286
G1 X98.241 Y65.317 E5.77643
G1 X98.241 Y87.550 E6.32232
G1 X94.744 Y91.047 E6.44376
G1 F1800.000 E5.19376
G92 E0
G1 X67.718 Y91.111 F7800.000
G1 X108.425 Y89.963
G1 F1800.000 E1.25000
G1 X108.426 Y83.150 F540.000 E1.41728
G1 X110.409 Y81.167 E1.48614
G1 X110.402 Y80.478 E1.50306
G1 X110.441 Y80.438 E1.50444
G1 X110.443 Y79.389 E1.53019
G1 X110.255 Y78.957 E1.54176
G1 X110.025 Y77.881 E1.56877
G1 X109.958 Y77.246 E1.58445
G1 X109.958 Y73.587 E1.67429
G1 X110.025 Y72.952 E1.68998
G1 X110.256 Y71.869 E1.71715
G1 X110.430 Y71.472 E1.72779
G1 X110.431 Y69.689 E1.77159
G1 X108.426 Y67.683 E1.84122
G1 X108.425 Y60.871 E2.00851
G1 X109.484 Y58.502 E2.07221
G1 X112.405 Y55.891 E2.16842
G1 X114.498 Y55.092 E2.22343
G1 X118.143 Y55.092 E2.31291
G1 X118.408 Y55.293 E2.32109
G1 X118.674 Y55.092 E2.32927
G1 X122.319 Y55.092 E2.41875
G1 X124.412 Y55.891 E2.47376
G1 X127.333 Y58.502 E2.56997
G1 X128.392 Y60.871 E2.63367
G1 X128.391 Y67.683 E2.80095
G1 X126.353 Y69.721 E2.87172
G1 X126.378 Y71.452 E2.91422
G1 X126.560 Y71.869 E2.92539
G1 X126.791 Y72.952 E2.95258
G1 X126.858 Y73.587 E2.96826
G1 X126.858 Y77.246 E3.05811
G1 X126.791 Y77.881 E3.07379
G1 X126.562 Y78.957 E3.10080
G1 X126.377 Y79.383 E3.11220
G1 X126.367 Y81.126 E3.15500
G1 X128.391 Y83.150 E3.22528
G1 X128.392 Y89.963 E3.39257
G1 X127.333 Y92.331 E3.45627
G1 X124.412 Y94.942 E3.55248
G1 X122.319 Y95.741 E3.60749
G1 X118.674 Y95.741 E3.69697
G1 X118.408 Y95.541 E3.70515
G1 X118.143 Y95.741 E3.71332
G1 X114.498 Y95.741 E3.80281
G1 X112.405 Y94.942 E3.85782
G1 X109.484 Y92.331 E3.95403
G1 X108.460 Y90.042 E4.01560
G1 F1800.000 E2.76560
G92 E0
G1 X67.718 Y91.111 F7800.000
G1 X107.157 Y100.337
G1 F1800.000 E1.25000
G1 X134.710 Y100.337 F540.000 E1.92654
G1 X137.929 Y103.557 E2.03834
G1 X137.929 Y131.110 E2.71488
G1 X134.710 Y134.329 E2.82667
G1 X107.157 Y134.329 E3.50321
G1 X103.937 Y131.110 E3.61501
G1 X103.937 Y103.557 E4.29155
G1 X107.095 Y100.399 E4.40122
G1 F1800.000 E3.15122
G92 E0
G1 X67.718 Y91.111 F7800.000
G1 X94.443 Y90.529
G1 F1800.000 E1.25000
G1 X86.163 Y90.529 F540.000 E1.45332
G1 X86.163 Y121.910 E2.22383
G1 X82.943 Y125.129 E2.33563
G1 X66.790 Y125.129 E2.73225
G1 X63.571 Y121.910 E2.84405
G1 X63.571 Y90.529 E3.61457
G1 X55.290 Y90.529 E3.81789
G1 X52.071 Y87.310 E3.92968
G1 X52.071 Y65.557 E4.46381
G1 X55.290 Y62.337 E4.57561
G1 X71.343 Y62.337 E4.96978
G1 X74.563 Y65.557 E5.08157
G1 X74.563 Y77.337 E5.37083
G1 X75.171 Y77.337 E5.38575
G1 X75.171 Y65.557 E5.67501
G1 X78.390 Y62.337 E5.78681
G1 X94.443 Y62.337 E6.18098
G1 X97.663 Y65.557 E6.29277
G1 X97.663 Y87.310 E6.82690
G1 X94.505 Y90.468 E6.93657
G1 F1800.000 E5.68657
G92 E0
G1 X67.718 Y91.111 F7800.000
G1 X109.003 Y89.839
G1 F1800.000 E1.25000
G1 X109.004 Y83.390 F540.000 E1.40837
G1 X110.990 Y81.404 E1.47731
G1 X110.983 Y80.712 E1.49432
G1 X111.019 Y80.674 E1.49560
G1 X111.021 Y79.269 E1.53010
G1 X110.809 Y78.780 E1.54321
G1 X110.598 Y77.790 E1.56805
G1 X110.537 Y77.216 E1.58224
G1 X110.537 Y73.618 E1.67058
G1 X110.598 Y73.043 E1.68478
G1 X110.810 Y72.047 E1.70977
G1 X111.008 Y71.594 E1.72191
G1 X111.008 Y69.448 E1.77461
G1 X109.004 Y67.444 E1.84420
G1 X109.003 Y60.994 E2.00257
G1 X109.962 Y58.851 E2.06020
G1 X112.711 Y56.394 E2.15076
G1 X114.605 Y55.671 E2.20053
G1 X117.949 Y55.671 E2.28264
G1 X118.408 Y56.017 E2.29677
G1 X118.868 Y55.671 E2.31091
G1 X122.212 Y55.671 E2.39301
G1 X124.106 Y56.394 E2.44279
G1 X126.855 Y58.851 E2.53334
G1 X127.814 Y60.994 E2.59098
G1 X127.813 Y67.444 E2.74934
G1 X125.775 Y69.481 E2.82009
G1 X125.773 Y70.324 E2.84079
G1 X125.803 Y71.579 E2.87162
G1 X126.007 Y72.047 E2.88415
G1 X126.219 Y73.043 E2.90915
G1 X126.280 Y73.618 E2.92334
G1 X126.280 Y77.216 E3.01169
G1 X126.219 Y77.790 E3.02588
G1 X126.008 Y78.780 E3.05072
G1 X125.799 Y79.261 E3.06360
G1 X125.787 Y81.364 E3.11525
G1 X127.813 Y83.390 E3.18558
G1 X127.814 Y89.839 E3.34395
G1 X126.855 Y91.982 E3.40158
G1 X124.106 Y94.440 E3.49214
G1 X122.212 Y95.163 E3.54191
G1 X118.868 Y95.163 E3.62402
G1 X118.408 Y94.816 E3.63815
G1 X117.949 Y95.163 E3.65229
G1 X114.605 Y95.163 E3.73439
G1 X112.711 Y94.440 E3.78416
G1 X109.962 Y91.982 E3.87472
G1 X109.039 Y89.918 E3.93022
G1 F1800.000 E2.68022
G92 E0
G1 X67.718 Y91.111 F7800.000
G1 X107.396 Y100.916
G1 F1800.000 E1.25000
G1 X134.470 Y100.916 F540.000 E1.91477
G1 X137.351 Y103.796 E2.01480
G1 X137.351 Y130.870 E2.67957
G1 X134.470 Y133.751 E2.77960
G1 X107.396 Y133.751 E3.44437
G1 X104.516 Y130.870 E3.54440
G1 X104.516 Y103.796 E4.20917
G1 X107.335 Y100.977 E4.30707
G1 F1800.000 E3.05707
G92 E0
G1 X67.718 Y91.111 F7800.000
G1 X94.204 Y89.951
G1 F1800.000 E1.25000
G1 X85.584 Y89.951 F540.000 E1.46164
G1 X85.584 Y121.670 E2.24048
G1 X82.704 Y124.551 E2.34051
G1 X67.030 Y124.551 E2.72536
G1 X64.149 Y121.670 E2.82539
G1 X64.149 Y89.951 E3.60423
G1 X55.530 Y89.951 E3.81587
G1 X52.649 Y87.070 E3.91590
G1 X52.649 Y65.796 E4.43825
G1 X55.530 Y62.916 E4.53828
G1 X71.104 Y62.916 E4.92068
G1 X73.984 Y65.796 E5.02071
G1 X73.984 Y77.916 E5.31829
G1 X75.749 Y77.916 E5.36163
G1 X75.749 Y65.796 E5.65920
G1 X78.630 Y62.916 E5.75923
G1 X94.204 Y62.916 E6.14163
G1 X97.084 Y65.796 E6.24166
G1 X97.084 Y87.070 E6.76402
G1 X94.265 Y89.890 E6.86192
G1 F1800.000 E5.61192
G92 E0
G1 X67.718 Y91.111 F7800.000
G1 X109.582 Y89.716
G1 F1800.000 E1.25000
G1 X109.583 Y83.629 F540.000 E1.39945
G1 X111.571 Y81.641 E1.46848
G1 X111.564 Y80.945 E1.48557
G1 X111.597 Y80.911 E1.48676
G1 X111.600 Y79.149 E1.53001
G1 X111.362 Y78.602 E1.54466
G1 X111.170 Y77.699 E1.56733
G1 X111.116 Y77.185 E1.58002
G1 X111.116 Y73.648 E1.66688
G1 X111.170 Y73.134 E1.67957
G1 X111.364 Y72.225 E1.70238
G1 X111.586 Y71.716 E1.71602
G1 X111.585 Y69.207 E1.77764
G1 X109.583 Y67.204 E1.84718
G1 X109.582 Y61.118 E1.99663
G1 X110.439 Y59.200 E2.04820
G1 X113.017 Y56.896 E2.13310
G1 X114.712 Y56.249 E2.17763
G1 X117.755 Y56.249 E2.25237
G1 X118.408 Y56.742 E2.27246
G1 X119.062 Y56.249 E2.29255
G1 X122.105 Y56.249 E2.36728
G1 X123.800 Y56.896 E2.41181
G1 X126.378 Y59.200 E2.49672
G1 X127.235 Y61.118 E2.54829
G1 X127.234 Y67.204 E2.69773
G1 X125.198 Y69.241 E2.76846
G1 X125.195 Y70.330 E2.79520
G1 X125.227 Y71.707 E2.82902
G1 X125.453 Y72.225 E2.84290
G1 X125.647 Y73.134 E2.86572
G1 X125.701 Y73.648 E2.87842
G1 X125.701 Y77.185 E2.96527
G1 X125.647 Y77.699 E2.97797
G1 X125.455 Y78.602 E3.00064
G1 X125.221 Y79.139 E3.01501
G1 X125.207 Y81.603 E3.07550
G1 X127.234 Y83.629 E3.14588
G1 X127.235 Y89.716 E3.29532
G1 X126.378 Y91.633 E3.34689
G1 X123.800 Y93.937 E3.43180
G1 X122.105 Y94.584 E3.47633
