; generated by Slic3r 1.0.0RC2 on 2014-02-05 at 20:37:01

; layer_height = 0.2
; perimeters = 3
; top_solid_layers = 6
; bottom_solid_layers = 3
; fill_density = 0.4
; perimeter_speed = 30
; infill_speed = 60
; travel_speed = 130
; nozzle_diameter = 0.5
; filament_diameter = 2.94
; extrusion_multiplier = 1
; perimeters extrusion width = 0.50mm
; infill extrusion width = 1.02mm
; solid infill extrusion width = 0.85mm
; top infill extrusion width = 0.85mm
; first layer extrusion width = 0.40mm

G21 ; set units to millimeters
M190 S120 ; wait for bed temperature to be reached
M104 S195 ; set temperature
G28 ; home all axes
M109 S195 ; wait for temperature to be reached
G90 ; use absolute coordinates
G92 E0
M82 ; use absolute distances for extrusion
M106 S89
G1 F1800.000 E-1.25000
G92 E0
G1 Z0.200 F7800.000
G1 X70.096 Y64.088 F7800.000
G1 E1.25000 F1800.000
G1 X74.856 Y59.548 E1.33168 F540.000
G1 X75.826 Y58.748 E1.34729
G1 X81.195 Y54.978 E1.42876
G1 X82.275 Y54.338 E1.44434
G1 X88.145 Y51.408 E1.52580
G1 X88.926 Y51.058 E1.53642
G1 X89.886 Y50.758 E1.54891
G1 X90.966 Y50.548 E1.56257
G1 X92.055 Y50.478 E1.57613
G1 X92.696 Y50.498 E1.58408
G1 X93.766 Y50.628 E1.59746
G1 X94.805 Y50.878 E1.61075
G1 X95.895 Y51.278 E1.62516
G1 X96.166 Y51.398 E1.62883
G1 X97.365 Y52.058 E1.64584
G1 X98.185 Y52.608 E1.65810
G1 X98.865 Y53.138 E1.66880
G1 X99.516 Y53.698 E1.67945
G1 X100.906 Y54.998 E1.70308
G1 X101.386 Y55.478 E1.71151
G1 X102.025 Y56.188 E1.72338
G1 X127.646 Y89.088 E2.24114
G1 X128.176 Y89.848 E2.25264
G1 X128.826 Y91.058 E2.26970
G1 X131.476 Y97.268 E2.35353
G1 X131.815 Y98.228 E2.36618
G1 X132.025 Y99.088 E2.37717
G1 X132.156 Y99.958 E2.38809
G1 X132.755 Y106.648 E2.47149
G1 X132.786 Y107.538 E2.48255
G1 X132.745 Y108.408 E2.49336
G1 X132.606 Y109.278 E2.50430
G1 X131.195 Y115.978 E2.58932
G1 X130.836 Y117.178 E2.60487
G1 X130.375 Y118.198 E2.61877
G1 X127.226 Y124.078 E2.70159
G1 X127.006 Y124.458 E2.70704
G1 X126.465 Y125.288 E2.71934
G1 X125.816 Y126.038 E2.73166
G1 X121.126 Y130.938 E2.81588
G1 X120.336 Y131.668 E2.82924
G1 X119.456 Y132.288 E2.84260
G1 X113.696 Y135.828 E2.92655
G1 X112.766 Y136.328 E2.93966
G1 X111.786 Y136.698 E2.95267
G1 X105.346 Y138.698 E3.03640
G1 X104.386 Y138.938 E3.04868
G1 X103.396 Y139.058 E3.06107
G1 X96.686 Y139.498 E3.14456
G1 X95.725 Y139.508 E3.15648
G1 X94.766 Y139.408 E3.16847
G1 X88.145 Y138.318 E3.25177
G1 X87.245 Y138.118 E3.26322
G1 X86.365 Y137.818 E3.27476
G1 X80.166 Y135.318 E3.35777
G1 X79.316 Y134.918 E3.36943
G1 X78.475 Y134.388 E3.38176
G1 X78.466 Y134.398 E3.38194
G1 X73.066 Y130.748 E3.46287
G1 X72.426 Y130.268 E3.47280
G1 X71.636 Y129.528 E3.48624
G1 X67.096 Y124.858 E3.56711
G1 X66.306 Y123.918 E3.58236
G1 X65.966 Y123.428 E3.58977
G1 X62.446 Y117.968 E3.67043
G1 X61.996 Y117.178 E3.68172
G1 X61.636 Y116.398 E3.69238
G1 X59.226 Y110.378 E3.77290
G1 X59.006 Y109.758 E3.78107
G1 X58.736 Y108.728 E3.79429
G1 X57.436 Y102.148 E3.87757
G1 X57.296 Y100.718 E3.89541
G1 X57.206 Y93.978 E3.97910
G1 X57.306 Y92.648 E3.99566
G1 X58.346 Y86.128 E4.07764
G1 X58.696 Y84.738 E4.09544
G1 X60.826 Y78.488 E4.17743
G1 X61.376 Y77.218 E4.19461
G1 X64.496 Y71.418 E4.27639
G1 X65.216 Y70.298 E4.29292
G1 X69.206 Y65.068 E4.37460
G1 X70.053 Y64.135 E4.39025
G1 F1800.000 E3.14025
G92 E0
G1 X71.804 Y65.625 F7800.000
G1 E1.25000 F1800.000
G1 X72.755 Y64.910 E1.26477 F540.000
G1 X73.598 Y64.462 E1.27662
G1 X74.543 Y64.135 E1.28904
G1 X74.675 Y64.010 E1.29129
G1 X75.080 Y63.018 E1.30460
G1 X75.567 Y62.210 E1.31632
G1 X76.335 Y61.290 E1.33119
G1 X77.197 Y60.577 E1.34508
G1 X78.247 Y59.990 E1.36002
G1 X79.144 Y59.659 E1.37188
G1 X80.217 Y59.454 E1.38545
G1 X80.392 Y59.342 E1.38803
G1 X80.840 Y58.556 E1.39927
G1 X81.420 Y57.824 E1.41087
G1 X82.297 Y57.011 E1.42571
G1 X83.241 Y56.412 E1.43960
G1 X84.361 Y55.961 E1.45458
G1 X85.301 Y55.746 E1.46655
G1 X86.321 Y55.676 E1.47925
G1 X86.525 Y55.686 E1.48179
G1 X86.714 Y55.597 E1.48439
G1 X87.164 Y54.999 E1.49367
G1 X87.826 Y54.351 E1.50517
G1 X88.790 Y53.657 E1.51992
G1 X89.789 Y53.183 E1.53365
G1 X90.958 Y52.869 E1.54868
G1 X91.935 Y52.769 E1.56087
G1 X92.979 Y52.829 E1.57387
G1 X93.700 Y52.959 E1.58296
G1 X94.498 Y53.204 E1.59332
G1 X94.931 Y53.374 E1.59910
G1 X95.833 Y53.828 E1.61163
G1 X96.557 Y54.288 E1.62228
G1 X97.244 Y54.800 E1.63293
G1 X98.154 Y55.580 E1.64781
G1 X99.451 Y56.802 E1.66993
G1 X100.111 Y57.493 E1.68180
G1 X100.769 Y58.343 E1.69515
G1 X101.652 Y59.730 E1.71556
G1 X102.838 Y61.871 E1.74596
G1 X103.865 Y64.185 E1.77739
G1 X103.986 Y64.510 E1.78169
G1 X104.615 Y66.553 E1.80823
G1 X104.690 Y66.846 E1.81199
G1 X105.179 Y69.300 E1.84306
G1 X105.500 Y71.932 E1.87598
G1 X105.731 Y75.338 E1.91837
G1 X105.749 Y78.576 E1.95858
G1 X105.703 Y79.348 E1.96818
G1 X105.843 Y79.578 E1.97152
G1 X106.201 Y79.731 E1.97636
G1 X106.889 Y80.124 E1.98620
G1 X107.310 Y80.412 E1.99253
G1 X107.515 Y80.437 E1.99509
G1 X108.476 Y80.146 E2.00756
G1 X109.140 Y80.031 E2.01592
G1 X110.277 Y79.960 E2.03007
G1 X111.227 Y80.050 E2.04192
G1 X112.493 Y80.373 E2.05815
G1 X113.616 Y80.920 E2.07365
G1 X114.687 Y81.746 E2.09046
G1 X115.379 Y82.493 E2.10309
G1 X115.630 Y82.874 E2.10876
G1 X115.819 Y82.975 E2.11142
G1 X116.244 Y82.972 E2.11669
G1 X117.084 Y83.039 E2.12716
G1 X117.851 Y83.200 E2.13690
G1 X118.839 Y83.544 E2.14988
G1 X119.735 Y84.035 E2.16257
G1 X120.627 Y84.740 E2.17669
G1 X121.299 Y85.477 E2.18908
G1 X121.863 Y86.344 E2.20192
G1 X122.203 Y87.051 E2.21165
G1 X122.469 Y87.853 E2.22214
G1 X122.540 Y88.153 E2.22597
G1 X122.688 Y88.314 E2.22869
G1 X122.878 Y88.377 E2.23117
G1 X123.642 Y88.705 E2.24149
G1 X124.294 Y89.085 E2.25086
G1 X125.112 Y89.709 E2.26365
G1 X125.803 Y90.444 E2.27616
G1 X126.450 Y91.411 E2.29061
G1 X126.879 Y92.377 E2.30374
G1 X127.135 Y93.401 E2.31685
G1 X127.227 Y94.161 E2.32635
G1 X127.222 Y95.005 E2.33683
G1 X127.192 Y95.327 E2.34084
G1 X127.269 Y95.517 E2.34339
G1 X127.905 Y96.063 E2.35380
G1 X128.406 Y96.612 E2.36303
G1 X129.006 Y97.454 E2.37586
G1 X129.451 Y98.369 E2.38850
G1 X129.777 Y99.478 E2.40285
G1 X129.899 Y100.496 E2.41558
G1 X129.848 Y101.566 E2.42888
G1 X129.697 Y102.378 E2.43914
G1 X129.423 Y103.210 E2.45001
G1 X129.294 Y103.508 E2.45405
G1 X129.311 Y103.718 E2.45667
G1 X129.657 Y104.255 E2.46459
G1 X129.976 Y104.911 E2.47365
G1 X130.311 Y105.878 E2.48635
G1 X130.481 Y106.863 E2.49877
G1 X130.489 Y108.024 E2.51319
G1 X130.319 Y109.058 E2.52620
G1 X129.960 Y110.089 E2.53975
G1 X129.576 Y110.840 E2.55022
G1 X129.062 Y111.575 E2.56137
G1 X128.840 Y111.836 E2.56561
G1 X128.796 Y112.047 E2.56829
G1 X128.930 Y112.484 E2.57397
G1 X129.059 Y113.196 E2.58294
G1 X129.120 Y114.202 E2.59546
G1 X129.027 Y115.159 E2.60740
G1 X128.737 Y116.277 E2.62175
G1 X128.292 Y117.251 E2.63503
G1 X127.657 Y118.175 E2.64896
G1 X127.062 Y118.818 E2.65984
G1 X126.352 Y119.394 E2.67118
G1 X126.049 Y119.595 E2.67571
G1 X125.948 Y119.790 E2.67842
G1 X125.957 Y120.079 E2.68202
G1 X125.903 Y120.755 E2.69044
G1 X125.714 Y121.736 E2.70284
G1 X125.378 Y122.656 E2.71501
G1 X124.809 Y123.672 E2.72946
G1 X124.139 Y124.495 E2.74265
G1 X123.288 Y125.232 E2.75662
G1 X122.535 Y125.712 E2.76770
G1 X121.679 Y126.096 E2.77936
G1 X121.293 Y126.225 E2.78441
G1 X121.144 Y126.390 E2.78717
G1 X120.900 Y127.149 E2.79706
G1 X120.483 Y128.039 E2.80927
G1 X119.956 Y128.822 E2.82100
G1 X119.171 Y129.671 E2.83536
G1 X118.312 Y130.322 E2.84873
G1 X117.289 Y130.845 E2.86300
G1 X116.415 Y131.137 E2.87445
G1 X115.473 Y131.300 E2.88632
G1 X115.026 Y131.331 E2.89188
G1 X114.853 Y131.434 E2.89438
G1 X114.514 Y131.972 E2.90228
G1 X113.911 Y132.733 E2.91433
G1 X113.236 Y133.362 E2.92578
G1 X112.272 Y134.020 E2.94028
G1 X111.252 Y134.472 E2.95412
G1 X110.123 Y134.743 E2.96854
G1 X109.219 Y134.821 E2.97981
G1 X108.258 Y134.763 E2.99176
G1 X107.732 Y134.673 E2.99840
G1 X107.537 Y134.735 E3.00093
G1 X107.213 Y135.056 E3.00660
G1 X106.464 Y135.659 E3.01854
G1 X105.672 Y136.121 E3.02992
G1 X104.595 Y136.548 E3.04430
G1 X103.519 Y136.765 E3.05793
G1 X102.346 Y136.788 E3.07251
G1 X101.406 Y136.661 E3.08428
G1 X100.461 Y136.379 E3.09652
G1 X99.918 Y136.150 E3.10385
G1 X99.711 Y136.167 E3.10642
G1 X99.470 Y136.320 E3.10997
G1 X98.621 Y136.744 E3.12175
G1 X97.762 Y137.025 E3.13297
G1 X96.627 Y137.218 E3.14727
G1 X95.538 Y137.208 E3.16079
G1 X94.379 Y136.988 E3.17544
G1 X93.466 Y136.660 E3.18748
G1 X92.578 Y136.171 E3.20007
G1 X92.038 Y135.786 E3.20831
G1 X91.829 Y135.759 E3.21092
G1 X90.800 Y136.042 E3.22417
G1 X89.901 Y136.141 E3.23540
G1 X88.761 Y136.098 E3.24957
G1 X87.724 Y135.875 E3.26274
G1 X86.624 Y135.431 E3.27746
G1 X85.765 Y134.906 E3.28997
G1 X84.989 Y134.235 E3.30271
G1 X84.489 Y133.692 E3.31187
G1 X84.314 Y133.621 E3.31422
G1 X83.382 Y133.673 E3.32581
G1 X82.520 Y133.599 E3.33655
G1 X81.414 Y133.344 E3.35064
G1 X80.417 Y132.918 E3.36411
G1 X79.418 Y132.262 E3.37894
G1 X78.684 Y131.586 E3.39133
G1 X78.041 Y130.765 E3.40428
G1 X77.602 Y130.040 E3.41481
G1 X77.441 Y129.934 E3.41720
G1 X76.713 Y129.839 E3.42632
G1 X75.874 Y129.605 E3.43713
G1 X74.838 Y129.149 E3.45119
G1 X73.951 Y128.558 E3.46442
G1 X73.082 Y127.727 E3.47935
G1 X72.465 Y126.899 E3.49217
G1 X71.984 Y125.956 E3.50531
G1 X71.731 Y125.264 E3.51446
G1 X71.696 Y125.113 E3.51639
G1 X71.547 Y124.950 E3.51913
G1 X70.985 Y124.766 E3.52647
G1 X70.248 Y124.409 E3.53664
G1 X69.312 Y123.789 E3.55058
G1 X68.522 Y123.034 E3.56415
G1 X67.807 Y122.052 E3.57923
G1 X67.350 Y121.133 E3.59197
G1 X67.037 Y120.101 E3.60537
G1 X66.907 Y119.324 E3.61514
G1 X66.899 Y119.113 E3.61777
G1 X66.781 Y118.923 E3.62055
G1 X66.390 Y118.711 E3.62607
G1 X65.734 Y118.235 E3.63613
G1 X64.930 Y117.470 E3.64992
G1 X64.294 Y116.608 E3.66322
G1 X63.753 Y115.518 E3.67833
G1 X63.453 Y114.509 E3.69140
G1 X63.326 Y113.432 E3.70487
G1 X63.333 Y112.657 E3.71448
G1 X63.377 Y112.339 E3.71847
G1 X63.293 Y112.131 E3.72125
G1 X63.054 Y111.942 E3.72504
G1 X62.508 Y111.383 E3.73474
G1 X61.848 Y110.507 E3.74836
G1 X61.363 Y109.557 E3.76161
G1 X61.006 Y108.392 E3.77673
G1 X60.874 Y107.345 E3.78984
G1 X60.926 Y106.239 E3.80358
G1 X61.073 Y105.435 E3.81373
G1 X61.192 Y105.068 E3.81852
G1 X61.145 Y104.847 E3.82133
G1 X61.040 Y104.731 E3.82327
G1 X60.593 Y104.091 E3.83297
G1 X60.093 Y103.133 E3.84638
G1 X59.775 Y102.154 E3.85916
G1 X59.598 Y100.944 E3.87435
G1 X59.636 Y99.844 E3.88801
G1 X59.875 Y98.741 E3.90202
G1 X60.153 Y97.972 E3.91218
G1 X60.366 Y97.564 E3.91789
G1 X60.369 Y97.364 E3.92037
G1 X60.014 Y96.628 E3.93053
G1 X59.673 Y95.617 E3.94377
G1 X59.511 Y94.614 E3.95638
G1 X59.519 Y93.401 E3.97145
G1 X59.719 Y92.327 E3.98501
G1 X60.128 Y91.251 E3.99930
G1 X60.549 Y90.490 E4.01011
G1 X60.882 Y90.049 E4.01697
G1 X60.918 Y89.849 E4.01949
G1 X60.731 Y89.239 E4.02742
G1 X60.544 Y88.195 E4.04059
G1 X60.533 Y87.175 E4.05324
G1 X60.723 Y85.967 E4.06844
G1 X61.089 Y84.923 E4.08217
G1 X61.656 Y83.925 E4.09642
G1 X62.177 Y83.248 E4.10702
G1 X62.668 Y82.767 E4.11556
G1 X62.733 Y82.575 E4.11807
G1 X62.660 Y82.088 E4.12419
G1 X62.632 Y81.044 E4.13716
G1 X62.763 Y80.069 E4.14938
G1 X63.117 Y78.903 E4.16451
G1 X63.636 Y77.901 E4.17851
G1 X64.355 Y76.980 E4.19302
G1 X64.986 Y76.374 E4.20388
G1 X65.623 Y75.917 E4.21362
G1 X65.716 Y75.735 E4.21615
G1 X65.716 Y75.391 E4.22043
G1 X65.836 Y74.372 E4.23317
G1 X66.092 Y73.455 E4.24499
G1 X66.593 Y72.357 E4.25998
G1 X67.245 Y71.430 E4.27405
G1 X68.100 Y70.597 E4.28887
G1 X68.846 Y70.061 E4.30028
G1 X69.628 Y69.661 E4.31118
G1 X69.747 Y69.493 E4.31374
G1 X69.772 Y69.316 E4.31596
G1 X70.028 Y68.323 E4.32869
G1 X70.416 Y67.433 E4.34074
G1 X71.061 Y66.426 E4.35560
G1 X71.761 Y65.671 E4.36838
G1 X72.088 Y65.939 F7800.000
G1 X72.982 Y65.266 E4.38228 F540.000
G1 X73.767 Y64.849 E4.39331
G1 X74.660 Y64.540 E4.40505
G1 X74.861 Y64.494 E4.40760
G1 X75.028 Y64.335 E4.41046
G1 X75.100 Y64.084 E4.41371
G1 X75.458 Y63.207 E4.42547
G1 X75.911 Y62.455 E4.43638
G1 X76.634 Y61.590 E4.45037
G1 X77.436 Y60.926 E4.46330
G1 X78.424 Y60.374 E4.47735
G1 X79.259 Y60.066 E4.48840
G1 X80.195 Y59.879 E4.50025
G1 X80.489 Y59.853 E4.50392
G1 X80.678 Y59.718 E4.50680
G1 X81.190 Y58.792 E4.51994
G1 X81.731 Y58.111 E4.53074
G1 X82.555 Y57.346 E4.54470
G1 X83.435 Y56.788 E4.55763
G1 X84.488 Y56.364 E4.57173
G1 X85.362 Y56.164 E4.58287
G1 X86.325 Y56.098 E4.59486
G1 X86.728 Y56.117 E4.59986
G1 X86.918 Y56.028 E4.60246
G1 X87.481 Y55.278 E4.61411
G1 X88.098 Y54.674 E4.62482
G1 X89.005 Y54.022 E4.63870
G1 X89.935 Y53.580 E4.65149
G1 X91.035 Y53.285 E4.66562
G1 X91.944 Y53.191 E4.67697
G1 X92.930 Y53.249 E4.68923
G1 X93.601 Y53.369 E4.69770
G1 X94.359 Y53.602 E4.70754
G1 X94.762 Y53.760 E4.71293
G1 X95.620 Y54.192 E4.72484
G1 X96.315 Y54.633 E4.73506
G1 X96.977 Y55.126 E4.74532
G1 X97.869 Y55.891 E4.75991
G1 X99.154 Y57.101 E4.78182
G1 X99.789 Y57.765 E4.79323
G1 X100.421 Y58.580 E4.80603
G1 X101.287 Y59.940 E4.82605
G1 X102.465 Y62.067 E4.85624
G1 X103.474 Y64.343 E4.88716
G1 X103.586 Y64.645 E4.89116
G1 X104.210 Y66.667 E4.91743
G1 X104.279 Y66.940 E4.92093
G1 X104.761 Y69.360 E4.95156
G1 X105.080 Y71.966 E4.98417
G1 X105.310 Y75.360 E5.02640
G1 X105.327 Y78.570 E5.06626
G1 X105.262 Y79.618 E5.07930
G1 X105.402 Y79.847 E5.08264
G1 X106.013 Y80.109 E5.09090
G1 X106.665 Y80.482 E5.10022
G1 X107.216 Y80.880 E5.10867
G1 X107.438 Y80.916 E5.11146
G1 X107.786 Y80.785 E5.11607
G1 X108.571 Y80.557 E5.12622
G1 X109.189 Y80.450 E5.13401
G1 X110.270 Y80.383 E5.14746
G1 X111.155 Y80.466 E5.15849
G1 X112.348 Y80.771 E5.17378
G1 X113.393 Y81.280 E5.18821
G1 X114.402 Y82.059 E5.20404
G1 X115.046 Y82.753 E5.21581
G1 X115.410 Y83.307 E5.22403
G1 X115.621 Y83.408 E5.22693
G1 X116.228 Y83.394 E5.23448
G1 X117.024 Y83.457 E5.24439
G1 X117.738 Y83.607 E5.25345
G1 X118.667 Y83.930 E5.26567
G1 X119.501 Y84.388 E5.27748
G1 X120.339 Y85.049 E5.29073
G1 X120.965 Y85.736 E5.30227
G1 X121.495 Y86.551 E5.31435
G1 X121.811 Y87.209 E5.32341
G1 X122.063 Y87.968 E5.33334
G1 X122.185 Y88.479 E5.33986
G1 X122.333 Y88.640 E5.34257
G1 X122.728 Y88.772 E5.34775
G1 X123.452 Y89.082 E5.35752
G1 X124.059 Y89.436 E5.36625
G1 X124.829 Y90.024 E5.37828
G1 X125.472 Y90.707 E5.38993
G1 X126.080 Y91.615 E5.40349
G1 X126.479 Y92.515 E5.41572
G1 X126.720 Y93.478 E5.42805
G1 X126.805 Y94.186 E5.43690
G1 X126.801 Y94.984 E5.44681
G1 X126.750 Y95.526 E5.45357
G1 X126.842 Y95.729 E5.45634
G1 X127.020 Y95.859 E5.45908
G1 X127.611 Y96.366 E5.46875
G1 X128.078 Y96.877 E5.47734
G1 X128.642 Y97.670 E5.48942
G1 X129.057 Y98.522 E5.50119
G1 X129.363 Y99.563 E5.51467
G1 X129.477 Y100.511 E5.52652
G1 X129.428 Y101.517 E5.53902
G1 X129.288 Y102.274 E5.54858
G1 X129.029 Y103.060 E5.55886
G1 X128.818 Y103.547 E5.56545
G1 X128.835 Y103.757 E5.56807
G1 X129.289 Y104.462 E5.57847
G1 X129.586 Y105.072 E5.58691
G1 X129.902 Y105.983 E5.59887
G1 X130.060 Y106.900 E5.61043
G1 X130.068 Y107.991 E5.62398
G1 X129.909 Y108.954 E5.63609
G1 X129.571 Y109.923 E5.64883
G1 X129.214 Y110.622 E5.65858
G1 X128.728 Y111.318 E5.66912
G1 X128.370 Y111.739 E5.67598
G1 X128.326 Y111.950 E5.67866
G1 X128.520 Y112.584 E5.68689
G1 X128.639 Y113.246 E5.69524
G1 X128.697 Y114.194 E5.70704
G1 X128.611 Y115.085 E5.71816
G1 X128.338 Y116.136 E5.73163
G1 X127.924 Y117.042 E5.74400
G1 X127.327 Y117.911 E5.75709
G1 X126.773 Y118.510 E5.76722
G1 X126.102 Y119.054 E5.77794
G1 X125.620 Y119.374 E5.78513
G1 X125.520 Y119.568 E5.78785
G1 X125.535 Y120.069 E5.79406
G1 X125.485 Y120.699 E5.80191
G1 X125.307 Y121.623 E5.81360
G1 X124.994 Y122.480 E5.82493
G1 X124.459 Y123.434 E5.83851
G1 X123.835 Y124.200 E5.85078
G1 X123.035 Y124.893 E5.86392
G1 X122.335 Y125.340 E5.87424
G1 X121.526 Y125.703 E5.88524
G1 X120.933 Y125.900 E5.89300
G1 X120.784 Y126.065 E5.89576
G1 X120.711 Y126.398 E5.89999
G1 X120.509 Y126.991 E5.90776
G1 X120.116 Y127.830 E5.91928
G1 X119.625 Y128.560 E5.93020
G1 X118.886 Y129.358 E5.94369
G1 X118.087 Y129.964 E5.95614
G1 X117.126 Y130.455 E5.96955
G1 X116.311 Y130.727 E5.98021
G1 X115.422 Y130.881 E5.99142
G1 X114.760 Y130.927 E5.99965
G1 X114.573 Y131.053 E6.00246
G1 X114.498 Y131.207 E6.00459
G1 X114.169 Y131.729 E6.01224
G1 X113.600 Y132.446 E6.02361
G1 X112.972 Y133.031 E6.03428
G1 X112.066 Y133.650 E6.04790
G1 X111.117 Y134.071 E6.06079
