; generated by Slic3r 1.0.0RC3 on 2014-03-05 at 21:46:05

; layer_height = 0.25
; perimeters = 3
; top_solid_layers = 4
; bottom_solid_layers = 4
; fill_density = 0.4
; perimeter_speed = 30
; infill_speed = 60
; travel_speed = 130
; nozzle_diameter = 0.5
; filament_diameter = 2.94
; extrusion_multiplier = 1
; perimeters extrusion width = 0.50mm
; infill extrusion width = 0.84mm
; solid infill extrusion width = 0.84mm
; top infill extrusion width = 0.84mm

G21 ; set units to millimeters
M107
M190 S110 ; wait for bed temperature to be reached
M104 S220 ; set temperature
G28 ; home all axes
M109 S220 ; wait for temperature to be reached
G90 ; use absolute coordinates
G92 E0
M82 ; use absolute distances for extrusion
G1 F600.000 E-1.00000
G92 E0
G1 Z0.200 F7800.000
G1 X83.840 Y84.240 F7800.000
G1 E1.00000 F600.000
G1 X85.150 Y83.030 E1.02627 F540.000
G1 X85.540 Y82.720 E1.03361
G1 X86.680 Y81.930 E1.05404
G1 X87.500 Y81.440 E1.06811
G1 X89.050 Y80.690 E1.09347
G1 X89.970 Y80.340 E1.10797
G1 X90.920 Y80.050 E1.12261
G1 X91.780 Y79.840 E1.13565
G1 X93.180 Y79.610 E1.15654
G1 X94.060 Y79.530 E1.16956
G1 X94.500 Y79.510 E1.17605
G1 X95.490 Y79.510 E1.19063
G1 X95.930 Y79.530 E1.19712
G1 X96.810 Y79.610 E1.21014
G1 X97.800 Y79.760 E1.22489
G1 X98.210 Y79.840 E1.23104
G1 X99.070 Y80.050 E1.24408
G1 X100.020 Y80.340 E1.25871
G1 X100.940 Y80.690 E1.27321
G1 X102.490 Y81.440 E1.29858
G1 X103.310 Y81.930 E1.31265
G1 X104.450 Y82.720 E1.33308
G1 X104.840 Y83.030 E1.34042
G1 X106.150 Y84.240 E1.36668
G1 X106.800 Y84.960 E1.38097
G1 X107.420 Y85.740 E1.39565
G1 X107.930 Y86.470 E1.40877
G1 X108.160 Y86.830 E1.41506
G1 X108.660 Y87.700 E1.42984
G1 X109.210 Y88.850 E1.44862
G1 X109.580 Y89.780 E1.46336
G1 X109.870 Y90.650 E1.47687
G1 X110.200 Y92.040 E1.49792
G1 X110.280 Y92.480 E1.50450
G1 X110.400 Y93.360 E1.51759
G1 X110.490 Y94.610 E1.53605
G1 X110.490 Y95.400 E1.54768
G1 X110.400 Y96.640 E1.56600
G1 X110.280 Y97.510 E1.57894
G1 X110.200 Y97.950 E1.58552
G1 X109.980 Y98.920 E1.60017
G1 X109.870 Y99.340 E1.60657
G1 X109.580 Y100.210 E1.62008
G1 X109.210 Y101.140 E1.63482
G1 X108.850 Y101.920 E1.64748
G1 X108.660 Y102.290 E1.65360
G1 X108.160 Y103.160 E1.66838
G1 X107.420 Y104.250 E1.68779
G1 X106.800 Y105.030 E1.70247
G1 X106.150 Y105.750 E1.71676
G1 X104.840 Y106.960 E1.74303
G1 X104.450 Y107.270 E1.75036
G1 X103.310 Y108.060 E1.77080
G1 X102.490 Y108.550 E1.78487
G1 X100.940 Y109.300 E1.81023
G1 X100.020 Y109.650 E1.82473
G1 X99.070 Y109.940 E1.83936
G1 X98.210 Y110.150 E1.85240
G1 X96.810 Y110.380 E1.87330
G1 X95.930 Y110.460 E1.88632
G1 X95.490 Y110.480 E1.89281
G1 X94.500 Y110.480 E1.90739
G1 X94.060 Y110.460 E1.91388
G1 X93.180 Y110.380 E1.92689
G1 X92.190 Y110.230 E1.94164
G1 X91.780 Y110.150 E1.94780
G1 X90.920 Y109.940 E1.96084
G1 X89.970 Y109.650 E1.97547
G1 X89.520 Y109.490 E1.98250
G1 X88.720 Y109.150 E1.99531
G1 X87.830 Y108.720 E2.00987
G1 X87.060 Y108.300 E2.02279
G1 X86.680 Y108.060 E2.02941
G1 X85.540 Y107.270 E2.04984
G1 X85.150 Y106.960 E2.05718
G1 X84.090 Y105.990 E2.07834
G1 X83.500 Y105.390 E2.09074
G1 X83.190 Y105.030 E2.09774
G1 X82.570 Y104.250 E2.11241
G1 X82.060 Y103.520 E2.12553
G1 X81.830 Y103.160 E2.13182
G1 X81.330 Y102.290 E2.14661
G1 X80.780 Y101.140 E2.16538
G1 X80.410 Y100.210 E2.18013
G1 X80.120 Y99.340 E2.19364
G1 X79.790 Y97.950 E2.21468
G1 X79.710 Y97.510 E2.22127
G1 X79.600 Y96.680 E2.23360
G1 X79.500 Y95.240 E2.25486
G1 X79.520 Y94.310 E2.26857
G1 X79.600 Y93.310 E2.28334
G1 X79.710 Y92.480 E2.29568
G1 X79.790 Y92.040 E2.30226
G1 X80.010 Y91.070 E2.31692
G1 X80.120 Y90.650 E2.32331
G1 X80.410 Y89.780 E2.33682
G1 X80.780 Y88.850 E2.35156
G1 X81.140 Y88.070 E2.36422
G1 X81.330 Y87.700 E2.37035
G1 X81.830 Y86.830 E2.38513
G1 X82.570 Y85.740 E2.40453
G1 X83.190 Y84.960 E2.41921
G1 X83.789 Y84.295 E2.43239
G1 F600.000 E1.43239
G92 E0
G1 X85.865 Y86.114 F7800.000
G1 E1.00000 F600.000
G1 X86.743 Y85.293 E1.01771 F540.000
G1 X87.374 Y84.790 E1.02959
G1 X88.282 Y84.171 E1.04578
G1 X88.890 Y83.816 E1.05615
G1 X89.971 Y83.291 E1.07386
G1 X90.722 Y82.996 E1.08574
G1 X91.872 Y82.646 E1.10345
G1 X92.559 Y82.493 E1.11381
G1 X93.646 Y82.329 E1.13001
G1 X94.450 Y82.269 E1.14189
G1 X95.550 Y82.269 E1.15808
G1 X96.252 Y82.317 E1.16845
G1 X97.441 Y82.493 E1.18616
G1 X98.227 Y82.672 E1.19804
G1 X99.278 Y82.996 E1.21423
G1 X99.934 Y83.250 E1.22460
G1 X101.019 Y83.768 E1.24231
G1 X101.718 Y84.171 E1.25419
G1 X102.626 Y84.790 E1.27038
G1 X103.179 Y85.226 E1.28075
G1 X104.062 Y86.041 E1.29846
G1 X104.611 Y86.632 E1.31034
G1 X105.358 Y87.575 E1.32805
G1 X105.751 Y88.158 E1.33841
G1 X106.300 Y89.110 E1.35461
G1 X106.650 Y89.837 E1.36649
G1 X107.052 Y90.860 E1.38268
G1 X107.263 Y91.532 E1.39305
G1 X107.534 Y92.703 E1.41076
G1 X107.656 Y93.516 E1.42286
G1 X107.750 Y94.907 E1.44341
G1 X107.656 Y96.484 E1.46668
G1 X107.534 Y97.297 E1.47879
G1 X107.263 Y98.468 E1.49649
G1 X107.052 Y99.140 E1.50686
G1 X106.650 Y100.163 E1.52305
G1 X106.300 Y100.890 E1.53494
G1 X105.696 Y101.929 E1.55264
G1 X105.296 Y102.508 E1.56301
G1 X104.611 Y103.368 E1.57920
G1 X104.135 Y103.886 E1.58957
G1 X103.257 Y104.707 E1.60728
G1 X102.626 Y105.210 E1.61916
G1 X101.718 Y105.829 E1.63535
G1 X101.110 Y106.184 E1.64572
G1 X100.029 Y106.709 E1.66343
G1 X99.278 Y107.004 E1.67531
G1 X98.227 Y107.328 E1.69150
G1 X97.542 Y107.488 E1.70187
G1 X96.354 Y107.671 E1.71958
G1 X95.550 Y107.731 E1.73146
G1 X94.450 Y107.731 E1.74765
G1 X93.748 Y107.683 E1.75802
G1 X92.559 Y107.507 E1.77573
G1 X91.773 Y107.328 E1.78761
G1 X90.625 Y106.970 E1.80532
G1 X89.971 Y106.709 E1.81569
G1 X88.981 Y106.232 E1.83188
G1 X88.282 Y105.829 E1.84376
G1 X87.291 Y105.148 E1.86147
G1 X86.743 Y104.707 E1.87184
G1 X85.938 Y103.959 E1.88803
G1 X85.389 Y103.368 E1.89991
G1 X84.642 Y102.425 E1.91762
G1 X84.249 Y101.842 E1.92799
G1 X83.700 Y100.890 E1.94418
G1 X83.350 Y100.163 E1.95606
G1 X82.948 Y99.140 E1.97225
G1 X82.737 Y98.468 E1.98262
G1 X82.466 Y97.297 E2.00033
G1 X82.345 Y96.500 E2.01221
G1 X82.259 Y95.301 E2.02992
G1 X82.263 Y94.597 E2.04028
G1 X82.345 Y93.500 E2.05648
G1 X82.446 Y92.804 E2.06685
G1 X82.710 Y91.631 E2.08455
G1 X82.948 Y90.860 E2.09643
G1 X83.350 Y89.837 E2.11263
G1 X83.651 Y89.201 E2.12300
G1 X84.249 Y88.158 E2.14070
G1 X84.704 Y87.492 E2.15258
G1 X85.389 Y86.632 E2.16878
G1 X85.814 Y86.169 E2.17804
G1 X86.225 Y86.461 F7800.000
G1 X87.077 Y85.666 E2.19520 F540.000
G1 X87.663 Y85.198 E2.20625
G1 X88.556 Y84.590 E2.22217
G1 X89.132 Y84.254 E2.23199
G1 X90.180 Y83.746 E2.24914
G1 X90.878 Y83.471 E2.26020
G1 X91.992 Y83.131 E2.27736
G1 X92.643 Y82.986 E2.28717
G1 X93.711 Y82.825 E2.30309
G1 X94.460 Y82.769 E2.31415
G1 X95.540 Y82.769 E2.33006
G1 X96.205 Y82.815 E2.33988
G1 X97.357 Y82.986 E2.35704
G1 X98.089 Y83.153 E2.36809
G1 X99.122 Y83.471 E2.38401
G1 X99.743 Y83.712 E2.39383
G1 X100.794 Y84.214 E2.41098
G1 X101.444 Y84.590 E2.42204
G1 X102.404 Y85.248 E2.43920
G1 X102.923 Y85.666 E2.44901
G1 X103.715 Y86.401 E2.46493
G1 X104.226 Y86.951 E2.47599
G1 X104.950 Y87.864 E2.49314
G1 X105.323 Y88.416 E2.50296
G1 X105.863 Y89.352 E2.51888
G1 X106.188 Y90.028 E2.52993
G1 X106.583 Y91.034 E2.54585
G1 X106.783 Y91.670 E2.55567
G1 X107.045 Y92.805 E2.57282
G1 X107.158 Y93.560 E2.58406
G1 X107.250 Y94.924 E2.60421
G1 X107.158 Y96.440 E2.62658
G1 X107.045 Y97.195 E2.63782
G1 X106.783 Y98.330 E2.65498
G1 X106.583 Y98.966 E2.66480
G1 X106.188 Y99.972 E2.68071
G1 X105.863 Y100.648 E2.69177
G1 X105.278 Y101.655 E2.70893
G1 X104.900 Y102.204 E2.71874
G1 X104.226 Y103.049 E2.73466
G1 X103.775 Y103.539 E2.74448
G1 X102.923 Y104.334 E2.76164
G1 X102.337 Y104.802 E2.77269
G1 X101.444 Y105.410 E2.78861
G1 X100.868 Y105.746 E2.79843
G1 X99.820 Y106.254 E2.81558
G1 X99.122 Y106.529 E2.82664
G1 X98.089 Y106.847 E2.84255
G1 X97.440 Y106.999 E2.85237
G1 X96.289 Y107.175 E2.86953
G1 X95.540 Y107.231 E2.88058
G1 X94.460 Y107.231 E2.89650
G1 X93.795 Y107.185 E2.90632
G1 X92.643 Y107.014 E2.92347
G1 X91.911 Y106.847 E2.93453
G1 X90.799 Y106.501 E2.95169
G1 X90.180 Y106.254 E2.96150
G1 X89.206 Y105.786 E2.97742
G1 X88.556 Y105.410 E2.98848
G1 X87.596 Y104.752 E3.00563
G1 X87.077 Y104.334 E3.01545
G1 X86.285 Y103.599 E3.03137
G1 X85.774 Y103.049 E3.04242
G1 X85.050 Y102.136 E3.05958
G1 X84.677 Y101.584 E3.06940
G1 X84.137 Y100.648 E3.08531
G1 X83.812 Y99.972 E3.09637
G1 X83.417 Y98.966 E3.11229
G1 X83.217 Y98.330 E3.12211
G1 X82.955 Y97.195 E3.13926
G1 X82.843 Y96.453 E3.15032
G1 X82.759 Y95.291 E3.16747
G1 X82.762 Y94.625 E3.17729
G1 X82.843 Y93.547 E3.19321
G1 X82.939 Y92.888 E3.20303
G1 X83.196 Y91.752 E3.22018
G1 X83.417 Y91.034 E3.23124
G1 X83.845 Y89.951 E3.24839
G1 X84.137 Y89.352 E3.25821
G1 X84.677 Y88.416 E3.27413
G1 X85.100 Y87.796 E3.28518
G1 X85.774 Y86.951 E3.30110
G1 X86.174 Y86.516 E3.30981
G1 X86.585 Y86.808 F7800.000
G1 X87.410 Y86.039 E3.32642 F540.000
G1 X87.953 Y85.606 E3.33665
G1 X88.830 Y85.008 E3.35229
G1 X89.374 Y84.691 E3.36156
G1 X90.388 Y84.200 E3.37816
G1 X91.035 Y83.946 E3.38839
G1 X92.113 Y83.616 E3.40500
G1 X92.727 Y83.479 E3.41426
G1 X93.777 Y83.321 E3.42991
G1 X94.469 Y83.269 E3.44014
G1 X95.531 Y83.269 E3.45578
G1 X96.158 Y83.313 E3.46504
G1 X97.273 Y83.479 E3.48165
G1 X97.951 Y83.633 E3.49188
G1 X98.965 Y83.946 E3.50752
G1 X99.552 Y84.174 E3.51679
G1 X100.568 Y84.661 E3.53339
G1 X101.170 Y85.008 E3.54362
G1 X102.100 Y85.645 E3.56023
G1 X102.590 Y86.039 E3.56949
G1 X103.369 Y86.761 E3.58514
G1 X103.841 Y87.271 E3.59537
G1 X104.542 Y88.153 E3.61197
G1 X104.894 Y88.675 E3.62124
G1 X105.425 Y89.594 E3.63688
G1 X105.726 Y90.220 E3.64711
G1 X106.114 Y91.208 E3.66275
G1 X106.302 Y91.809 E3.67202
G1 X106.555 Y92.907 E3.68862
G1 X106.660 Y93.604 E3.69900
G1 X106.750 Y94.941 E3.71874
G1 X106.660 Y96.396 E3.74022
G1 X106.555 Y97.093 E3.75060
G1 X106.302 Y98.191 E3.76720
G1 X106.114 Y98.792 E3.77647
G1 X105.726 Y99.780 E3.79211
G1 X105.425 Y100.406 E3.80234
G1 X104.859 Y101.381 E3.81894
G1 X104.503 Y101.899 E3.82821
G1 X103.841 Y102.729 E3.84385
G1 X103.415 Y103.192 E3.85312
G1 X102.590 Y103.961 E3.86972
G1 X102.047 Y104.394 E3.87995
G1 X101.170 Y104.992 E3.89560
G1 X100.626 Y105.309 E3.90486
G1 X99.612 Y105.800 E3.92147
G1 X98.965 Y106.054 E3.93170
G1 X97.951 Y106.367 E3.94734
G1 X97.338 Y106.509 E3.95661
G1 X96.223 Y106.679 E3.97321
G1 X95.531 Y106.731 E3.98344
G1 X94.469 Y106.731 E3.99908
G1 X93.842 Y106.687 E4.00835
G1 X92.727 Y106.521 E4.02495
G1 X92.049 Y106.367 E4.03518
G1 X90.973 Y106.032 E4.05179
G1 X90.388 Y105.800 E4.06106
G1 X89.432 Y105.339 E4.07670
G1 X88.830 Y104.992 E4.08693
G1 X87.900 Y104.355 E4.10353
G1 X87.410 Y103.961 E4.11280
G1 X86.631 Y103.239 E4.12844
G1 X86.159 Y102.729 E4.13867
G1 X85.458 Y101.847 E4.15528
G1 X85.106 Y101.325 E4.16454
G1 X84.575 Y100.406 E4.18018
G1 X84.274 Y99.780 E4.19041
G1 X83.886 Y98.792 E4.20606
G1 X83.698 Y98.191 E4.21532
G1 X83.445 Y97.093 E4.23193
G1 X83.341 Y96.406 E4.24216
G1 X83.259 Y95.282 E4.25876
G1 X83.262 Y94.653 E4.26803
G1 X83.341 Y93.594 E4.28367
G1 X83.432 Y92.971 E4.29294
G1 X83.681 Y91.872 E4.30954
G1 X83.886 Y91.208 E4.31977
G1 X84.274 Y90.220 E4.33541
G1 X84.544 Y89.652 E4.34468
G1 X85.106 Y88.675 E4.36129
G1 X85.497 Y88.101 E4.37152
G1 X86.159 Y87.271 E4.38716
G1 X86.534 Y86.863 E4.39532
G1 X86.945 Y87.155 F7800.000
G1 X87.743 Y86.412 E4.41137 F540.000
G1 X88.242 Y86.014 E4.42078
G1 X89.104 Y85.426 E4.43614
G1 X89.616 Y85.129 E4.44486
G1 X90.597 Y84.655 E4.46091
G1 X91.191 Y84.421 E4.47032
G1 X92.233 Y84.102 E4.48637
G1 X92.810 Y83.972 E4.49509
G1 X93.842 Y83.816 E4.51045
G1 X94.478 Y83.769 E4.51986
G1 X95.522 Y83.769 E4.53522
G1 X96.112 Y83.811 E4.54394
G1 X97.190 Y83.972 E4.55999
G1 X97.812 Y84.114 E4.56940
G1 X98.809 Y84.421 E4.58477
G1 X99.360 Y84.636 E4.59348
G1 X100.343 Y85.107 E4.60954
G1 X100.896 Y85.426 E4.61894
G1 X101.758 Y86.014 E4.63431
G1 X102.221 Y86.382 E4.64302
G1 X103.022 Y87.122 E4.65908
G1 X103.456 Y87.590 E4.66848
G1 X104.134 Y88.443 E4.68453
G1 X104.466 Y88.933 E4.69325
G1 X104.987 Y89.836 E4.70862
G1 X105.264 Y90.411 E4.71802
G1 X105.646 Y91.382 E4.73339
G1 X105.822 Y91.947 E4.74210
G1 X106.066 Y93.009 E4.75816
G1 X106.162 Y93.648 E4.76766
G1 X106.250 Y94.958 E4.78701
G1 X106.162 Y96.352 E4.80759
G1 X106.066 Y96.991 E4.81710
G1 X105.822 Y98.053 E4.83315
G1 X105.646 Y98.618 E4.84187
G1 X105.264 Y99.589 E4.85724
G1 X104.987 Y100.164 E4.86664
G1 X104.441 Y101.107 E4.88269
G1 X104.106 Y101.595 E4.89141
G1 X103.456 Y102.410 E4.90678
G1 X103.055 Y102.845 E4.91549
G1 X102.257 Y103.588 E4.93155
G1 X101.758 Y103.986 E4.94095
G1 X100.896 Y104.574 E4.95632
G1 X100.384 Y104.871 E4.96503
G1 X99.403 Y105.345 E4.98109
G1 X98.809 Y105.579 E4.99049
G1 X97.812 Y105.886 E5.00586
G1 X97.236 Y106.019 E5.01457
G1 X96.158 Y106.184 E5.03063
G1 X95.522 Y106.231 E5.04003
G1 X94.478 Y106.231 E5.05540
G1 X93.888 Y106.189 E5.06411
G1 X92.810 Y106.028 E5.08017
G1 X92.188 Y105.886 E5.08957
G1 X91.147 Y105.563 E5.10563
G1 X90.597 Y105.345 E5.11434
G1 X89.657 Y104.893 E5.12971
G1 X89.104 Y104.574 E5.13911
G1 X88.205 Y103.958 E5.15517
G1 X87.743 Y103.588 E5.16388
G1 X86.978 Y102.878 E5.17925
G1 X86.544 Y102.410 E5.18865
G1 X85.866 Y101.557 E5.20471
G1 X85.534 Y101.067 E5.21342
G1 X85.013 Y100.164 E5.22879
G1 X84.736 Y99.589 E5.23819
G1 X84.354 Y98.618 E5.25356
G1 X84.178 Y98.053 E5.26227
G1 X83.934 Y96.991 E5.27833
G1 X83.839 Y96.359 E5.28773
G1 X83.759 Y95.272 E5.30379
G1 X83.761 Y94.681 E5.31250
G1 X83.839 Y93.641 E5.32787
G1 X83.925 Y93.055 E5.33658
G1 X84.166 Y91.992 E5.35264
G1 X84.354 Y91.382 E5.36204
G1 X84.754 Y90.368 E5.37810
G1 X85.013 Y89.836 E5.38681
G1 X85.534 Y88.933 E5.40218
G1 X85.894 Y88.405 E5.41158
G1 X86.544 Y87.590 E5.42695
G1 X86.894 Y87.210 E5.43456
G1 X87.305 Y87.502 F7800.000
G1 X88.076 Y86.785 E5.45006 F540.000
G1 X88.532 Y86.422 E5.45864
G1 X89.378 Y85.845 E5.47373
G1 X89.858 Y85.567 E5.48190
G1 X90.805 Y85.109 E5.49740
G1 X91.347 Y84.896 E5.50598
G1 X92.353 Y84.587 E5.52148
G1 X92.894 Y84.465 E5.52965
G1 X93.907 Y84.312 E5.54474
G1 X94.488 Y84.269 E5.55331
G1 X95.512 Y84.269 E5.56841
G1 X96.065 Y84.309 E5.57657
G1 X97.106 Y84.465 E5.59207
G1 X97.674 Y84.594 E5.60065
G1 X98.653 Y84.896 E5.61574
G1 X99.169 Y85.098 E5.62391
G1 X100.118 Y85.554 E5.63941
G1 X100.622 Y85.845 E5.64799
G1 X101.491 Y86.439 E5.66349
G1 X101.924 Y86.785 E5.67166
G1 X102.675 Y87.482 E5.68675
G1 X103.071 Y87.909 E5.69533
G1 X103.726 Y88.732 E5.71083
G1 X104.038 Y89.191 E5.71899
G1 X104.550 Y90.078 E5.73408
G1 X104.802 Y90.603 E5.74266
G1 X105.177 Y91.556 E5.75775
G1 X105.341 Y92.086 E5.76592
G1 X105.576 Y93.111 E5.78142
G1 X105.663 Y93.691 E5.79006
G1 X105.750 Y94.975 E5.80901
G1 X105.663 Y96.309 E5.82870
G1 X105.576 Y96.889 E5.83734
G1 X105.341 Y97.914 E5.85284
G1 X105.177 Y98.444 E5.86101
G1 X104.802 Y99.397 E5.87610
G1 X104.550 Y99.922 E5.88467
G1 X104.023 Y100.833 E5.90018
G1 X103.709 Y101.290 E5.90834
G1 X103.071 Y102.091 E5.92343
G1 X102.695 Y102.498 E5.93160
G1 X101.924 Y103.215 E5.94710
G1 X101.468 Y103.578 E5.95568
G1 X100.622 Y104.155 E5.97077
G1 X100.142 Y104.433 E5.97894
G1 X99.195 Y104.891 E5.99444
G1 X98.653 Y105.104 E6.00302
G1 X97.674 Y105.406 E6.01811
G1 X97.133 Y105.530 E6.02627
G1 X96.093 Y105.688 E6.04178
G1 X95.512 Y105.731 E6.05035
G1 X94.460 Y105.730 E6.06586
G1 X93.907 Y105.688 E6.07402
G1 X92.894 Y105.535 E6.08911
G1 X92.326 Y105.406 E6.09769
G1 X91.347 Y105.104 E6.11278
G1 X90.831 Y104.902 E6.12095
G1 X89.882 Y104.446 E6.13645
G1 X89.378 Y104.155 E6.14503
G1 X88.509 Y103.561 E6.16053
G1 X88.076 Y103.215 E6.16870
G1 X87.325 Y102.518 E6.18379
G1 X86.929 Y102.091 E6.19236
G1 X86.274 Y101.268 E6.20787
G1 X85.962 Y100.809 E6.21603
G1 X85.450 Y99.922 E6.23112
G1 X85.198 Y99.397 E6.23970
G1 X84.823 Y98.444 E6.25479
G1 X84.659 Y97.914 E6.26296
G1 X84.424 Y96.889 E6.27846
G1 X84.337 Y96.313 E6.28704
G1 X84.259 Y95.263 E6.30254
G1 X84.260 Y94.709 E6.31071
G1 X84.337 Y93.687 E6.32580
G1 X84.419 Y93.139 E6.33396
G1 X84.652 Y92.113 E6.34947
G1 X84.823 Y91.556 E6.35804
G1 X85.209 Y90.577 E6.37355
G1 X85.450 Y90.078 E6.38171
G1 X85.962 Y89.191 E6.39680
G1 X86.291 Y88.710 E6.40538
G1 X86.929 Y87.909 E6.42047
G1 X87.254 Y87.557 E6.42753
G1 X87.666 Y87.849 F7800.000
