; generated by Slic3r 0.9.9 on 2014-01-18 at 10:27:36

; layer_height = 0.4
; perimeters = 3
; top_solid_layers = 3
; bottom_solid_layers = 3
; fill_density = 0.4
; perimeter_speed = 30
; infill_speed = 60
; travel_speed = 130
; nozzle_diameter = 0.5
; filament_diameter = 3
; extrusion_multiplier = 1
; perimeters extrusion width = 0.53mm
; infill extrusion width = 0.53mm
; solid infill extrusion width = 0.53mm
; top infill extrusion width = 0.53mm
; first layer extrusion width = 0.60mm

G21 ; set units to millimeters
M190 S110 ; wait for bed temperature to be reached
M104 S205 ; set temperature
G28 ; home all axes
M109 S205 ; wait for temperature to be reached
G90 ; use absolute coordinates
G92 E0
M82 ; use absolute distances for extrusion
M106 S89
G1 F1800.000 E-4.00000
G92 E0
G1 Z0.300 F7800.000
G1 X54.563 Y58.375
G1 F1800.000 E4.00000
G1 X54.763 Y58.195 F540.000 E4.00661
G1 X55.193 Y57.865 E4.01992
G1 X55.883 Y57.435 E4.03988
G1 X56.363 Y57.205 E4.05295
G1 X57.123 Y56.925 E4.07284
G1 X81.383 Y50.815 E4.68712
G1 X81.893 Y50.705 E4.69993
G1 X82.413 Y50.645 E4.71278
G1 X123.663 Y48.615 E5.72686
G1 X133.663 Y48.615 E5.97240
G1 X134.193 Y48.635 E5.98542
G1 X134.973 Y48.745 E6.00476
G1 X135.493 Y48.875 E6.01792
G1 X135.993 Y49.045 E6.03089
G1 X136.713 Y49.365 E6.05024
G1 X137.173 Y49.625 E6.06321
G1 X137.603 Y49.925 E6.07608
G1 X138.213 Y50.445 E6.09577
G1 X138.753 Y51.025 E6.11522
G1 X138.913 Y51.225 E6.12151
G1 X139.353 Y51.885 E6.14099
G1 X139.703 Y52.595 E6.16043
G1 X139.893 Y53.095 E6.17356
G1 X140.043 Y53.595 E6.18638
G1 X140.193 Y54.375 E6.20588
G1 X143.883 Y97.875 E7.27782
G1 X143.913 Y98.435 E7.29159
G1 X143.913 Y118.435 E7.78267
G1 X143.893 Y118.965 E7.79569
G1 X143.773 Y119.765 E7.81555
G1 X143.573 Y120.535 E7.83508
G1 X143.483 Y120.785 E7.84161
G1 X143.143 Y121.515 E7.86138
G1 X143.023 Y121.745 E7.86775
G1 X142.733 Y122.195 E7.88090
G1 X142.413 Y122.625 E7.89406
G1 X142.233 Y122.825 E7.90066
G1 X141.863 Y123.205 E7.91369
G1 X141.463 Y123.555 E7.92674
G1 X141.033 Y123.875 E7.93990
G1 X140.813 Y124.015 E7.94630
G1 X140.103 Y124.405 E7.96619
G1 X98.483 Y141.735 E9.07318
G1 X97.943 Y141.935 E9.08732
G1 X97.103 Y142.145 E9.10858
G1 X96.533 Y142.215 E9.12268
G1 X95.953 Y142.245 E9.13694
G1 X83.643 Y142.245 E9.43920
G1 X52.643 Y142.145 E10.20038
G1 X52.113 Y142.125 E10.21340
G1 X51.853 Y142.095 E10.21983
G1 X51.333 Y142.005 E10.23279
G1 X50.813 Y141.875 E10.24595
G1 X50.313 Y141.715 E10.25884
G1 X49.833 Y141.505 E10.27170
G1 X49.363 Y141.255 E10.28477
G1 X48.913 Y140.975 E10.29779
G1 X48.293 Y140.485 E10.31719
G1 X47.913 Y140.115 E10.33021
G1 X47.733 Y139.925 E10.33664
G1 X47.243 Y139.295 E10.35624
G1 X46.963 Y138.845 E10.36925
G1 X46.713 Y138.375 E10.38232
G1 X46.423 Y137.645 E10.40161
G1 X46.273 Y137.135 E10.41466
G1 X46.213 Y136.875 E10.42121
G1 X46.133 Y136.355 E10.43413
G1 X46.103 Y136.095 E10.44056
G1 X46.083 Y135.565 E10.45358
G1 X46.083 Y130.065 E10.58863
G1 X46.113 Y129.445 E10.60387
G1 X52.473 Y62.345 E12.25883
G1 X52.513 Y62.085 E12.26529
G1 X52.703 Y61.295 E12.28524
G1 X52.883 Y60.785 E12.29852
G1 X53.233 Y60.055 E12.31839
G1 X53.513 Y59.595 E12.33162
G1 X53.833 Y59.155 E12.34498
G1 X54.183 Y58.745 E12.35821
G1 X54.500 Y58.435 E12.36910
G1 F1800.000 E8.36910
G92 E0
G1 X128.780 Y116.988 F7800.000
G1 F1800.000 E4.00000
G1 X128.780 Y99.881 F540.000 E4.42005
G1 X135.887 Y99.881 E4.59457
G1 X135.887 Y116.988 E5.01462
G1 X128.866 Y116.988 E5.18700
G1 X128.201 Y117.567 F7800.000
G1 X128.201 Y99.303 F540.000 E5.63546
G1 X136.466 Y99.303 E5.83839
G1 X136.466 Y117.567 E6.28685
G1 X128.288 Y117.567 E6.48764
G1 X127.623 Y118.146 F7800.000
G1 X127.623 Y98.724 F378.000 E6.96452
G1 X137.044 Y98.724 E7.19585
G1 X137.044 Y118.146 E7.67273
G1 X127.709 Y118.146 E7.90193
G1 X127.912 Y117.645 F7800.000
G1 X129.199 Y116.569
G1 X129.199 Y115.734 F1080.000 E7.92284
G1 X130.034 Y116.569 E7.95242
G1 X130.869 Y116.569 E7.97333
G1 X129.199 Y114.900 E8.03248
G1 X129.199 Y114.065 E8.05339
G1 X131.703 Y116.569 E8.14210
G1 X132.538 Y116.569 E8.16301
G1 X129.199 Y113.230 E8.28130
G1 X129.199 Y112.395 E8.30221
G1 X133.373 Y116.569 E8.45007
G1 X134.207 Y116.569 E8.47098
G1 X129.199 Y111.561 E8.64840
G1 X129.199 Y110.726 E8.66931
G1 X135.042 Y116.569 E8.87631
G1 X135.468 Y116.160 E8.89110
G1 X129.199 Y109.891 E9.11317
G1 X129.199 Y109.057 E9.13408
G1 X135.468 Y115.325 E9.35615
G1 X135.468 Y114.491 E9.37706
G1 X129.199 Y108.222 E9.59913
G1 X129.199 Y107.387 E9.62004
G1 X135.468 Y113.656 E9.84212
G1 X135.468 Y112.821 E9.86302
G1 X129.199 Y106.553 E10.08510
G1 X129.199 Y105.718 E10.10601
G1 X135.468 Y111.986 E10.32808
G1 X135.468 Y111.152 E10.34899
G1 X129.199 Y104.883 E10.57106
G1 X129.199 Y104.048 E10.59197
G1 X135.468 Y110.317 E10.81404
G1 X135.468 Y109.482 E10.83495
G1 X129.199 Y103.214 E11.05702
G1 X129.199 Y102.379 E11.07793
G1 X135.468 Y108.648 E11.30001
G1 X135.468 Y107.813 E11.32092
G1 X129.199 Y101.544 E11.54299
G1 X129.199 Y100.710 E11.56390
G1 X135.468 Y106.978 E11.78597
G1 X135.468 Y106.144 E11.80688
G1 X129.625 Y100.300 E12.01388
G1 X130.459 Y100.300 E12.03478
G1 X135.468 Y105.309 E12.21221
G1 X135.468 Y104.474 E12.23312
G1 X131.294 Y100.300 E12.38098
G1 X132.129 Y100.300 E12.40189
G1 X135.468 Y103.639 E12.52017
G1 X135.468 Y102.805 E12.54108
G1 X132.963 Y100.300 E12.62980
G1 X133.798 Y100.300 E12.65071
G1 X135.468 Y101.970 E12.70985
G1 X135.468 Y101.135 E12.73076
G1 X134.633 Y100.300 E12.76034
G1 X135.468 Y100.301 E12.78125
M106 S255
G1 F1800.000 E8.78125
G92 E0
G1 X140.333 Y97.192 F7800.000
G1 X138.575 Y95.434
G1 X126.942 Y95.447
G1 X109.815 Y99.330
G1 X95.084 Y109.235
G1 X57.710 Y114.624
G1 X51.698 Y117.968
G1 X49.667 Y129.856
G1 X59.485 Y129.204
G1 F1800.000 E4.00000
G1 X58.095 Y129.197 F600.000 E4.03414
G1 X56.754 Y128.831 E4.06828
G1 X55.686 Y128.208 E4.09862
G1 X56.120 Y127.724 E4.11458
G1 X56.342 Y127.894 E4.12145
G1 X57.448 Y128.352 E4.15086
G1 X58.636 Y128.509 E4.18027
G1 X59.824 Y128.352 E4.20969
G1 X60.930 Y127.894 E4.23910
G1 X61.881 Y127.165 E4.26851
G1 X62.610 Y126.214 E4.29793
G1 X63.068 Y125.108 E4.32734
G1 X63.225 Y123.920 E4.35675
G1 X63.068 Y122.732 E4.38617
G1 X62.610 Y121.626 E4.41558
G1 X61.881 Y120.675 E4.44499
G1 X60.930 Y119.946 E4.47441
G1 X59.824 Y119.488 E4.50382
G1 X58.636 Y119.331 E4.53323
G1 X57.448 Y119.488 E4.56265
G1 X56.342 Y119.946 E4.59206
G1 X56.120 Y120.116 E4.59892
G1 X55.683 Y119.628 E4.61502
G1 X56.800 Y118.990 E4.64661
G1 X58.145 Y118.636 E4.68075
G1 X59.535 Y118.643 E4.71489
G1 X60.876 Y119.009 E4.74903
G1 X62.077 Y119.710 E4.78316
G1 X63.055 Y120.698 E4.81730
G1 X63.745 Y121.905 E4.85144
G1 X64.098 Y123.250 E4.88558
G1 X64.095 Y126.122 E4.95610
G1 X62.037 Y128.160 E5.02723
G1 X60.830 Y128.850 E5.06137
G1 X59.569 Y129.181 E5.09337
G1 X59.559 Y129.782 F7800.000
G1 X58.016 Y129.775 F600.000 E5.13125
G1 X56.528 Y129.369 E5.16913
G1 X55.195 Y128.591 E5.20701
G1 X54.865 Y128.257 E5.21855
G1 X56.047 Y126.938 E5.26204
G1 X56.633 Y127.389 E5.28019
G1 X57.599 Y127.789 E5.30586
G1 X58.636 Y127.925 E5.33154
G1 X59.673 Y127.789 E5.35721
G1 X60.639 Y127.389 E5.38288
G1 X61.468 Y126.752 E5.40856
G1 X62.105 Y125.923 E5.43423
G1 X62.505 Y124.957 E5.45990
G1 X62.641 Y123.920 E5.48557
G1 X62.505 Y122.883 E5.51125
G1 X62.105 Y121.917 E5.53692
G1 X61.468 Y121.088 E5.56259
G1 X60.639 Y120.451 E5.58827
G1 X59.673 Y120.051 E5.61394
G1 X58.636 Y119.915 E5.63961
G1 X57.599 Y120.051 E5.66528
G1 X56.633 Y120.451 E5.69096
G1 X56.047 Y120.902 E5.70911
G1 X54.866 Y119.584 E5.75254
G1 X55.240 Y119.215 E5.76543
G1 X56.579 Y118.450 E5.80331
G1 X58.071 Y118.058 E5.84119
G1 X59.614 Y118.065 E5.87907
G1 X61.102 Y118.471 E5.91695
G1 X62.434 Y119.249 E5.95483
G1 X63.520 Y120.345 E5.99270
G1 X64.285 Y121.684 E6.03058
G1 X64.677 Y123.176 E6.06846
G1 X64.672 Y135.276 E6.36556
G1 X52.956 Y135.276 E6.65325
G1 X52.956 Y130.357 E6.77402
G1 X53.878 Y130.357 E6.79665
G1 X53.881 Y134.354 E6.89481
G1 X63.751 Y134.354 E7.13716
G1 X63.751 Y127.277 E7.31093
G1 X62.390 Y128.625 E7.35795
G1 X61.051 Y129.390 E7.39583
G1 X59.643 Y129.760 E7.43158
G1 X59.229 Y129.307 F7800.000
G1 X63.306 Y126.074
G1 X63.306 Y126.074 F600.000 E7.43159
G1 X63.538 Y124.678 F7800.000
G1 X63.686 Y124.338 F600.000 E7.43700
G1 X63.594 Y124.247 E7.43889
G1 X63.686 Y123.851 E7.44483
G1 X63.620 Y123.785 E7.44621
G1 X63.689 Y123.366 E7.45241
G1 X63.546 Y123.223 E7.45536
G1 X63.538 Y122.729 E7.46260
G1 X63.472 Y122.662 E7.46397
G1 X63.364 Y122.068 E7.47281
G1 X63.145 Y121.848 E7.47735
G1 X62.189 Y120.405 E7.50266
G1 X62.326 Y121.830 F7800.000
G1 X62.746 Y125.021
G1 X60.763 Y127.605
G1 X62.194 Y127.430
G1 X62.499 Y127.127 F600.000 E7.51052
G1 X62.458 Y127.085 E7.51160
G1 X62.805 Y126.824 E7.51954
G1 X61.382 Y128.063 F7800.000
G1 X61.636 Y127.868 F600.000 E7.52384
G1 X61.668 Y127.900 E7.52445
G1 X61.890 Y127.674 E7.52872
G1 X61.918 Y127.702 E7.52927
G1 X62.144 Y127.479 E7.53354
G1 X60.511 Y128.511 F7800.000
G1 X60.830 Y128.378 F600.000 E7.53820
G1 X60.763 Y127.605 F7800.000
G1 X62.746 Y125.021
G1 X62.326 Y121.830
G1 X60.726 Y120.231
G1 X61.392 Y119.784
G1 X61.391 Y119.784 F600.000 E7.53821
G1 X60.543 Y119.343 F7800.000
G1 X60.542 Y119.342 F600.000 E7.53822
G1 X60.979 Y118.675 F7800.000
G1 X62.326 Y121.830
G1 X63.961 Y127.130
G1 X63.961 Y134.565
G1 X53.670 Y134.565
G1 X53.690 Y134.764
G1 X53.793 Y134.867 F600.000 E7.54009
G1 X54.117 Y134.764 E7.54445
G1 X54.220 Y134.867 E7.54633
G1 X54.545 Y134.764 E7.55069
G1 X54.648 Y134.867 E7.55256
G1 X54.972 Y134.764 E7.55693
G1 X55.075 Y134.867 E7.55880
G1 X55.399 Y134.764 E7.56316
G1 X55.503 Y134.867 E7.56503
G1 X55.827 Y134.764 E7.56940
G1 X55.930 Y134.867 E7.57127
G1 X56.254 Y134.764 E7.57564
G1 X56.357 Y134.867 E7.57751
G1 X56.682 Y134.764 E7.58187
G1 X56.785 Y134.867 E7.58374
G1 X57.109 Y134.764 E7.58811
G1 X57.212 Y134.867 E7.58998
G1 X57.537 Y134.764 E7.59435
G1 X57.640 Y134.867 E7.59622
G1 X57.964 Y134.764 E7.60058
G1 X58.067 Y134.867 E7.60245
G1 X58.392 Y134.764 E7.60682
G1 X58.495 Y134.867 E7.60869
G1 X58.819 Y134.764 E7.61306
G1 X58.922 Y134.867 E7.61493
G1 X59.246 Y134.764 E7.61929
G1 X59.350 Y134.867 E7.62116
G1 X59.674 Y134.764 E7.62553
G1 X59.777 Y134.867 E7.62740
G1 X60.101 Y134.764 E7.63177
G1 X60.205 Y134.867 E7.63364
G1 X60.529 Y134.764 E7.63800
G1 X60.632 Y134.867 E7.63987
G1 X60.956 Y134.764 E7.64424
G1 X61.059 Y134.867 E7.64611
G1 X61.384 Y134.764 E7.65048
G1 X61.487 Y134.867 E7.65235
G1 X61.811 Y134.764 E7.65671
G1 X61.914 Y134.867 E7.65858
G1 X62.239 Y134.764 E7.66295
G1 X62.342 Y134.867 E7.66482
G1 X62.666 Y134.764 E7.66919
G1 X62.769 Y134.867 E7.67106
G1 X63.094 Y134.764 E7.67542
G1 X63.197 Y134.867 E7.67729
G1 X63.521 Y134.764 E7.68166
G1 X63.624 Y134.867 E7.68353
G1 X63.948 Y134.764 E7.68790
G1 X64.052 Y134.867 E7.68977
G1 X64.263 Y134.651 E7.69364
G1 X64.160 Y134.548 E7.69552
G1 X64.263 Y134.224 E7.69988
G1 X64.160 Y134.120 E7.70176
G1 X64.263 Y133.796 E7.70613
G1 X64.160 Y133.693 E7.70801
G1 X64.264 Y133.369 E7.71237
G1 X64.160 Y133.265 E7.71425
G1 X64.264 Y132.941 E7.71861
G1 X64.160 Y132.838 E7.72049
G1 X64.264 Y132.514 E7.72485
G1 X64.160 Y132.410 E7.72674
G1 X64.264 Y132.087 E7.73110
G1 X64.160 Y131.983 E7.73298
G1 X64.264 Y131.659 E7.73734
G1 X64.160 Y131.555 E7.73922
G1 X64.264 Y131.232 E7.74358
G1 X64.160 Y131.128 E7.74547
G1 X64.264 Y130.804 E7.74983
G1 X64.160 Y130.700 E7.75171
G1 X64.264 Y130.377 E7.75607
G1 X64.160 Y130.273 E7.75796
G1 X64.264 Y129.950 E7.76232
G1 X64.160 Y129.846 E7.76421
G1 X64.264 Y129.522 E7.76856
G1 X64.160 Y129.418 E7.77045
G1 X64.264 Y129.095 E7.77481
G1 X64.160 Y128.991 E7.77670
G1 X64.264 Y128.667 E7.78106
G1 X64.160 Y128.563 E7.78295
G1 X64.264 Y128.240 E7.78730
G1 X64.160 Y128.136 E7.78920
G1 X64.264 Y127.813 E7.79355
G1 X64.160 Y127.708 E7.79544
G1 X64.264 Y127.385 E7.79980
G1 X64.160 Y127.281 E7.80169
G1 X64.264 Y126.958 E7.80605
G1 X64.160 Y126.853 E7.80794
G1 X64.264 Y126.530 E7.81230
G1 X63.961 Y127.130 F7800.000
G1 X63.961 Y134.565
G1 X53.167 Y135.065
G1 X53.365 Y134.867
G1 X53.472 Y134.546 F600.000 E7.81664
G1 X53.365 Y134.439 E7.81857
G1 X53.471 Y134.118 E7.82291
G1 X53.365 Y134.012 E7.82484
G1 X53.471 Y133.690 E7.82918
G1 X53.365 Y133.584 E7.83110
G1 X53.471 Y133.262 E7.83545
G1 X53.365 Y133.157 E7.83736
G1 X53.470 Y132.834 E7.84171
G1 X53.365 Y132.729 E7.84362
G1 X53.470 Y132.407 E7.84797
G1 X53.365 Y132.302 E7.84987
G1 X53.470 Y131.979 E7.85422
G1 X53.365 Y131.874 E7.85612
G1 X53.469 Y131.551 E7.86048
G1 X53.365 Y131.447 E7.86237
G1 X53.469 Y131.123 E7.86673
G1 X53.365 Y131.019 E7.86861
G1 F1800.000 E3.86861
G92 E0
G1 X49.667 Y129.856 F7800.000
G1 X49.667 Y136.808
G1 X51.424 Y138.565
G1 X82.424 Y138.665
G1 X97.204 Y138.665
G1 X95.672 Y135.376
G1 F1800.000 E4.00000
G1 X83.956 Y135.376 F600.000 E4.28769
G1 X83.956 Y130.457 E4.40846
G1 X84.878 Y130.457 E4.43109
G1 X84.881 Y134.454 E4.52926
G1 X94.751 Y134.454 E4.77161
G1 X94.751 Y127.377 E4.94538
G1 X93.390 Y128.725 E4.99240
G1 X92.051 Y129.490 E5.03028
G1 X90.559 Y129.882 E5.06815
G1 X89.016 Y129.875 E5.10603
G1 X87.528 Y129.469 E5.14391
G1 X86.195 Y128.691 E5.18179
G1 X85.876 Y128.368 E5.19295
G1 X86.446 Y127.798 E5.21276
G1 X87.269 Y128.430 E5.23823
G1 X88.497 Y128.938 E5.27087
G1 X89.815 Y129.112 E5.30350
G1 X91.133 Y128.938 E5.33614
G1 X92.361 Y128.430 E5.36878
G1 X93.415 Y127.620 E5.40142
G1 X94.224 Y126.566 E5.43405
G1 X94.733 Y125.338 E5.46669
G1 X94.907 Y124.020 E5.49933
G1 X94.733 Y122.702 E5.53197
G1 X94.224 Y121.474 E5.56460
G1 X93.415 Y120.420 E5.59724
G1 X92.361 Y119.610 E5.62988
G1 X91.133 Y119.102 E5.66252
G1 X89.815 Y118.928 E5.69515
G1 X88.497 Y119.102 E5.72779
G1 X87.269 Y119.610 E5.76043
G1 X86.446 Y120.242 E5.78590
G1 X85.877 Y119.674 E5.80564
G1 X86.240 Y119.315 E5.81815
G1 X87.579 Y118.550 E5.85603
G1 X89.071 Y118.158 E5.89391
G1 X89.813 Y118.161 E5.91214
G1 X90.614 Y118.165 E5.93179
G1 X92.102 Y118.571 E5.96967
G1 X93.434 Y119.349 E6.00755
G1 X94.520 Y120.445 E6.04543
G1 X95.285 Y121.784 E6.08330
G1 X95.677 Y123.276 E6.12118
G1 X95.673 Y135.289 E6.41615
G1 X94.953 Y126.348 F7800.000
G1 X94.952 Y126.348 F600.000 E6.41615
G1 X95.174 Y125.127 F7800.000
G1 X95.264 Y124.438 F600.000 E6.43244
G1 X95.266 Y123.617 F7800.000
G1 X95.189 Y123.028 F600.000 E6.44156
G1 X94.976 Y122.220 F7800.000
G1 X94.976 Y122.220 F600.000 E6.44157
G1 X94.335 Y120.945 F7800.000
G1 X94.334 Y120.945 F600.000 E6.44158
G1 X92.914 Y119.519 F7800.000
G1 X92.913 Y119.519 F600.000 E6.44158
G1 X91.643 Y118.870 F7800.000
G1 X91.643 Y118.870 F600.000 E6.44159
G1 X90.248 Y118.573 F7800.000
G1 X90.837 Y118.650 F600.000 E6.45071
G1 X88.823 Y118.646 F7800.000
G1 X89.412 Y118.568 F600.000 E6.46259
G1 X87.466 Y119.086 F7800.000
G1 X88.015 Y118.858 F600.000 E6.47644
G1 X86.482 Y119.699 F7800.000
G1 X86.458 Y119.675 F600.000 E6.47690
G1 X86.740 Y119.500 E6.48146
G1 X86.309 Y119.807 F7800.000
G1 X88.470 Y118.866
G1 X91.979 Y118.775
G1 X95.061 Y121.886
G1 X94.961 Y127.230
G1 X91.191 Y129.156
G1 X88.439 Y129.156
G1 X86.241 Y128.301
G1 X86.455 Y128.369
G1 X86.454 Y128.368 F600.000 E6.48147
G1 X87.438 Y128.943 F7800.000
G1 X87.438 Y128.943 F600.000 E6.48147
G1 X88.793 Y129.390 F7800.000
G1 X89.382 Y129.468 F600.000 E6.49059
G1 X90.218 Y129.472 F7800.000
G1 X90.807 Y129.394 F600.000 E6.50248
G1 X91.615 Y129.182 F7800.000
G1 X92.164 Y128.954 F600.000 E6.51632
G1 X92.890 Y128.540 F7800.000
G1 X93.361 Y128.178 F600.000 E6.53118
G1 X93.955 Y127.590 F7800.000
G1 X94.203 Y127.344 F600.000 E6.53637
G1 X94.169 Y127.310 E6.53708
G1 X94.452 Y127.097 E6.54233
G1 X94.961 Y127.230 F7800.000
G1 X94.961 Y134.665
G1 X84.670 Y134.665
G1 X84.690 Y134.864
G1 X84.793 Y134.967 F600.000 E6.54420
G1 X85.117 Y134.864 E6.54857
G1 X85.220 Y134.967 E6.55044
G1 X85.545 Y134.864 E6.55480
G1 X85.648 Y134.967 E6.55668
G1 X85.972 Y134.864 E6.56104
G1 X86.075 Y134.967 E6.56291
G1 X86.399 Y134.864 E6.56728
G1 X86.503 Y134.967 E6.56915
G1 X86.827 Y134.864 E6.57351
G1 X86.930 Y134.967 E6.57538
G1 X87.254 Y134.864 E6.57975
G1 X87.357 Y134.967 E6.58162
G1 X87.682 Y134.864 E6.58599
G1 X87.785 Y134.967 E6.58786
G1 X88.109 Y134.864 E6.59222
G1 X88.212 Y134.967 E6.59409
G1 X88.537 Y134.864 E6.59846
G1 X88.640 Y134.967 E6.60033
