; generated by Slic3r 0.9.9 on 2014-01-13 at 21:51:07

; layer_height = 0.4
; perimeters = 3
; top_solid_layers = 3
; bottom_solid_layers = 3
; fill_density = 0.4
; perimeter_speed = 30
; infill_speed = 60
; travel_speed = 130
; nozzle_diameter = 0.5
; filament_diameter = 3
; extrusion_multiplier = 1
; perimeters extrusion width = 0.53mm
; infill extrusion width = 0.53mm
; solid infill extrusion width = 0.53mm
; top infill extrusion width = 0.53mm
; first layer extrusion width = 0.60mm

G21 ; set units to millimeters
M190 S110 ; wait for bed temperature to be reached
M104 S205 ; set temperature
G28 ; home all axes
M109 S205 ; wait for temperature to be reached
G90 ; use absolute coordinates
G92 E0
M82 ; use absolute distances for extrusion
M106 S89
G1 F1800.000 E-4.00000
G92 E0
G1 Z0.300 F7800.000
G1 X73.781 Y58.340
G1 F1800.000 E4.00000
G1 X74.141 Y57.940 F540.000 E4.01321
G1 X74.721 Y57.400 E4.03267
G1 X75.361 Y56.940 E4.05202
G1 X75.821 Y56.670 E4.06512
G1 X76.551 Y56.350 E4.08469
G1 X77.051 Y56.180 E4.09766
G1 X77.561 Y56.050 E4.11058
G1 X78.351 Y55.940 E4.13017
G1 X78.881 Y55.920 E4.14319
G1 X111.111 Y55.920 E4.93456
G1 X111.641 Y55.940 E4.94759
G1 X112.431 Y56.050 E4.96717
G1 X112.681 Y56.110 E4.97349
G1 X113.191 Y56.260 E4.98654
G1 X113.691 Y56.450 E4.99967
G1 X114.171 Y56.670 E5.01264
G1 X114.401 Y56.800 E5.01912
G1 X114.851 Y57.090 E5.03227
G1 X115.271 Y57.400 E5.04509
G1 X115.851 Y57.940 E5.06454
G1 X116.211 Y58.340 E5.07776
G1 X116.521 Y58.760 E5.09058
G1 X116.941 Y59.440 E5.11020
G1 X117.161 Y59.920 E5.12317
G1 X117.351 Y60.420 E5.13630
G1 X117.561 Y61.180 E5.15566
G1 X117.671 Y61.970 E5.17524
G1 X117.691 Y62.500 E5.18827
G1 X117.691 Y77.870 E5.56566
G1 X117.631 Y78.770 E5.58781
G1 X117.521 Y79.360 E5.60255
G1 X106.831 Y125.270 E6.75998
G1 X106.651 Y125.880 E6.77559
G1 X106.321 Y126.860 E6.80098
G1 X106.131 Y127.360 E6.81412
G1 X105.521 Y128.740 E6.85116
G1 X104.801 Y130.080 E6.88851
G1 X104.231 Y130.990 E6.91488
G1 X103.911 Y131.450 E6.92864
G1 X103.561 Y131.880 E6.94225
G1 X103.171 Y132.280 E6.95597
G1 X102.541 Y132.810 E6.97618
G1 X101.841 Y133.260 E6.99662
G1 X101.341 Y133.500 E7.01024
G1 X100.831 Y133.710 E7.02378
G1 X100.301 Y133.870 E7.03737
G1 X99.751 Y133.990 E7.05119
G1 X99.201 Y134.060 E7.06481
G1 X98.651 Y134.080 E7.07832
G1 X78.881 Y134.080 E7.56375
G1 X78.351 Y134.060 E7.57678
G1 X78.091 Y134.030 E7.58320
G1 X77.561 Y133.950 E7.59636
G1 X77.311 Y133.890 E7.60268
G1 X76.801 Y133.740 E7.61573
G1 X76.301 Y133.550 E7.62886
G1 X75.821 Y133.330 E7.64183
G1 X75.591 Y133.200 E7.64832
G1 X75.141 Y132.910 E7.66146
G1 X74.721 Y132.600 E7.67428
G1 X74.141 Y132.060 E7.69374
G1 X73.781 Y131.660 E7.70695
G1 X73.471 Y131.240 E7.71977
G1 X73.051 Y130.560 E7.73939
G1 X72.831 Y130.080 E7.75236
G1 X72.641 Y129.580 E7.76549
G1 X72.431 Y128.820 E7.78485
G1 X72.321 Y128.030 E7.80444
G1 X72.301 Y127.500 E7.81746
G1 X72.301 Y62.500 E9.41347
G1 X72.321 Y61.970 E9.42649
G1 X72.431 Y61.180 E9.44608
G1 X72.641 Y60.420 E9.46544
G1 X72.831 Y59.920 E9.47857
G1 X73.051 Y59.440 E9.49153
G1 X73.321 Y58.980 E9.50463
G1 X73.728 Y58.409 E9.52185
G1 F1800.000 E5.52185
G92 E0
G1 X89.607 Y73.925 F7800.000
G1 F1800.000 E4.00000
G1 X93.685 Y73.925 F540.000 E4.10012
G1 X95.723 Y77.456 E4.20024
G1 X93.685 Y80.988 E4.30036
G1 X89.607 Y80.988 E4.40048
G1 X87.568 Y77.456 E4.50060
G1 X89.564 Y74.000 E4.59859
G1 X89.941 Y74.503 F7800.000
G1 X93.351 Y74.503 F540.000 E4.68231
G1 X95.055 Y77.456 E4.76603
G1 X93.351 Y80.409 E4.84974
G1 X89.941 Y80.409 E4.93346
G1 X88.236 Y77.456 E5.01718
G1 X89.898 Y74.579 E5.09876
G1 X90.275 Y75.082 F7800.000
G1 X93.017 Y75.082 F540.000 E5.16608
G1 X94.387 Y77.456 E5.23339
G1 X93.017 Y79.830 E5.30071
G1 X90.275 Y79.830 E5.36802
G1 X88.904 Y77.456 E5.43534
G1 X90.232 Y75.157 E5.50052
G1 X90.376 Y74.512 F7800.000
G1 X90.153 Y74.871
G1 X88.661 Y77.456
G1 X87.830 Y116.783
G1 X87.953 Y115.882
G1 X88.591 Y115.946 F540.000 E5.51627
G1 X89.369 Y116.168 E5.53612
G1 X90.092 Y116.535 E5.55603
G1 X90.787 Y117.093 E5.57791
G1 X91.332 Y117.759 E5.59904
G1 X91.726 Y118.509 E5.61984
G1 X91.956 Y119.295 E5.63996
G1 X92.029 Y120.072 E5.65913
G1 X91.959 Y120.835 E5.67794
G1 X91.737 Y121.612 E5.69778
G1 X91.352 Y122.361 E5.71845
G1 X90.812 Y123.030 E5.73957
G1 X90.146 Y123.576 E5.76070
G1 X89.397 Y123.969 E5.78149
G1 X88.610 Y124.199 E5.80161
G1 X87.833 Y124.272 E5.82078
G1 X87.070 Y124.203 E5.83959
G1 X86.322 Y123.994 E5.85867
G1 X85.544 Y123.595 E5.88012
G1 X84.875 Y123.056 E5.90123
G1 X84.329 Y122.390 E5.92236
G1 X83.936 Y121.640 E5.94316
G1 X83.706 Y120.854 E5.96327
G1 X83.631 Y120.108 E5.98166
G1 X83.695 Y119.344 E6.00050
G1 X83.924 Y118.536 E6.02111
G1 X84.310 Y117.788 E6.04179
G1 X84.850 Y117.118 E6.06290
G1 X85.515 Y116.573 E6.08403
G1 X86.265 Y116.179 E6.10483
G1 X87.051 Y115.949 E6.12494
G1 X87.866 Y115.878 E6.14503
G1 X87.829 Y116.456 F7800.000
G1 X88.487 Y116.516 F540.000 E6.16125
G1 X89.158 Y116.708 E6.17838
G1 X89.789 Y117.030 E6.19577
G1 X90.381 Y117.507 E6.21445
G1 X90.852 Y118.082 E6.23269
G1 X91.190 Y118.729 E6.25062
G1 X91.387 Y119.406 E6.26793
G1 X91.449 Y120.073 E6.28439
G1 X91.389 Y120.731 E6.30060
G1 X91.197 Y121.402 E6.31774
G1 X90.864 Y122.047 E6.33558
G1 X90.398 Y122.625 E6.35380
G1 X89.823 Y123.095 E6.37204
G1 X89.176 Y123.434 E6.38997
G1 X88.499 Y123.631 E6.40728
G1 X87.832 Y123.693 E6.42374
G1 X87.174 Y123.633 E6.43996
G1 X86.521 Y123.449 E6.45662
G1 X85.858 Y123.108 E6.47493
G1 X85.280 Y122.642 E6.49316
G1 X84.810 Y122.067 E6.51140
G1 X84.471 Y121.420 E6.52932
G1 X84.274 Y120.743 E6.54663
G1 X84.211 Y120.095 E6.56263
G1 X84.268 Y119.436 E6.57885
G1 X84.464 Y118.747 E6.59645
G1 X84.797 Y118.101 E6.61429
G1 X85.263 Y117.524 E6.63252
G1 X85.838 Y117.053 E6.65075
G1 X86.485 Y116.715 E6.66868
G1 X87.162 Y116.518 E6.68599
G1 X87.743 Y116.460 E6.70032
G1 X87.785 Y117.037 F7800.000
G1 X88.383 Y117.085 F540.000 E6.71505
G1 X88.947 Y117.247 E6.72947
G1 X89.485 Y117.524 E6.74433
G1 X89.976 Y117.921 E6.75982
G1 X90.371 Y118.405 E6.77516
G1 X90.654 Y118.949 E6.79022
G1 X90.819 Y119.516 E6.80472
G1 X90.870 Y120.074 E6.81848
G1 X90.820 Y120.626 E6.83210
G1 X90.658 Y121.191 E6.84652
G1 X90.377 Y121.734 E6.86153
G1 X89.984 Y122.220 E6.87687
G1 X89.500 Y122.615 E6.89221
G1 X88.956 Y122.898 E6.90727
G1 X88.389 Y123.062 E6.92177
G1 X87.831 Y123.114 E6.93552
G1 X87.279 Y123.063 E6.94914
G1 X86.720 Y122.904 E6.96341
G1 X86.171 Y122.621 E6.97858
G1 X85.685 Y122.228 E6.99392
G1 X85.291 Y121.744 E7.00926
G1 X85.007 Y121.200 E7.02431
G1 X84.843 Y120.633 E7.03882
G1 X84.791 Y120.081 E7.05242
G1 X84.840 Y119.529 E7.06604
G1 X85.004 Y118.958 E7.08061
G1 X85.284 Y118.415 E7.09563
G1 X85.677 Y117.929 E7.11096
G1 X86.161 Y117.534 E7.12631
G1 X86.705 Y117.251 E7.14136
G1 X87.273 Y117.086 E7.15587
G1 X87.698 Y117.045 E7.16637
G1 X88.085 Y116.542 F7800.000
G1 X80.327 Y63.946
G1 X109.673 Y63.946 F540.000 E7.88693
G1 X109.673 Y77.493 E8.21956
G1 X91.961 Y108.936 E9.10568
G1 X94.622 Y110.571 E9.18237
G1 X95.894 Y111.624 E9.22292
G1 X97.018 Y112.861 E9.26395
G1 X97.933 Y114.208 E9.30394
G1 X98.641 Y115.649 E9.34336
G1 X99.140 Y117.150 E9.38221
G1 X99.424 Y118.636 E9.41935
G1 X99.513 Y120.060 E9.45439
G1 X99.395 Y121.725 E9.49536
G1 X99.025 Y123.419 E9.53796
G1 X98.744 Y124.246 E9.55938
G1 X98.383 Y125.090 E9.58192
G1 X97.862 Y126.054 E9.60883
G1 X80.327 Y126.054 E10.03938
G1 X80.327 Y64.033 E11.56223
G1 X79.749 Y63.368 F7800.000
G1 X110.251 Y63.368 F540.000 E12.31120
G1 X110.251 Y77.645 E12.66176
G1 X92.738 Y108.735 E13.53792
G1 X94.960 Y110.099 E13.60194
G1 X96.295 Y111.205 E13.64450
G1 X97.474 Y112.502 E13.68754
G1 X98.434 Y113.917 E13.72953
G1 X99.178 Y115.430 E13.77093
G1 X99.701 Y117.004 E13.81167
G1 X99.999 Y118.563 E13.85065
G1 X100.093 Y120.063 E13.88753
G1 X99.969 Y121.807 E13.93048
G1 X99.583 Y123.575 E13.97490
G1 X99.285 Y124.453 E13.99767
G1 X98.907 Y125.336 E14.02124
G1 X98.464 Y126.183 E14.04474
G1 X98.181 Y126.632 E14.05775
G1 X79.749 Y126.632 E14.51036
G1 X79.749 Y63.455 E16.06162
G1 X79.170 Y62.789 F7800.000
G1 X110.830 Y62.789 F378.000 E16.83900
G1 X110.830 Y77.797 E17.20749
G1 X93.516 Y108.533 E18.07370
G1 X95.296 Y109.626 E18.12500
G1 X96.694 Y110.783 E18.16954
G1 X97.924 Y112.136 E18.21444
G1 X98.938 Y113.630 E18.25878
G1 X99.709 Y115.197 E18.30167
G1 X100.262 Y116.858 E18.34465
G1 X100.574 Y118.485 E18.38534
G1 X100.672 Y120.054 E18.42392
G1 X100.540 Y121.903 E18.46943
G1 X100.144 Y123.720 E18.51510
G1 X99.826 Y124.660 E18.53946
G1 X99.426 Y125.592 E18.56436
G1 X98.961 Y126.479 E18.58895
G1 X98.501 Y127.211 E18.61018
G1 X79.170 Y127.211 E19.08484
G1 X79.170 Y62.876 E20.66451
G1 X79.671 Y63.079 F7800.000
G1 X93.685 Y73.506
G1 X84.545 Y64.366 F1080.000 E20.98401
G1 X83.721 Y64.366 E21.00436
G1 X92.861 Y73.506 E21.32386
G1 X92.037 Y73.506 E21.34422
G1 X82.897 Y64.366 E21.66371
G1 X82.074 Y64.366 E21.68407
G1 X91.214 Y73.506 E22.00357
G1 X90.390 Y73.506 E22.02393
G1 X81.250 Y64.366 E22.34342
G1 X80.746 Y64.686 E22.35817
G1 X89.566 Y73.506 E22.66649
G1 X89.137 Y73.900 E22.68089
G1 X80.746 Y65.509 E22.97421
G1 X80.746 Y66.333 E22.99456
G1 X88.836 Y74.422 E23.27734
G1 X88.534 Y74.944 E23.29224
G1 X80.746 Y67.156 E23.56448
G1 X80.746 Y67.980 E23.58484
G1 X88.233 Y75.467 E23.84653
G1 X87.931 Y75.989 E23.86144
G1 X80.746 Y68.804 E24.11260
G1 X80.746 Y69.627 E24.13295
G1 X87.630 Y76.511 E24.37357
G1 X87.328 Y77.033 E24.38848
G1 X80.746 Y70.451 E24.61856
G1 X80.746 Y71.275 E24.63892
G1 X87.297 Y77.825 E24.86791
G1 X88.422 Y79.774 E24.92353
G1 X80.746 Y72.098 E25.19185
G1 X80.746 Y72.922 E25.21221
G1 X100.589 Y92.765 E25.90583
G1 X100.292 Y93.291 E25.92078
G1 X80.746 Y73.745 E26.60402
G1 X80.746 Y74.569 E26.62438
G1 X99.996 Y93.818 E27.29725
G1 X99.699 Y94.345 E27.31220
G1 X80.746 Y75.393 E27.97470
G1 X80.746 Y76.216 E27.99505
G1 X99.402 Y94.872 E28.64718
G1 X99.105 Y95.399 E28.66212
G1 X80.746 Y77.040 E29.30387
G1 X80.746 Y77.864 E29.32423
G1 X98.808 Y95.926 E29.95560
G1 X98.512 Y96.452 E29.97055
G1 X80.746 Y78.687 E30.59155
G1 X80.746 Y79.511 E30.61191
G1 X98.215 Y96.979 E31.22254
G1 X97.918 Y97.506 E31.23748
G1 X80.746 Y80.334 E31.83773
G1 X80.746 Y81.158 E31.85809
G1 X97.621 Y98.033 E32.44797
G1 X97.324 Y98.560 E32.46291
G1 X80.746 Y81.982 E33.04242
G1 X80.746 Y82.805 E33.06278
G1 X97.028 Y99.087 E33.63190
G1 X96.731 Y99.614 E33.64685
G1 X80.746 Y83.629 E34.20560
G1 X80.746 Y84.453 E34.22596
G1 X96.434 Y100.140 E34.77434
G1 X96.137 Y100.667 E34.78929
G1 X80.746 Y85.276 E35.32729
G1 X80.746 Y86.100 E35.34765
G1 X95.841 Y101.194 E35.87528
G1 X95.544 Y101.721 E35.89023
G1 X80.746 Y86.924 E36.40749
G1 X80.746 Y87.747 E36.42785
G1 X95.247 Y102.248 E36.93473
G1 X94.950 Y102.775 E36.94967
G1 X80.746 Y88.571 E37.44618
G1 X80.746 Y89.394 E37.46654
G1 X94.653 Y103.301 E37.95267
G1 X94.357 Y103.828 E37.96762
G1 X80.746 Y90.218 E38.44338
G1 X80.746 Y91.042 E38.46374
G1 X94.060 Y104.355 E38.92912
G1 X93.763 Y104.882 E38.94407
G1 X80.746 Y91.865 E39.39908
G1 X80.746 Y92.689 E39.41944
G1 X93.466 Y105.409 E39.86408
G1 X93.170 Y105.936 E39.87902
G1 X80.746 Y93.513 E40.31328
G1 X80.746 Y94.336 E40.33364
G1 X92.873 Y106.463 E40.75753
G1 X92.576 Y106.989 E40.77248
G1 X80.746 Y95.160 E41.18599
G1 X80.746 Y95.983 E41.20635
G1 X92.279 Y107.516 E41.60949
G1 X91.982 Y108.043 E41.62443
G1 X80.746 Y96.807 E42.01720
G1 X80.746 Y97.631 E42.03756
G1 X91.686 Y108.570 E42.41995
G1 X93.472 Y110.356 F7800.000
G1 X97.603 Y114.487 F1080.000 E42.56434
G1 X98.328 Y116.036 E42.60662
G1 X80.746 Y98.454 E43.22121
G1 X80.746 Y99.278 E43.24157
G1 X98.736 Y117.267 E43.87040
G1 X98.930 Y118.286 E43.89603
G1 X80.746 Y100.102 E44.53167
G1 X80.746 Y100.925 E44.55203
G1 X99.040 Y119.219 E45.19151
G1 X99.090 Y120.093 E45.21313
G1 X80.746 Y101.749 E45.85436
G1 X80.746 Y102.572 E45.87472
G1 X99.036 Y120.862 E46.51404
G1 X98.981 Y121.631 E46.53310
G1 X80.746 Y103.396 E47.17052
G1 X80.746 Y104.220 E47.19088
G1 X98.838 Y122.311 E47.82328
G1 X98.690 Y122.987 E47.84038
G1 X80.746 Y105.043 E48.46762
G1 X80.746 Y119.045 F7800.000
G1 X83.597 Y121.896 F1080.000 E48.56728
G1 X83.275 Y120.750 E48.59672
G1 X80.746 Y118.221 E48.68509
G1 X80.746 Y117.398 E48.70545
G1 X83.230 Y119.882 E48.79228
G1 X83.317 Y119.145 E48.81062
G1 X80.746 Y116.574 E48.90048
G1 X80.746 Y115.751 E48.92084
G1 X83.499 Y118.503 E49.01706
G1 X83.761 Y117.941 E49.03239
G1 X80.746 Y114.927 E49.13775
G1 X80.746 Y114.103 E49.15811
G1 X84.067 Y117.423 E49.27417
G1 X84.434 Y116.967 E49.28865
G1 X80.746 Y113.280 E49.41755
G1 X80.746 Y112.456 E49.43791
G1 X84.860 Y116.569 E49.58169
G1 X85.318 Y116.204 E49.59618
G1 X80.746 Y111.632 E49.75598
G1 X80.746 Y110.809 E49.77634
G1 X85.858 Y115.920 E49.95502
G1 X86.450 Y115.689 E49.97074
G1 X80.746 Y109.985 E50.17013
G1 X80.746 Y109.162 E50.19049
G1 X87.109 Y115.524 E50.41289
G1 X87.868 Y115.460 E50.43174
G1 X80.746 Y108.338 E50.68070
G1 X80.746 Y107.514 E50.70106
G1 X88.804 Y115.572 E50.98271
G1 X90.151 Y116.096 E51.01845
G1 X80.746 Y106.691 E51.34721
G1 X80.746 Y105.867 E51.36757
G1 X98.510 Y123.631 E51.98852
G1 X98.292 Y124.236 E52.00443
G1 X91.794 Y117.738 E52.23159
G1 X92.336 Y119.104 E52.26791
G1 X98.045 Y124.813 E52.46750
G1 X97.768 Y125.360 E52.48265
G1 X92.445 Y120.037 E52.66872
G1 X92.383 Y120.798 E52.68759
G1 X97.219 Y125.634 E52.85665
G1 X96.396 Y125.634 E52.87701
G1 X92.217 Y121.456 E53.02308
G1 X91.984 Y122.046 E53.03877
G1 X95.572 Y125.634 E53.16420
G1 X94.748 Y125.634 E53.18455
G1 X91.704 Y122.590 E53.29098
G1 X91.336 Y123.046 E53.30545
G1 X93.925 Y125.634 E53.39593
G1 X93.101 Y125.634 E53.41629
G1 X90.936 Y123.469 E53.49197
G1 X90.484 Y123.841 E53.50644
G1 X92.277 Y125.634 E53.56914
G1 X91.454 Y125.634 E53.58950
G1 X89.964 Y124.144 E53.64158
G1 X89.400 Y124.404 E53.65693
G1 X90.630 Y125.634 E53.69993
G1 X89.807 Y125.634 E53.72029
G1 X88.763 Y124.591 E53.75677
G1 X88.023 Y124.675 E53.77517
G1 X88.983 Y125.634 E53.80872
G1 X88.159 Y125.634 E53.82908
G1 X87.157 Y124.632 E53.86410
G1 X85.999 Y124.298 E53.89389
G1 X87.336 Y125.634 E53.94060
G1 X86.512 Y125.634 E53.96096
G1 X80.746 Y119.869 E54.16250
G1 X80.746 Y120.692 E54.18286
G1 X85.688 Y125.634 E54.35561
G1 X84.865 Y125.634 E54.37597
G1 X80.746 Y121.516 E54.51993
G1 X80.746 Y122.340 E54.54029
G1 X84.041 Y125.634 E54.65546
G1 X83.217 Y125.634 E54.67582
G1 X80.746 Y123.163 E54.76220
G1 X80.746 Y123.987 E54.78256
G1 X82.394 Y125.634 E54.84015
G1 X81.570 Y125.634 E54.86050
G1 X80.746 Y124.810 E54.88930
G1 X80.747 Y125.634 E54.90966
G1 X90.055 Y81.407 F7800.000
G1 X100.886 Y92.238 F1080.000 E55.28827
G1 X101.183 Y91.711 E55.30321
G1 X90.879 Y81.407 E55.66340
G1 X91.702 Y81.407 E55.68376
G1 X101.479 Y91.184 E56.02553
G1 X101.776 Y90.657 E56.04048
G1 X92.526 Y81.407 E56.36383
G1 X93.350 Y81.407 E56.38419
G1 X102.073 Y90.130 E56.68912
G1 X102.370 Y89.603 E56.70407
G1 X94.017 Y81.251 E56.99605
G1 X94.318 Y80.728 E57.01096
G1 X102.667 Y89.077 E57.30278
G1 X102.963 Y88.550 E57.31772
G1 X94.620 Y80.206 E57.60938
G1 X94.921 Y79.684 E57.62428
G1 X103.260 Y88.023 E57.91577
G1 X103.557 Y87.496 E57.93072
G1 X95.223 Y79.162 E58.22204
G1 X95.524 Y78.640 E58.23695
G1 X103.854 Y86.969 E58.52811
G1 X104.150 Y86.442 E58.54305
G1 X95.826 Y78.118 E58.83405
G1 X96.127 Y77.595 E58.84896
G1 X104.447 Y85.916 E59.13979
G1 X104.744 Y85.389 E59.15474
G1 X95.383 Y76.027 E59.48198
G1 X94.257 Y74.078 F7800.000
G1 X105.041 Y84.862 F1080.000 E59.85893
G1 X105.338 Y84.335 E59.87387
G1 X85.368 Y64.366 E60.57192
G1 X86.192 Y64.366 E60.59228
G1 X105.634 Y83.808 E61.27191
G1 X105.931 Y83.281 E61.28685
G1 X87.016 Y64.366 E61.94807
G1 X87.839 Y64.366 E61.96842
G1 X106.228 Y82.754 E62.61122
G1 X106.525 Y82.228 E62.62617
G1 X88.663 Y64.366 E63.25055
G1 X89.486 Y64.366 E63.27091
G1 X106.822 Y81.701 E63.87687
G1 X107.118 Y81.174 E63.89182
G1 X90.310 Y64.366 E64.47936
G1 X91.134 Y64.366 E64.49972
G1 X107.415 Y80.647 E65.06885
G1 X107.712 Y80.120 E65.08380
G1 X91.957 Y64.366 E65.63451
G1 X92.781 Y64.366 E65.65487
G1 X108.009 Y79.593 E66.18717
G1 X108.305 Y79.067 E66.20212
G1 X93.605 Y64.366 E66.71600
G1 X94.428 Y64.366 E66.73636
G1 X108.602 Y78.540 E67.23182
G1 X108.899 Y78.013 E67.24677
G1 X95.252 Y64.366 E67.72382
