; generated by Slic3r 1.0.0RC3 on 2014-03-08 at 15:03:38

; layer_height = 0.25
; perimeters = 3
; top_solid_layers = 4
; bottom_solid_layers = 4
; fill_density = 0.4
; perimeter_speed = 30
; infill_speed = 60
; travel_speed = 130
; nozzle_diameter = 0.5
; filament_diameter = 2.94
; extrusion_multiplier = 1
; perimeters extrusion width = 0.50mm
; infill extrusion width = 0.84mm
; solid infill extrusion width = 0.84mm
; top infill extrusion width = 0.84mm

G21 ; set units to millimeters
M107
M190 S110 ; wait for bed temperature to be reached
M104 S220 ; set temperature
G28 ; home all axes
M109 S220 ; wait for temperature to be reached
G90 ; use absolute coordinates
G92 E0
M82 ; use absolute distances for extrusion
G1 F600.000 E-1.00000
G92 E0
G1 Z0.200 F7800.000
G1 X25.060 Y71.377 F7800.000
G1 E1.00000 F600.000
G1 X26.750 Y71.117 E1.02519 F540.000
G1 X163.250 Y71.117 E3.03589
G1 X164.940 Y71.377 E3.06108
G1 X166.460 Y72.147 E3.08618
G1 X168.910 Y73.907 E3.13061
G1 X169.870 Y74.787 E3.14980
G1 X170.590 Y75.867 E3.16892
G1 X171.050 Y77.087 E3.18812
G1 X171.200 Y78.377 E3.20725
G1 X171.200 Y113.377 E3.72282
G1 X171.060 Y114.597 E3.74091
G1 X170.660 Y115.767 E3.75912
G1 X170.000 Y116.807 E3.77727
G1 X169.130 Y117.677 E3.79539
G1 X168.090 Y118.337 E3.81353
G1 X166.920 Y118.737 E3.83175
G1 X165.700 Y118.877 E3.84984
G1 X24.300 Y118.877 E5.93272
G1 X23.080 Y118.737 E5.95081
G1 X21.910 Y118.337 E5.96902
G1 X20.870 Y117.677 E5.98717
G1 X20.000 Y116.807 E6.00529
G1 X19.340 Y115.767 E6.02344
G1 X18.940 Y114.597 E6.04165
G1 X18.800 Y113.377 E6.05974
G1 X18.800 Y78.377 E6.57530
G1 X18.950 Y77.087 E6.59443
G1 X19.410 Y75.867 E6.61364
G1 X20.130 Y74.787 E6.63276
G1 X21.090 Y73.907 E6.65194
G1 X23.540 Y72.147 E6.69638
G1 X24.993 Y71.411 E6.72037
G1 F600.000 E5.72037
G92 E0
G1 X96.550 Y77.243 F7800.000
G1 E1.00000 F600.000
G1 X98.161 Y75.633 E1.03356 F540.000
G1 X98.989 Y75.633 E1.04575
G1 X99.221 Y75.499 E1.04970
G1 X99.737 Y74.604 E1.06491
G1 X101.013 Y73.867 E1.08662
G1 X105.389 Y73.867 E1.15108
G1 X107.000 Y75.478 E1.18463
G1 X107.000 Y82.087 E1.28198
G1 X105.326 Y83.761 E1.31685
G1 X105.250 Y83.944 E1.31978
G1 X105.250 Y102.340 E1.59075
G1 X105.543 Y102.633 E1.59685
G1 X159.457 Y102.633 E2.39103
G1 X159.750 Y102.340 E2.39713
G1 X159.750 Y83.944 E2.66810
G1 X159.674 Y83.761 E2.67103
G1 X158.000 Y82.087 E2.70590
G1 X158.000 Y75.478 E2.80325
G1 X159.611 Y73.867 E2.83680
G1 X163.987 Y73.867 E2.90126
G1 X165.263 Y74.604 E2.92297
G1 X165.779 Y75.499 E2.93818
G1 X166.011 Y75.633 E2.94213
G1 X166.839 Y75.633 E2.95432
G1 X168.450 Y77.243 E2.98788
G1 X168.450 Y114.522 E3.53700
G1 X166.839 Y116.133 E3.57056
G1 X98.161 Y116.133 E4.58222
G1 X96.550 Y114.522 E4.61578
G1 X96.550 Y77.318 E5.16380
G1 X97.050 Y77.451 F7800.000
G1 X98.368 Y76.133 E5.19125 F540.000
G1 X99.277 Y76.133 E5.20465
G1 X99.509 Y75.999 E5.20859
G1 X100.103 Y74.970 E5.22608
G1 X101.147 Y74.367 E5.24385
G1 X105.182 Y74.367 E5.30328
G1 X106.500 Y75.685 E5.33074
G1 X106.500 Y81.880 E5.42198
G1 X105.182 Y83.198 E5.44944
G1 X105.043 Y83.198 E5.45149
G1 X104.750 Y83.491 E5.45759
G1 X104.750 Y102.840 E5.74261
G1 X105.043 Y103.133 E5.74871
G1 X159.957 Y103.133 E6.55762
G1 X160.250 Y102.840 E6.56372
G1 X160.250 Y83.491 E6.84874
G1 X159.957 Y83.198 E6.85484
G1 X159.818 Y83.198 E6.85689
G1 X158.500 Y81.880 E6.88435
G1 X158.500 Y75.685 E6.97559
G1 X159.818 Y74.367 E7.00305
G1 X163.853 Y74.367 E7.06248
G1 X164.897 Y74.970 E7.08025
G1 X165.491 Y75.999 E7.09774
G1 X165.723 Y76.133 E7.10168
G1 X166.632 Y76.133 E7.11507
G1 X167.950 Y77.451 E7.14253
G1 X167.950 Y114.315 E7.68555
G1 X166.632 Y115.633 E7.71301
G1 X98.368 Y115.633 E8.71857
G1 X97.050 Y114.315 E8.74603
G1 X97.050 Y77.526 E9.28794
G1 X97.550 Y77.658 F7800.000
G1 X98.575 Y76.633 E9.30930 F540.000
G1 X99.566 Y76.633 E9.32389
G1 X99.798 Y76.499 E9.32784
G1 X100.469 Y75.336 E9.34761
G1 X101.281 Y74.867 E9.36142
G1 X104.975 Y74.867 E9.41583
G1 X106.000 Y75.893 E9.43719
G1 X106.000 Y81.673 E9.52233
G1 X104.975 Y82.698 E9.54368
G1 X104.543 Y82.698 E9.55005
G1 X104.250 Y82.991 E9.55615
G1 X104.250 Y103.340 E9.85590
G1 X104.543 Y103.633 E9.86200
G1 X160.457 Y103.633 E10.68564
G1 X160.750 Y103.340 E10.69174
G1 X160.750 Y82.991 E10.99150
G1 X160.457 Y82.698 E10.99760
G1 X160.025 Y82.698 E11.00396
G1 X159.000 Y81.673 E11.02532
G1 X159.000 Y75.893 E11.11046
G1 X160.025 Y74.867 E11.13181
G1 X163.719 Y74.867 E11.18622
G1 X164.531 Y75.336 E11.20004
G1 X165.202 Y76.499 E11.21981
G1 X165.434 Y76.633 E11.22375
G1 X166.425 Y76.633 E11.23835
G1 X167.450 Y77.658 E11.25970
G1 X167.450 Y114.107 E11.79662
G1 X166.425 Y115.133 E11.81798
G1 X98.575 Y115.133 E12.81743
G1 X97.550 Y114.107 E12.83879
G1 X97.550 Y77.733 E13.37461
G1 X98.050 Y77.865 F7800.000
G1 X98.782 Y77.133 E13.38986 F540.000
G1 X99.855 Y77.133 E13.40565
G1 X100.087 Y76.999 E13.40960
G1 X100.835 Y75.702 E13.43165
G1 X101.415 Y75.367 E13.44152
G1 X104.768 Y75.367 E13.49090
G1 X105.500 Y76.100 E13.50616
G1 X105.500 Y78.423 E13.54039
G1 X105.348 Y78.576 E13.54356
G1 X105.348 Y78.989 E13.54964
G1 X105.500 Y79.142 E13.55281
G1 X105.500 Y81.465 E13.58704
G1 X104.768 Y82.198 E13.60230
G1 X104.043 Y82.198 E13.61298
G1 X103.750 Y82.491 E13.61908
G1 X103.750 Y103.840 E13.93356
G1 X104.043 Y104.133 E13.93966
G1 X160.957 Y104.133 E14.77803
G1 X161.250 Y103.840 E14.78413
G1 X161.250 Y82.491 E15.09861
G1 X160.957 Y82.198 E15.10472
G1 X160.232 Y82.198 E15.11539
G1 X159.500 Y81.465 E15.13065
G1 X159.500 Y79.142 E15.16488
G1 X159.652 Y78.989 E15.16805
G1 X159.652 Y78.576 E15.17413
G1 X159.500 Y78.423 E15.17731
G1 X159.500 Y76.100 E15.21154
G1 X160.232 Y75.367 E15.22679
G1 X163.585 Y75.367 E15.27618
G1 X164.165 Y75.702 E15.28604
G1 X164.913 Y76.999 E15.30809
G1 X165.145 Y77.133 E15.31204
G1 X166.218 Y77.133 E15.32783
G1 X166.950 Y77.865 E15.34309
G1 X166.950 Y113.900 E15.87391
G1 X166.218 Y114.633 E15.88916
G1 X98.782 Y114.633 E16.88251
G1 X98.050 Y113.900 E16.89777
G1 X98.050 Y77.940 E17.42748
G1 X98.550 Y78.072 F7800.000
G1 X98.989 Y77.633 E17.43663 F540.000
G1 X100.143 Y77.633 E17.45363
G1 X100.375 Y77.499 E17.45758
G1 X101.201 Y76.068 E17.48190
G1 X101.549 Y75.867 E17.48782
G1 X104.561 Y75.867 E17.53219
G1 X105.000 Y76.307 E17.54134
G1 X105.000 Y78.217 E17.56948
G1 X104.643 Y78.576 E17.57694
G1 X104.643 Y78.989 E17.58302
G1 X105.000 Y79.348 E17.59048
G1 X105.000 Y81.258 E17.61862
G1 X104.561 Y81.698 E17.62777
G1 X103.543 Y81.698 E17.64277
G1 X103.250 Y81.991 E17.64887
G1 X103.250 Y104.340 E17.97808
G1 X103.543 Y104.633 E17.98418
G1 X161.457 Y104.633 E18.83728
G1 X161.750 Y104.340 E18.84338
G1 X161.750 Y81.991 E19.17260
G1 X161.457 Y81.698 E19.17870
G1 X160.439 Y81.698 E19.19369
G1 X160.000 Y81.258 E19.20284
G1 X160.000 Y79.348 E19.23098
G1 X160.357 Y78.989 E19.23844
G1 X160.357 Y78.576 E19.24452
G1 X160.000 Y78.217 E19.25198
G1 X160.000 Y76.307 E19.28012
G1 X160.439 Y75.867 E19.28928
G1 X163.451 Y75.867 E19.33364
G1 X163.799 Y76.068 E19.33956
G1 X164.625 Y77.499 E19.36389
G1 X164.857 Y77.633 E19.36783
G1 X166.011 Y77.633 E19.38483
G1 X166.450 Y78.072 E19.39398
G1 X166.450 Y113.693 E19.91870
G1 X166.011 Y114.133 E19.92785
G1 X98.989 Y114.133 E20.91510
G1 X98.550 Y113.693 E20.92426
G1 X98.550 Y78.147 E21.44787
G1 X99.050 Y78.279 F7800.000
G1 X99.196 Y78.133 E21.45092 F540.000
G1 X100.432 Y78.133 E21.46912
G1 X100.664 Y77.999 E21.47307
G1 X101.567 Y76.434 E21.49967
G1 X101.683 Y76.367 E21.50164
G1 X104.354 Y76.367 E21.54098
G1 X104.500 Y76.514 E21.54403
G1 X104.500 Y78.011 E21.56608
G1 X104.354 Y78.157 E21.56912
G1 X102.798 Y78.165 E21.59204
G1 X102.568 Y78.299 E21.59597
G1 X102.366 Y78.649 E21.60192
G1 X102.366 Y78.917 E21.60586
G1 X102.568 Y79.266 E21.61181
G1 X102.798 Y79.400 E21.61574
G1 X104.354 Y79.408 E21.63866
G1 X104.500 Y79.554 E21.64170
G1 X104.500 Y81.051 E21.66375
G1 X104.354 Y81.198 E21.66680
G1 X103.043 Y81.198 E21.68611
G1 X102.750 Y81.491 E21.69221
G1 X102.750 Y104.840 E22.03615
G1 X103.043 Y105.133 E22.04225
G1 X161.957 Y105.133 E22.91008
G1 X162.250 Y104.840 E22.91618
G1 X162.250 Y81.491 E23.26013
G1 X161.957 Y81.198 E23.26623
G1 X160.646 Y81.198 E23.28554
G1 X160.500 Y81.051 E23.28859
G1 X160.500 Y79.554 E23.31064
G1 X160.646 Y79.408 E23.31368
G1 X162.202 Y79.400 E23.33660
G1 X162.432 Y79.266 E23.34052
G1 X162.634 Y78.917 E23.34647
G1 X162.634 Y78.649 E23.35042
G1 X162.432 Y78.299 E23.35637
G1 X162.202 Y78.165 E23.36029
G1 X160.646 Y78.157 E23.38321
G1 X160.500 Y78.011 E23.38625
G1 X160.500 Y76.514 E23.40830
G1 X160.646 Y76.367 E23.41135
G1 X163.317 Y76.367 E23.45069
G1 X163.433 Y76.434 E23.45266
G1 X164.336 Y77.999 E23.47927
G1 X164.568 Y78.133 E23.48322
G1 X165.804 Y78.133 E23.50141
G1 X165.950 Y78.279 E23.50447
G1 X165.950 Y113.486 E24.02308
G1 X165.804 Y113.633 E24.02613
G1 X99.196 Y113.633 E25.00728
G1 X99.050 Y113.486 E25.01033
G1 X99.050 Y78.354 E25.52785
G1 F600.000 E24.52785
G92 E0
G1 X93.450 Y77.243 F7800.000
G1 E1.00000 F600.000
G1 X93.450 Y114.522 E1.54912 F540.000
G1 X91.839 Y116.133 E1.58268
G1 X23.161 Y116.133 E2.59434
G1 X21.550 Y114.522 E2.62790
G1 X21.550 Y77.243 E3.17702
G1 X23.161 Y75.633 E3.21058
G1 X23.989 Y75.633 E3.22277
G1 X24.221 Y75.499 E3.22672
G1 X24.737 Y74.604 E3.24193
G1 X26.013 Y73.867 E3.26364
G1 X30.389 Y73.867 E3.32810
G1 X32.000 Y75.478 E3.36166
G1 X32.000 Y82.087 E3.45900
G1 X30.326 Y83.761 E3.49387
G1 X30.250 Y83.944 E3.49680
G1 X30.250 Y102.340 E3.76777
G1 X30.543 Y102.633 E3.77387
G1 X84.457 Y102.633 E4.56805
G1 X84.750 Y102.340 E4.57415
G1 X84.750 Y83.944 E4.84512
G1 X84.674 Y83.761 E4.84805
G1 X83.000 Y82.087 E4.88292
G1 X83.000 Y75.478 E4.98027
G1 X84.611 Y73.867 E5.01383
G1 X88.987 Y73.867 E5.07829
G1 X90.263 Y74.604 E5.10000
G1 X90.779 Y75.499 E5.11521
G1 X91.011 Y75.633 E5.11915
G1 X91.839 Y75.633 E5.13134
G1 X93.397 Y77.190 E5.16380
G1 X92.950 Y77.451 F7800.000
G1 X92.950 Y114.315 E5.70682 F540.000
G1 X91.632 Y115.633 E5.73428
G1 X23.368 Y115.633 E6.73983
G1 X22.050 Y114.315 E6.76729
G1 X22.050 Y77.451 E7.31031
G1 X23.368 Y76.133 E7.33777
G1 X24.277 Y76.133 E7.35116
G1 X24.509 Y75.999 E7.35511
G1 X25.103 Y74.970 E7.37260
G1 X26.147 Y74.367 E7.39036
G1 X30.182 Y74.367 E7.44980
G1 X31.500 Y75.685 E7.47725
G1 X31.500 Y81.880 E7.56850
G1 X30.182 Y83.198 E7.59595
G1 X30.043 Y83.198 E7.59800
G1 X29.750 Y83.491 E7.60410
G1 X29.750 Y102.840 E7.88912
G1 X30.043 Y103.133 E7.89523
G1 X84.957 Y103.133 E8.70414
G1 X85.250 Y102.840 E8.71024
G1 X85.250 Y83.491 E8.99526
G1 X84.957 Y83.198 E9.00136
G1 X84.818 Y83.198 E9.00341
G1 X83.500 Y81.880 E9.03087
G1 X83.500 Y75.685 E9.12211
G1 X84.818 Y74.367 E9.14956
G1 X88.853 Y74.367 E9.20900
G1 X89.897 Y74.970 E9.22676
G1 X90.491 Y75.999 E9.24425
G1 X90.723 Y76.133 E9.24820
G1 X91.632 Y76.133 E9.26159
G1 X92.897 Y77.398 E9.28794
G1 X92.450 Y77.658 F7800.000
G1 X92.450 Y114.107 E9.82486 F540.000
G1 X91.425 Y115.133 E9.84622
G1 X23.575 Y115.133 E10.84567
G1 X22.550 Y114.107 E10.86703
G1 X22.550 Y77.658 E11.40395
G1 X23.575 Y76.633 E11.42531
G1 X24.566 Y76.633 E11.43990
G1 X24.798 Y76.499 E11.44385
G1 X25.469 Y75.336 E11.46362
G1 X26.281 Y74.867 E11.47743
G1 X29.975 Y74.867 E11.53184
G1 X31.000 Y75.893 E11.55320
G1 X31.000 Y81.673 E11.63834
G1 X29.975 Y82.698 E11.65969
G1 X29.543 Y82.698 E11.66606
G1 X29.250 Y82.991 E11.67216
G1 X29.250 Y103.340 E11.97191
G1 X29.543 Y103.633 E11.97801
G1 X85.457 Y103.633 E12.80165
G1 X85.750 Y103.340 E12.80775
G1 X85.750 Y82.991 E13.10750
G1 X85.457 Y82.698 E13.11360
G1 X85.025 Y82.698 E13.11997
G1 X84.000 Y81.673 E13.14132
G1 X84.000 Y75.893 E13.22646
G1 X85.025 Y74.867 E13.24782
G1 X88.719 Y74.867 E13.30223
G1 X89.531 Y75.336 E13.31605
G1 X90.202 Y76.499 E13.33581
G1 X90.434 Y76.633 E13.33976
G1 X91.425 Y76.633 E13.35435
G1 X92.397 Y77.605 E13.37461
G1 X91.950 Y77.865 F7800.000
G1 X91.950 Y113.900 E13.90542 F540.000
G1 X91.218 Y114.633 E13.92068
G1 X23.782 Y114.633 E14.91403
G1 X23.050 Y113.900 E14.92929
G1 X23.050 Y77.865 E15.46011
G1 X23.782 Y77.133 E15.47536
G1 X24.855 Y77.133 E15.49115
G1 X25.087 Y76.999 E15.49510
G1 X25.835 Y75.702 E15.51715
G1 X26.415 Y75.367 E15.52702
G1 X29.768 Y75.367 E15.57640
G1 X30.500 Y76.100 E15.59166
G1 X30.500 Y78.423 E15.62589
G1 X30.348 Y78.576 E15.62906
G1 X30.348 Y78.989 E15.63514
G1 X30.500 Y79.142 E15.63831
G1 X30.500 Y81.465 E15.67254
G1 X29.768 Y82.198 E15.68780
G1 X29.043 Y82.198 E15.69848
G1 X28.750 Y82.491 E15.70458
G1 X28.750 Y103.840 E16.01906
G1 X29.043 Y104.133 E16.02516
G1 X85.957 Y104.133 E16.86353
G1 X86.250 Y103.840 E16.86963
G1 X86.250 Y82.491 E17.18411
G1 X85.957 Y82.198 E17.19022
G1 X85.232 Y82.198 E17.20089
G1 X84.500 Y81.465 E17.21615
G1 X84.500 Y79.142 E17.25038
G1 X84.652 Y78.989 E17.25355
G1 X84.652 Y78.576 E17.25963
G1 X84.500 Y78.423 E17.26281
G1 X84.500 Y76.100 E17.29704
G1 X85.232 Y75.367 E17.31229
G1 X88.585 Y75.367 E17.36168
G1 X89.165 Y75.702 E17.37154
G1 X89.913 Y76.999 E17.39359
G1 X90.145 Y77.133 E17.39754
G1 X91.218 Y77.133 E17.41333
G1 X91.897 Y77.812 E17.42748
G1 X91.450 Y78.072 F7800.000
G1 X91.450 Y113.693 E17.95220 F540.000
G1 X91.011 Y114.133 E17.96135
G1 X23.989 Y114.133 E18.94860
G1 X23.550 Y113.693 E18.95776
G1 X23.550 Y78.072 E19.48247
G1 X23.989 Y77.633 E19.49163
G1 X25.143 Y77.633 E19.50862
G1 X25.375 Y77.499 E19.51257
G1 X26.201 Y76.068 E19.53690
G1 X26.549 Y75.867 E19.54282
G1 X29.561 Y75.867 E19.58718
G1 X30.000 Y76.307 E19.59633
G1 X30.000 Y78.217 E19.62447
G1 X29.643 Y78.576 E19.63193
G1 X29.643 Y78.989 E19.63801
G1 X30.000 Y79.348 E19.64547
G1 X30.000 Y81.258 E19.67361
G1 X29.561 Y81.698 E19.68277
G1 X28.543 Y81.698 E19.69776
G1 X28.250 Y81.991 E19.70386
G1 X28.250 Y104.340 E20.03307
G1 X28.543 Y104.633 E20.03917
G1 X86.457 Y104.633 E20.89228
G1 X86.750 Y104.340 E20.89838
G1 X86.750 Y81.991 E21.22759
G1 X86.457 Y81.698 E21.23369
G1 X85.439 Y81.698 E21.24868
G1 X85.000 Y81.258 E21.25783
G1 X85.000 Y79.348 E21.28597
G1 X85.357 Y78.989 E21.29344
G1 X85.357 Y78.576 E21.29952
G1 X85.000 Y78.217 E21.30698
G1 X85.000 Y76.307 E21.33512
G1 X85.439 Y75.867 E21.34427
G1 X88.451 Y75.867 E21.38863
G1 X88.799 Y76.068 E21.39455
G1 X89.625 Y77.499 E21.41888
G1 X89.857 Y77.633 E21.42283
G1 X91.011 Y77.633 E21.43982
G1 X91.397 Y78.019 E21.44787
G1 X90.950 Y78.279 F7800.000
G1 X90.950 Y113.486 E21.96649 F540.000
G1 X90.804 Y113.633 E21.96954
G1 X24.196 Y113.633 E22.95069
G1 X24.050 Y113.486 E22.95374
G1 X24.050 Y78.279 E23.47235
G1 X24.196 Y78.133 E23.47540
G1 X25.432 Y78.133 E23.49360
G1 X25.664 Y77.999 E23.49755
G1 X26.567 Y76.434 E23.52416
G1 X26.683 Y76.367 E23.52613
G1 X29.354 Y76.367 E23.56547
G1 X29.500 Y76.514 E23.56852
G1 X29.500 Y78.011 E23.59057
G1 X29.354 Y78.157 E23.59361
G1 X27.798 Y78.165 E23.61653
G1 X27.568 Y78.299 E23.62045
G1 X27.366 Y78.649 E23.62640
G1 X27.366 Y78.917 E23.63035
G1 X27.568 Y79.266 E23.63630
G1 X27.798 Y79.400 E23.64022
G1 X29.354 Y79.408 E23.66314
G1 X29.500 Y79.554 E23.66618
G1 X29.500 Y81.051 E23.68823
G1 X29.354 Y81.198 E23.69128
G1 X28.043 Y81.198 E23.71059
G1 X27.750 Y81.491 E23.71669
G1 X27.750 Y104.840 E24.06063
G1 X28.043 Y105.133 E24.06674
G1 X86.957 Y105.133 E24.93457
G1 X87.250 Y104.840 E24.94067
G1 X87.250 Y81.491 E25.28461
G1 X86.957 Y81.198 E25.29071
G1 X85.646 Y81.198 E25.31002
G1 X85.500 Y81.051 E25.31307
G1 X85.500 Y79.554 E25.33512
G1 X85.646 Y79.408 E25.33816
G1 X87.202 Y79.400 E25.36108
G1 X87.432 Y79.266 E25.36501
G1 X87.634 Y78.917 E25.37096
G1 X87.634 Y78.649 E25.37490
G1 X87.432 Y78.299 E25.38085
G1 X87.202 Y78.165 E25.38478
G1 X85.646 Y78.157 E25.40770
G1 X85.500 Y78.011 E25.41074
G1 X85.500 Y76.514 E25.43279
G1 X85.646 Y76.367 E25.43584
G1 X88.317 Y76.367 E25.47518
G1 X88.433 Y76.434 E25.47715
G1 X89.336 Y77.999 E25.50375
G1 X89.568 Y78.133 E25.50770
G1 X90.804 Y78.133 E25.52590
G1 X90.897 Y78.226 E25.52785
G1 F600.000 E24.52785
G92 E0
G1 X99.550 Y78.633 F7800.000
G1 E1.00000 F600.000
G1 X100.875 Y78.633 E1.01952 F378.000
G1 X101.894 Y76.867 E1.04954
G1 X104.000 Y76.867 E1.08056
G1 X104.000 Y77.658 E1.09220
G1 X102.356 Y77.667 E1.11642
G1 X101.711 Y78.783 E1.13540
G1 X102.356 Y79.899 E1.15439
G1 X104.000 Y79.908 E1.17861
G1 X104.000 Y80.698 E1.19025
G1 X102.250 Y80.698 E1.21603
G1 X102.250 Y105.633 E1.58333
