; generated by Slic3r 1.0.0RC3 on 2014-03-07 at 22:27:41

; layer_height = 0.25
; perimeters = 3
; top_solid_layers = 4
; bottom_solid_layers = 4
; fill_density = 0.4
; perimeter_speed = 30
; infill_speed = 60
; travel_speed = 130
; nozzle_diameter = 0.5
; filament_diameter = 2.94
; extrusion_multiplier = 1
; perimeters extrusion width = 0.50mm
; infill extrusion width = 0.84mm
; solid infill extrusion width = 0.84mm
; top infill extrusion width = 0.84mm
; support material extrusion width = 0.50mm

G21 ; set units to millimeters
M107
M190 S110 ; wait for bed temperature to be reached
M104 S220 ; set temperature
G28 ; home all axes
M109 S220 ; wait for temperature to be reached
G90 ; use absolute coordinates
G92 E0
M82 ; use absolute distances for extrusion
G1 F600.000 E-1.00000
G92 E0
G1 Z0.200 F7800.000
G1 X87.673 Y68.019 F7800.000
G1 E1.00000 F600.000
G1 X88.243 Y67.459 E1.01177 F540.000
G1 X90.563 Y65.469 E1.05679
G1 X91.643 Y64.739 E1.07600
G1 X92.853 Y64.289 E1.09501
G1 X94.143 Y64.139 E1.11414
G1 X95.823 Y64.139 E1.13889
G1 X97.113 Y64.289 E1.15802
G1 X98.323 Y64.739 E1.17704
G1 X99.403 Y65.469 E1.19624
G1 X101.723 Y67.459 E1.24126
G1 X102.293 Y68.019 E1.25303
G1 X102.773 Y68.659 E1.26482
G1 X114.313 Y86.659 E1.57978
G1 X114.683 Y87.339 E1.59118
G1 X114.963 Y88.069 E1.60270
G1 X115.553 Y90.069 E1.63342
G1 X115.693 Y90.679 E1.64263
G1 X116.043 Y92.679 E1.67254
G1 X116.123 Y93.599 E1.68615
G1 X116.053 Y94.519 E1.69974
G1 X115.233 Y99.519 E1.77437
G1 X114.963 Y100.539 E1.78992
G1 X114.503 Y101.489 E1.80546
G1 X104.153 Y118.489 E2.09864
G1 X103.683 Y119.139 E2.11046
G1 X101.193 Y122.139 E2.16789
G1 X100.333 Y122.979 E2.18560
G1 X99.303 Y123.609 E2.20338
G1 X98.163 Y123.999 E2.22113
G1 X96.963 Y124.129 E2.23891
G1 X93.053 Y124.129 E2.29650
G1 X91.873 Y123.999 E2.31399
G1 X90.753 Y123.629 E2.33137
G1 X89.743 Y123.019 E2.34875
G1 X88.873 Y122.209 E2.36626
G1 X86.303 Y119.209 E2.42445
G1 X85.773 Y118.479 E2.43774
G1 X75.483 Y101.479 E2.73045
G1 X75.033 Y100.519 E2.74607
G1 X74.763 Y99.499 E2.76161
G1 X73.963 Y94.499 E2.83620
G1 X73.893 Y93.619 E2.84921
G1 X73.963 Y92.729 E2.86236
G1 X74.293 Y90.729 E2.89222
G1 X74.443 Y90.069 E2.90219
G1 X75.033 Y88.069 E2.93290
G1 X75.313 Y87.349 E2.94428
G1 X75.683 Y86.669 E2.95569
G1 X87.193 Y68.669 E3.27041
G1 X87.628 Y68.079 E3.28121
G1 F600.000 E2.28121
G92 E0
G1 X89.701 Y69.461 F7800.000
G1 E1.00000 F600.000
G1 X90.155 Y69.144 E1.00815 F540.000
G1 X90.202 Y69.076 E1.00938
G1 X92.412 Y67.172 E1.05234
G1 X92.834 Y66.923 E1.05956
G1 X93.378 Y66.721 E1.06811
G1 X93.860 Y66.635 E1.07533
G1 X97.218 Y66.635 E1.12479
G1 X98.951 Y68.366 E1.16087
G1 X100.890 Y70.040 E1.19861
G1 X101.074 Y70.758 E1.20952
G1 X101.140 Y70.874 E1.21150
G1 X101.512 Y71.245 E1.21923
G1 X101.512 Y73.313 E1.24969
G1 X101.532 Y73.411 E1.25116
G1 X102.045 Y74.629 E1.27063
G1 X102.099 Y74.709 E1.27206
G1 X102.635 Y75.245 E1.28322
G1 X102.635 Y78.024 E1.32415
G1 X101.707 Y78.952 E1.34349
G1 X101.682 Y79.328 E1.34903
G1 X101.858 Y79.557 E1.35328
G1 X102.011 Y81.119 E1.37641
G1 X101.856 Y81.433 E1.38156
G1 X101.876 Y81.706 E1.38559
G1 X102.273 Y82.273 E1.39578
G1 X102.897 Y84.368 E1.42799
G1 X102.946 Y84.464 E1.42957
G1 X103.500 Y87.079 E1.46896
G1 X104.070 Y87.249 E1.47772
G1 X104.684 Y86.635 E1.49052
G1 X110.229 Y86.635 E1.57219
G1 X111.085 Y86.923 E1.58550
G1 X111.937 Y87.573 E1.60129
G1 X112.443 Y88.322 E1.61460
G1 X112.978 Y90.268 E1.64433
G1 X113.169 Y90.633 E1.65040
G1 X113.344 Y91.886 E1.66904
G1 X113.417 Y92.032 E1.67144
G1 X113.630 Y92.245 E1.67588
G1 X113.630 Y95.024 E1.71680
G1 X113.333 Y95.320 E1.72298
G1 X113.260 Y95.471 E1.72544
G1 X113.095 Y96.708 E1.74384
G1 X113.095 Y98.024 E1.76321
G1 X112.891 Y98.227 E1.76745
G1 X112.815 Y98.408 E1.77035
G1 X112.806 Y99.311 E1.78365
G1 X112.382 Y100.312 E1.79966
G1 X111.464 Y101.221 E1.81869
G1 X110.459 Y101.635 E1.83470
G1 X107.984 Y101.635 E1.87116
G1 X107.800 Y101.711 E1.87409
G1 X107.295 Y102.216 E1.88462
G1 X106.284 Y102.635 E1.90073
G1 X105.359 Y102.635 E1.91435
G1 X105.201 Y102.689 E1.91682
G1 X104.556 Y103.195 E1.92890
G1 X104.455 Y103.402 E1.93229
G1 X104.455 Y104.024 E1.94144
G1 X104.127 Y104.351 E1.94827
G1 X104.051 Y104.535 E1.95120
G1 X104.051 Y105.658 E1.96774
G1 X104.184 Y107.032 E1.98807
G1 X104.259 Y107.192 E1.99067
G1 X104.313 Y107.245 E1.99179
G1 X104.313 Y110.024 E2.03271
G1 X102.702 Y111.635 E2.06627
G1 X101.521 Y111.635 E2.08367
G1 X101.270 Y112.263 E2.09364
G1 X101.933 Y112.895 E2.10714
G1 X102.374 Y113.857 E2.12273
G1 X102.489 Y116.157 E2.15665
G1 X102.096 Y117.216 E2.17329
G1 X101.169 Y118.189 E2.19309
G1 X100.135 Y118.633 E2.20966
G1 X99.970 Y118.883 E2.21408
G1 X99.970 Y120.024 E2.23088
G1 X98.359 Y121.635 E2.26443
G1 X92.443 Y121.635 E2.35158
G1 X91.477 Y121.257 E2.36686
G1 X90.572 Y120.421 E2.38501
G1 X90.118 Y119.489 E2.40028
G1 X90.071 Y118.898 E2.40902
G1 X89.908 Y118.672 E2.41312
G1 X88.783 Y118.190 E2.43115
G1 X87.857 Y117.217 E2.45094
G1 X87.463 Y116.158 E2.46757
G1 X87.576 Y113.859 E2.50149
G1 X88.017 Y112.896 E2.51708
G1 X88.682 Y112.263 E2.53060
G1 X88.430 Y111.635 E2.54058
G1 X87.995 Y111.635 E2.54698
G1 X86.937 Y111.169 E2.56402
G1 X86.007 Y110.153 E2.58430
G1 X85.635 Y109.058 E2.60134
G1 X86.013 Y104.761 E2.66487
G1 X86.062 Y104.661 E2.66652
G1 X86.033 Y104.375 E2.67075
G1 X85.860 Y104.154 E2.67489
G1 X85.627 Y103.531 E2.68468
G1 X85.569 Y103.441 E2.68626
G1 X84.839 Y102.711 E2.70147
G1 X84.655 Y102.635 E2.70440
G1 X82.986 Y102.635 E2.72898
G1 X82.063 Y101.711 E2.74823
G1 X81.879 Y101.635 E2.75116
G1 X79.551 Y101.635 E2.78545
G1 X78.546 Y101.221 E2.80145
G1 X77.628 Y100.312 E2.82049
G1 X77.204 Y99.312 E2.83649
G1 X77.190 Y97.999 E2.85584
G1 X77.161 Y97.883 E2.85759
G1 X77.008 Y97.592 E2.86244
G1 X76.715 Y95.214 E2.89773
G1 X76.286 Y93.718 E2.92065
G1 X76.523 Y92.445 E2.93973
G1 X76.613 Y92.272 E2.94261
G1 X76.839 Y90.637 E2.96691
G1 X77.029 Y90.273 E2.97297
G1 X77.567 Y88.321 E3.00278
G1 X78.072 Y87.573 E3.01608
G1 X78.925 Y86.923 E3.03187
G1 X79.781 Y86.635 E3.04518
G1 X85.325 Y86.635 E3.12685
G1 X85.912 Y87.222 E3.13908
G1 X86.482 Y87.052 E3.14784
G1 X87.031 Y84.464 E3.18682
G1 X87.093 Y84.362 E3.18857
G1 X87.130 Y84.229 E3.19061
G1 X87.130 Y83.245 E3.20510
G1 X87.352 Y83.024 E3.20972
G1 X87.428 Y82.840 E3.21265
G1 X87.428 Y82.245 E3.22141
G1 X88.085 Y81.589 E3.23509
G1 X88.155 Y81.331 E3.23902
G1 X87.978 Y80.665 E3.24917
G1 X88.231 Y79.410 E3.26803
G1 X88.288 Y79.336 E3.26940
G1 X88.299 Y79.015 E3.27413
G1 X87.363 Y77.606 E3.29905
G1 X87.235 Y76.229 E3.31941
G1 X88.459 Y73.327 E3.36581
G1 X88.476 Y73.195 E3.36777
G1 X88.368 Y72.355 E3.38025
G1 X89.185 Y70.130 E3.41517
G1 X89.655 Y69.520 E3.42650
G1 X90.050 Y69.827 F7800.000
G1 X90.593 Y69.448 E3.43625 F540.000
G1 X90.677 Y69.327 E3.43844
G1 X92.705 Y67.580 E3.47785
G1 X93.050 Y67.376 E3.48376
G1 X93.510 Y67.205 E3.49099
G1 X93.905 Y67.135 E3.49690
G1 X97.011 Y67.135 E3.54265
G1 X98.398 Y68.522 E3.57156
G1 X98.420 Y68.568 E3.57231
G1 X100.444 Y70.316 E3.61171
G1 X100.624 Y71.014 E3.62232
G1 X100.690 Y71.131 E3.62430
G1 X101.012 Y71.453 E3.63100
G1 X101.012 Y73.414 E3.65990
G1 X101.032 Y73.512 E3.66137
G1 X101.623 Y74.913 E3.68377
G1 X101.677 Y74.994 E3.68520
G1 X102.135 Y75.453 E3.69475
G1 X102.135 Y77.816 E3.72958
G1 X101.043 Y78.908 E3.75232
G1 X101.019 Y79.284 E3.75787
G1 X101.374 Y79.747 E3.76647
G1 X101.499 Y81.026 E3.78539
G1 X101.276 Y81.477 E3.79279
G1 X101.297 Y81.749 E3.79683
G1 X101.817 Y82.493 E3.81018
G1 X102.436 Y84.574 E3.84216
G1 X102.474 Y84.652 E3.84344
G1 X102.915 Y86.731 E3.87475
G1 X102.818 Y87.131 E3.88081
G1 X102.854 Y87.334 E3.88385
G1 X103.296 Y88.014 E3.89580
G1 X103.519 Y88.135 E3.89953
G1 X103.784 Y88.135 E3.90343
G1 X103.968 Y88.058 E3.90636
G1 X104.891 Y87.135 E3.92561
G1 X110.147 Y87.135 E4.00302
G1 X110.847 Y87.371 E4.01390
G1 X111.569 Y87.921 E4.02728
G1 X111.983 Y88.534 E4.03817
G1 X112.511 Y90.456 E4.06753
G1 X112.686 Y90.792 E4.07311
G1 X112.872 Y92.122 E4.09289
G1 X112.945 Y92.268 E4.09529
G1 X113.130 Y92.453 E4.09914
G1 X113.130 Y94.816 E4.13397
G1 X112.858 Y95.088 E4.13963
G1 X112.785 Y95.239 E4.14210
G1 X112.637 Y96.442 E4.15995
G1 X112.595 Y96.585 E4.16215
G1 X112.595 Y97.816 E4.18029
G1 X112.393 Y98.018 E4.18449
G1 X112.317 Y98.199 E4.18738
G1 X112.307 Y99.207 E4.20224
G1 X111.960 Y100.026 E4.21533
G1 X111.182 Y100.796 E4.23146
G1 X110.360 Y101.135 E4.24455
G1 X107.777 Y101.135 E4.28261
G1 X107.593 Y101.211 E4.28554
G1 X107.011 Y101.792 E4.29765
G1 X106.184 Y102.135 E4.31084
G1 X105.187 Y102.135 E4.32553
G1 X105.028 Y102.189 E4.32800
G1 X104.056 Y102.952 E4.34621
G1 X103.955 Y103.159 E4.34960
G1 X103.955 Y103.816 E4.35929
G1 X103.627 Y104.144 E4.36611
G1 X103.551 Y104.328 E4.36904
G1 X103.551 Y105.775 E4.39036
G1 X103.584 Y105.900 E4.39226
G1 X103.702 Y107.257 E4.41232
G1 X103.777 Y107.416 E4.41492
G1 X103.813 Y107.453 E4.41567
G1 X103.813 Y109.816 E4.45049
G1 X102.495 Y111.135 E4.47795
G1 X100.879 Y111.135 E4.50175
G1 X100.581 Y111.467 E4.50833
G1 X100.634 Y111.951 E4.51550
G1 X100.588 Y112.093 E4.51771
G1 X100.659 Y112.373 E4.52195
G1 X101.519 Y113.191 E4.53943
G1 X101.880 Y113.978 E4.55219
G1 X101.984 Y116.079 E4.58318
G1 X101.663 Y116.945 E4.59679
G1 X100.878 Y117.770 E4.61356
G1 X100.028 Y118.135 E4.62718
G1 X99.763 Y118.135 E4.63108
G1 X99.470 Y118.427 E4.63719
G1 X99.470 Y119.816 E4.65765
G1 X98.152 Y121.135 E4.68510
G1 X92.537 Y121.135 E4.76782
G1 X91.747 Y120.826 E4.78031
G1 X90.980 Y120.118 E4.79568
G1 X90.609 Y119.355 E4.80818
G1 X90.532 Y118.400 E4.82230
G1 X90.245 Y118.135 E4.82806
G1 X89.924 Y118.135 E4.83279
G1 X89.074 Y117.771 E4.84640
G1 X88.290 Y116.946 E4.86317
G1 X87.968 Y116.080 E4.87677
G1 X88.071 Y113.979 E4.90776
G1 X88.432 Y113.192 E4.92052
G1 X89.204 Y112.456 E4.93623
G1 X89.424 Y112.368 E4.93972
G1 X89.592 Y112.016 E4.94547
G1 X89.506 Y111.734 E4.94981
G1 X89.548 Y111.490 E4.95347
G1 X89.248 Y111.135 E4.96032
G1 X88.101 Y111.135 E4.97722
G1 X87.234 Y110.753 E4.99116
G1 X86.446 Y109.893 E5.00835
G1 X86.142 Y108.997 E5.02229
G1 X86.502 Y104.898 E5.08289
G1 X86.649 Y104.601 E5.08777
G1 X86.620 Y104.315 E5.09201
G1 X86.302 Y103.907 E5.09964
G1 X86.057 Y103.254 E5.10990
G1 X85.999 Y103.164 E5.11148
G1 X85.046 Y102.211 E5.13134
G1 X84.862 Y102.135 E5.13427
G1 X83.193 Y102.135 E5.15885
G1 X82.270 Y101.211 E5.17810
G1 X82.086 Y101.135 E5.18103
G1 X79.650 Y101.135 E5.21691
G1 X78.828 Y100.796 E5.23000
G1 X78.050 Y100.027 E5.24613
G1 X77.703 Y99.208 E5.25922
G1 X77.689 Y97.873 E5.27889
G1 X77.660 Y97.758 E5.28064
G1 X77.493 Y97.441 E5.28592
G1 X77.234 Y95.314 E5.31747
G1 X77.235 Y95.214 E5.31895
G1 X76.800 Y93.694 E5.34224
G1 X76.993 Y92.652 E5.35785
G1 X77.042 Y92.587 E5.35905
G1 X77.091 Y92.469 E5.36093
G1 X77.322 Y90.796 E5.38581
G1 X77.496 Y90.460 E5.39138
G1 X78.027 Y88.533 E5.42082
G1 X78.440 Y87.921 E5.43171
G1 X79.163 Y87.371 E5.44508
G1 X79.863 Y87.135 E5.45596
G1 X85.118 Y87.135 E5.53337
G1 X86.042 Y88.058 E5.55262
G1 X86.225 Y88.135 E5.55555
G1 X86.457 Y88.135 E5.55896
G1 X86.680 Y88.014 E5.56269
G1 X87.123 Y87.334 E5.57464
G1 X87.158 Y87.131 E5.57768
G1 X87.062 Y86.731 E5.58374
G1 X87.502 Y84.651 E5.61506
G1 X87.593 Y84.503 E5.61762
G1 X87.630 Y84.370 E5.61965
G1 X87.630 Y83.453 E5.63317
G1 X87.852 Y83.231 E5.63779
G1 X87.928 Y83.047 E5.64072
G1 X87.928 Y82.453 E5.64947
G1 X88.642 Y81.739 E5.66434
G1 X88.712 Y81.481 E5.66828
G1 X88.491 Y80.650 E5.68095
G1 X88.698 Y79.622 E5.69638
G1 X89.015 Y79.210 E5.70404
G1 X88.918 Y78.758 E5.71085
G1 X88.623 Y78.600 E5.71578
G1 X87.850 Y77.434 E5.73639
G1 X87.744 Y76.308 E5.75305
G1 X88.972 Y73.397 E5.79959
G1 X88.990 Y73.265 E5.80155
G1 X88.879 Y72.412 E5.81421
G1 X89.628 Y70.374 E5.84620
G1 X90.004 Y69.887 E5.85527
G1 X90.399 Y70.193 F7800.000
G1 X91.031 Y69.752 E5.86662 F540.000
G1 X91.137 Y69.591 E5.86946
G1 X92.997 Y67.988 E5.90563
G1 X93.266 Y67.830 E5.91023
G1 X93.642 Y67.690 E5.91615
G1 X93.950 Y67.635 E5.92074
G1 X96.804 Y67.635 E5.96279
G1 X97.840 Y68.671 E5.98437
G1 X97.960 Y68.882 E5.98795
G1 X98.142 Y68.989 E5.99106
G1 X99.999 Y70.593 E6.02720
G1 X100.173 Y71.271 E6.03752
G1 X100.240 Y71.388 E6.03950
G1 X100.512 Y71.660 E6.04516
G1 X100.512 Y73.515 E6.07250
G1 X100.532 Y73.614 E6.07397
G1 X101.200 Y75.198 E6.09930
G1 X101.254 Y75.278 E6.10073
G1 X101.635 Y75.660 E6.10867
G1 X101.635 Y77.609 E6.13740
G1 X100.380 Y78.865 E6.16355
G1 X100.355 Y79.240 E6.16909
G1 X100.890 Y79.938 E6.18204
G1 X100.987 Y80.932 E6.19676
G1 X100.630 Y81.657 E6.20867
G1 X100.714 Y82.009 E6.21400
G1 X101.037 Y82.250 E6.21992
G1 X101.360 Y82.713 E6.22825
G1 X101.922 Y84.598 E6.25723
G1 X101.952 Y84.756 E6.25959
G1 X102.003 Y84.839 E6.26103
G1 X102.402 Y86.724 E6.28941
G1 X102.282 Y87.223 E6.29698
G1 X102.317 Y87.427 E6.30001
G1 X103.026 Y88.514 E6.31913
G1 X103.248 Y88.635 E6.32286
G1 X103.991 Y88.635 E6.33380
G1 X104.175 Y88.558 E6.33673
G1 X105.099 Y87.635 E6.35597
G1 X110.064 Y87.635 E6.42912
G1 X110.609 Y87.818 E6.43759
G1 X111.201 Y88.269 E6.44855
G1 X111.522 Y88.746 E6.45702
G1 X112.045 Y90.644 E6.48602
G1 X112.204 Y90.951 E6.49111
G1 X112.400 Y92.357 E6.51202
G1 X112.473 Y92.503 E6.51442
G1 X112.630 Y92.660 E6.51769
G1 X112.630 Y94.609 E6.54641
G1 X112.383 Y94.857 E6.55156
G1 X112.309 Y95.007 E6.55403
G1 X112.152 Y96.290 E6.57307
G1 X112.095 Y96.462 E6.57573
G1 X112.095 Y97.609 E6.59264
G1 X111.895 Y97.809 E6.59680
G1 X111.819 Y97.990 E6.59969
G1 X111.808 Y99.104 E6.61610
G1 X111.538 Y99.740 E6.62628
G1 X110.901 Y100.372 E6.63950
G1 X110.261 Y100.635 E6.64968
G1 X107.570 Y100.635 E6.68933
G1 X107.386 Y100.711 E6.69226
G1 X106.728 Y101.368 E6.70596
G1 X106.085 Y101.635 E6.71621
G1 X104.883 Y101.635 E6.73393
G1 X104.611 Y101.847 E6.73901
G1 X104.601 Y101.889 E6.73964
G1 X103.556 Y102.708 E6.75920
G1 X103.455 Y102.915 E6.76260
G1 X103.455 Y103.609 E6.77282
G1 X102.935 Y104.129 E6.78365
G1 X102.935 Y104.543 E6.78975
G1 X103.051 Y104.660 E6.79217
G1 X103.051 Y105.891 E6.81031
G1 X103.094 Y106.037 E6.81255
G1 X103.220 Y107.481 E6.83391
G1 X103.313 Y107.660 E6.83687
G1 X103.313 Y109.609 E6.86559
G1 X102.288 Y110.635 E6.88694
G1 X100.321 Y110.635 E6.91591
G1 X100.023 Y110.967 E6.92248
G1 X100.125 Y111.899 E6.93630
G1 X99.966 Y112.393 E6.94394
G1 X100.134 Y112.750 E6.94974
G1 X100.472 Y112.885 E6.95510
G1 X101.104 Y113.487 E6.96797
G1 X101.385 Y114.099 E6.97789
G1 X101.480 Y116.001 E7.00595
G1 X101.230 Y116.675 E7.01653
G1 X100.586 Y117.351 E7.03028
G1 X99.926 Y117.635 E7.04087
G1 X99.350 Y117.635 E7.04936
G1 X99.069 Y117.875 E7.05480
G1 X98.970 Y118.525 E7.06449
G1 X98.970 Y119.609 E7.08046
G1 X97.945 Y120.635 E7.10182
G1 X92.632 Y120.635 E7.18009
G1 X92.017 Y120.394 E7.18981
G1 X91.389 Y119.814 E7.20240
G1 X91.100 Y119.221 E7.21212
G1 X90.993 Y117.900 E7.23165
G1 X90.706 Y117.635 E7.23741
G1 X90.026 Y117.635 E7.24743
G1 X89.366 Y117.351 E7.25801
G1 X88.722 Y116.676 E7.27175
G1 X88.472 Y116.002 E7.28234
G1 X88.565 Y114.100 E7.31039
G1 X88.846 Y113.487 E7.32032
G1 X89.479 Y112.885 E7.33319
G1 X90.037 Y112.662 E7.34204
G1 X90.205 Y112.310 E7.34779
G1 X90.019 Y111.702 E7.35716
G1 X90.066 Y111.425 E7.36130
G1 X90.053 Y111.290 E7.36329
G1 X89.868 Y110.810 E7.37087
G1 X89.612 Y110.635 E7.37544
G1 X88.206 Y110.635 E7.39616
G1 X87.532 Y110.338 E7.40700
G1 X86.886 Y109.633 E7.42109
G1 X86.650 Y108.936 E7.43193
G1 X86.992 Y105.036 E7.48960
G1 X87.255 Y104.504 E7.49834
G1 X87.162 Y104.144 E7.50381
G1 X87.071 Y104.081 E7.50543
G1 X86.743 Y103.660 E7.51330
G1 X86.426 Y102.813 E7.52663
G1 X86.195 Y102.653 E7.53076
G1 X85.253 Y101.711 E7.55039
G1 X85.069 Y101.635 E7.55332
G1 X83.401 Y101.635 E7.57790
G1 X82.477 Y100.711 E7.59714
G1 X82.293 Y100.635 E7.60007
G1 X79.749 Y100.635 E7.63755
G1 X79.109 Y100.372 E7.64774
G1 X78.471 Y99.741 E7.66095
G1 X78.202 Y99.104 E7.67114
G1 X78.188 Y97.747 E7.69113
G1 X78.159 Y97.632 E7.69288
G1 X77.979 Y97.289 E7.69858
G1 X77.747 Y95.392 E7.72673
G1 X77.757 Y95.220 E7.72927
G1 X77.313 Y93.669 E7.75303
G1 X77.463 Y92.859 E7.76517
G1 X77.519 Y92.784 E7.76655
G1 X77.568 Y92.666 E7.76843
G1 X77.805 Y90.954 E7.79390
G1 X77.963 Y90.648 E7.79897
G1 X78.487 Y88.745 E7.82804
G1 X78.809 Y88.269 E7.83651
G1 X79.400 Y87.818 E7.84746
