; generated by Slic3r 0.9.9 on 2014-02-01 at 14:15:13

; layer_height = 0.1
; perimeters = 3
; top_solid_layers = 6
; bottom_solid_layers = 3
; fill_density = 0.4
; perimeter_speed = 30
; infill_speed = 60
; travel_speed = 130
; nozzle_diameter = 0.5
; filament_diameter = 2.94
; extrusion_multiplier = 1
; perimeters extrusion width = 0.85mm
; infill extrusion width = 1.98mm
; solid infill extrusion width = 0.85mm
; top infill extrusion width = 0.85mm
; first layer extrusion width = 0.60mm

G21 ; set units to millimeters
M190 S120 ; wait for bed temperature to be reached
M104 S195 ; set temperature
G28 ; home all axes
M109 S195 ; wait for temperature to be reached
G90 ; use absolute coordinates
G92 E0
M82 ; use absolute distances for extrusion
M106 S89
G1 F1800.000 E-1.25000
G92 E0
G1 Z0.300 F7800.000
G1 X76.330 Y76.540
G1 F1800.000 E1.25000
G1 X76.760 Y76.120 F540.000 E1.26537
G1 X77.220 Y75.740 E1.28062
G1 X77.700 Y75.390 E1.29581
G1 X78.210 Y75.070 E1.31120
G1 X79.010 Y74.660 E1.33419
G1 X79.850 Y74.340 E1.35717
G1 X80.140 Y74.250 E1.36493
G1 X80.720 Y74.110 E1.38018
G1 X81.310 Y74.000 E1.39553
G1 X81.900 Y73.940 E1.41069
G1 X82.500 Y73.920 E1.42604
G1 X107.500 Y73.920 E2.06520
G1 X108.100 Y73.940 E2.08055
G1 X108.690 Y74.000 E2.09571
G1 X109.580 Y74.180 E2.11892
G1 X110.150 Y74.340 E2.13406
G1 X110.990 Y74.660 E2.15704
G1 X111.530 Y74.930 E2.17248
G1 X112.050 Y75.220 E2.18770
G1 X112.780 Y75.740 E2.21061
G1 X113.240 Y76.120 E2.22587
G1 X113.460 Y76.330 E2.23364
G1 X113.880 Y76.760 E2.24901
G1 X114.260 Y77.220 E2.26427
G1 X114.610 Y77.700 E2.27945
G1 X114.930 Y78.210 E2.29485
G1 X115.340 Y79.010 E2.31783
G1 X115.660 Y79.850 E2.34081
G1 X115.750 Y80.140 E2.34857
G1 X115.890 Y80.720 E2.36383
G1 X116.000 Y81.310 E2.37917
G1 X116.060 Y81.900 E2.39433
G1 X116.080 Y82.500 E2.40968
G1 X116.080 Y107.500 E3.04884
G1 X116.060 Y108.100 E3.06419
G1 X116.000 Y108.690 E3.07935
G1 X115.820 Y109.580 E3.10257
G1 X115.660 Y110.150 E3.11770
G1 X115.340 Y110.990 E3.14069
G1 X115.070 Y111.530 E3.15612
G1 X114.780 Y112.050 E3.17134
G1 X114.260 Y112.780 E3.19426
G1 X113.880 Y113.240 E3.20951
G1 X113.670 Y113.460 E3.21729
G1 X113.240 Y113.880 E3.23266
G1 X112.780 Y114.260 E3.24791
G1 X112.300 Y114.610 E3.26310
G1 X111.790 Y114.930 E3.27849
G1 X110.990 Y115.340 E3.30147
G1 X110.150 Y115.660 E3.32446
G1 X109.860 Y115.750 E3.33222
G1 X109.280 Y115.890 E3.34747
G1 X108.690 Y116.000 E3.36282
G1 X108.100 Y116.060 E3.37798
G1 X107.500 Y116.080 E3.39333
G1 X82.500 Y116.080 E4.03249
G1 X81.900 Y116.060 E4.04784
G1 X81.310 Y116.000 E4.06300
G1 X80.420 Y115.820 E4.08621
G1 X79.850 Y115.660 E4.10135
G1 X79.010 Y115.340 E4.12433
G1 X78.470 Y115.070 E4.13977
G1 X77.950 Y114.780 E4.15499
G1 X77.220 Y114.260 E4.17790
G1 X76.760 Y113.880 E4.19316
G1 X76.540 Y113.670 E4.20093
G1 X76.120 Y113.240 E4.21630
G1 X75.740 Y112.780 E4.23155
G1 X75.390 Y112.300 E4.24674
G1 X75.070 Y111.790 E4.26214
G1 X74.660 Y110.990 E4.28512
G1 X74.340 Y110.150 E4.30810
G1 X74.250 Y109.860 E4.31586
G1 X74.110 Y109.280 E4.33112
G1 X74.000 Y108.690 E4.34646
G1 X73.940 Y108.100 E4.36162
G1 X73.920 Y107.500 E4.37697
G1 X73.920 Y82.500 E5.01613
G1 X73.940 Y81.900 E5.03148
G1 X74.000 Y81.310 E5.04664
G1 X74.180 Y80.420 E5.06986
G1 X74.340 Y79.850 E5.08499
G1 X74.660 Y79.010 E5.10797
G1 X74.930 Y78.470 E5.12341
G1 X75.220 Y77.950 E5.13863
G1 X75.740 Y77.220 E5.16155
G1 X76.270 Y76.603 E5.18235
G1 F1800.000 E3.93235
G92 E0
G1 X78.739 Y80.942 F7800.000
G1 F1800.000 E1.25000
G1 X80.942 Y78.739 F540.000 E1.32965
G1 X109.058 Y78.739 E2.04846
G1 X111.261 Y80.942 E2.12810
G1 X111.261 Y109.058 E2.84691
G1 X109.058 Y111.261 E2.92656
G1 X80.942 Y111.261 E3.64537
G1 X78.739 Y109.058 E3.72501
G1 X78.739 Y81.029 E4.44160
G1 X79.318 Y81.182 F7800.000
G1 X81.182 Y79.318 F540.000 E4.50900
G1 X108.818 Y79.318 E5.21555
G1 X110.682 Y81.182 E5.28294
G1 X110.682 Y108.818 E5.98950
G1 X108.818 Y110.682 E6.05689
G1 X81.182 Y110.682 E6.76345
G1 X79.318 Y108.818 E6.83084
G1 X79.318 Y81.269 E7.53518
G1 X79.897 Y81.422 F7800.000
G1 X81.422 Y79.897 F540.000 E7.59032
G1 X108.578 Y79.897 E8.28462
G1 X110.103 Y81.422 E8.33976
G1 X110.103 Y108.578 E9.03406
G1 X108.578 Y110.103 E9.08920
G1 X81.422 Y110.103 E9.78350
G1 X79.897 Y108.578 E9.83864
G1 X79.897 Y81.508 E10.53072
G1 X80.475 Y81.661 F7800.000
G1 X81.661 Y80.475 F540.000 E10.57361
G1 X108.339 Y80.475 E11.25566
G1 X109.525 Y81.661 E11.29854
G1 X109.525 Y108.339 E11.98059
G1 X108.339 Y109.525 E12.02348
G1 X81.661 Y109.525 E12.70553
G1 X80.475 Y108.339 E12.74841
G1 X80.475 Y81.748 E13.42824
G1 X81.054 Y81.901 F7800.000
G1 X81.901 Y81.054 F540.000 E13.45888
G1 X108.099 Y81.054 E14.12867
G1 X108.946 Y81.901 E14.15930
G1 X108.946 Y108.099 E14.82910
G1 X108.099 Y108.946 E14.85973
G1 X81.901 Y108.946 E15.52952
G1 X81.054 Y108.099 E15.56016
G1 X81.054 Y81.988 E16.22773
G1 X81.632 Y82.141 F7800.000
G1 X82.141 Y81.632 F540.000 E16.24611
G1 X107.859 Y81.632 E16.90365
G1 X108.368 Y82.141 E16.92203
G1 X108.368 Y107.859 E17.57958
G1 X107.859 Y108.368 E17.59796
G1 X82.141 Y108.368 E18.25550
G1 X81.632 Y107.859 E18.27388
G1 X81.632 Y82.227 E18.92920
G1 X82.211 Y82.380 F7800.000
G1 X82.380 Y82.211 F540.000 E18.93532
G1 X107.620 Y82.211 E19.58061
G1 X107.789 Y82.380 E19.58674
G1 X107.789 Y107.620 E20.23203
G1 X107.620 Y107.789 E20.23815
G1 X82.380 Y107.789 E20.88344
G1 X82.211 Y107.620 E20.88957
G1 X82.211 Y82.467 E21.53263
G1 X82.789 Y82.789 F7800.000
G1 X107.211 Y82.789 F378.000 E22.15700
G1 X107.211 Y107.211 E22.78137
G1 X82.789 Y107.211 E23.40574
G1 X82.789 Y82.876 E24.02789
G1 X83.290 Y83.079 F7800.000
G1 X83.368 Y83.368
G1 X106.632 Y83.368 F540.000 E24.62268
G1 X106.632 Y106.632 E25.21747
G1 X83.368 Y106.632 E25.81225
G1 X83.368 Y83.455 E26.40482
G1 X106.054 Y106.054 F7800.000
G1 X83.946 Y106.054 F540.000 E26.97003
G1 X83.946 Y83.946 E27.53523
G1 X106.054 Y83.946 E28.10044
G1 X106.054 Y105.967 E28.66342
G1 X105.634 Y84.366 F7800.000
G1 X104.800 Y84.366 F1080.000 E28.68516
G1 X105.634 Y85.200 E28.71591
G1 X105.634 Y86.034 E28.73765
G1 X103.966 Y84.366 E28.79914
G1 X103.132 Y84.366 E28.82088
G1 X105.634 Y86.868 E28.91311
G1 X105.634 Y87.702 E28.93484
G1 X102.298 Y84.366 E29.05782
G1 X101.464 Y84.366 E29.07955
G1 X105.634 Y88.536 E29.23327
G1 X105.634 Y89.370 E29.25501
G1 X100.630 Y84.366 E29.43946
G1 X99.796 Y84.366 E29.46120
G1 X105.634 Y90.204 E29.67640
G1 X105.634 Y91.038 E29.69814
G1 X98.962 Y84.366 E29.94408
G1 X98.128 Y84.366 E29.96581
G1 X105.634 Y91.872 E30.24250
G1 X105.634 Y92.706 E30.26423
G1 X97.294 Y84.366 E30.57166
G1 X96.460 Y84.366 E30.59340
G1 X105.634 Y93.540 E30.93156
G1 X105.634 Y94.375 E30.95330
G1 X95.625 Y84.366 E31.32221
G1 X94.791 Y84.366 E31.34394
G1 X105.634 Y95.209 E31.74359
G1 X105.634 Y96.043 E31.76533
G1 X93.957 Y84.366 E32.19572
G1 X93.123 Y84.366 E32.21746
G1 X105.634 Y96.877 E32.67859
G1 X105.634 Y97.711 E32.70033
G1 X92.289 Y84.366 E33.19220
G1 X91.455 Y84.366 E33.21394
G1 X105.634 Y98.545 E33.73656
G1 X105.634 Y99.379 E33.75830
G1 X90.621 Y84.366 E34.31165
G1 X89.787 Y84.366 E34.33339
G1 X105.634 Y100.213 E34.91749
G1 X105.634 Y101.047 E34.93923
G1 X88.953 Y84.366 E35.55407
G1 X88.119 Y84.366 E35.57581
G1 X105.634 Y101.881 E36.22139
G1 X105.634 Y102.715 E36.24313
G1 X87.285 Y84.366 E36.91946
G1 X86.451 Y84.366 E36.94119
G1 X105.634 Y103.549 E37.64826
G1 X105.634 Y104.383 E37.67000
G1 X85.617 Y84.366 E38.40781
G1 X84.783 Y84.366 E38.42954
G1 X105.634 Y105.217 E39.19810
G1 X105.217 Y105.634 E39.21347
G1 X84.366 Y84.783 E39.98202
G1 X84.366 Y85.617 E40.00376
G1 X104.383 Y105.634 E40.74157
G1 X103.549 Y105.634 E40.76331
G1 X84.366 Y86.451 E41.47038
G1 X84.366 Y87.285 E41.49211
G1 X102.715 Y105.634 E42.16844
G1 X101.881 Y105.634 E42.19018
G1 X84.366 Y88.119 E42.83576
G1 X84.366 Y88.953 E42.85750
G1 X101.047 Y105.634 E43.47235
G1 X100.213 Y105.634 E43.49408
G1 X84.366 Y89.787 E44.07819
G1 X84.366 Y90.621 E44.09992
G1 X99.379 Y105.634 E44.65328
G1 X98.545 Y105.634 E44.67502
G1 X84.366 Y91.455 E45.19764
G1 X84.366 Y92.289 E45.21938
G1 X97.711 Y105.634 E45.71125
G1 X96.877 Y105.634 E45.73299
G1 X84.366 Y93.123 E46.19413
G1 X84.366 Y93.957 E46.21586
G1 X96.043 Y105.634 E46.64626
G1 X95.209 Y105.634 E46.66799
G1 X84.366 Y94.791 E47.06765
G1 X84.366 Y95.625 E47.08938
G1 X94.375 Y105.634 E47.45829
G1 X93.541 Y105.634 E47.48003
G1 X84.366 Y96.459 E47.81820
G1 X84.366 Y97.294 E47.83994
G1 X92.706 Y105.634 E48.14736
G1 X91.872 Y105.634 E48.16910
G1 X84.366 Y98.128 E48.44578
G1 X84.366 Y98.962 E48.46752
G1 X91.038 Y105.634 E48.71346
G1 X90.204 Y105.634 E48.73520
G1 X84.366 Y99.796 E48.95040
G1 X84.366 Y100.630 E48.97214
G1 X89.370 Y105.634 E49.15660
G1 X88.536 Y105.634 E49.17833
G1 X84.366 Y101.464 E49.33205
G1 X84.366 Y102.298 E49.35379
G1 X87.702 Y105.634 E49.47676
G1 X86.868 Y105.634 E49.49850
G1 X84.366 Y103.132 E49.59073
G1 X84.366 Y103.966 E49.61247
G1 X86.034 Y105.634 E49.67396
G1 X85.200 Y105.634 E49.69570
G1 X84.366 Y104.800 E49.72645
G1 X84.366 Y105.634 E49.74819
M106 S255
G1 F1800.000 E48.49819
G92 E0
G1 Z0.400 F7800.000
G1 X83.000 Y107.000
G1 X82.500 Y116.080
G1 F1800.000 E1.25000
G1 X81.900 Y116.060 F1427.202 E1.25512
G1 X81.310 Y116.000 E1.26017
G1 X81.010 Y115.950 E1.26276
G1 X80.140 Y115.750 E1.27037
G1 X79.570 Y115.560 E1.27549
G1 X79.010 Y115.340 E1.28062
G1 X78.470 Y115.070 E1.28576
G1 X77.950 Y114.780 E1.29084
G1 X77.220 Y114.260 E1.29847
G1 X76.760 Y113.880 E1.30356
G1 X76.120 Y113.240 E1.31127
G1 X75.740 Y112.780 E1.31636
G1 X75.220 Y112.050 E1.32400
G1 X75.070 Y111.790 E1.32655
G1 X74.660 Y110.990 E1.33421
G1 X74.440 Y110.430 E1.33934
G1 X74.250 Y109.860 E1.34446
G1 X74.050 Y108.990 E1.35207
G1 X74.000 Y108.690 E1.35466
G1 X73.940 Y108.100 E1.35972
G1 X73.920 Y107.500 E1.36483
G1 X73.920 Y82.500 E1.57789
G1 X73.940 Y81.900 E1.58300
G1 X74.000 Y81.310 E1.58806
G1 X74.110 Y80.720 E1.59317
G1 X74.250 Y80.140 E1.59826
G1 X74.440 Y79.570 E1.60338
G1 X74.660 Y79.010 E1.60850
G1 X74.930 Y78.470 E1.61365
G1 X75.220 Y77.950 E1.61872
G1 X75.560 Y77.460 E1.62381
G1 X76.120 Y76.760 E1.63144
G1 X76.760 Y76.120 E1.63916
G1 X77.460 Y75.560 E1.64680
G1 X77.950 Y75.220 E1.65188
G1 X78.210 Y75.070 E1.65444
G1 X79.010 Y74.660 E1.66210
G1 X79.570 Y74.440 E1.66723
G1 X80.140 Y74.250 E1.67235
G1 X81.010 Y74.050 E1.67995
G1 X81.310 Y74.000 E1.68255
G1 X81.900 Y73.940 E1.68760
G1 X82.500 Y73.920 E1.69272
G1 X107.500 Y73.920 E1.90577
G1 X108.100 Y73.940 E1.91089
G1 X108.690 Y74.000 E1.91594
G1 X109.280 Y74.110 E1.92106
G1 X109.860 Y74.250 E1.92614
G1 X110.430 Y74.440 E1.93126
G1 X110.990 Y74.660 E1.93639
G1 X111.530 Y74.930 E1.94153
G1 X112.050 Y75.220 E1.94661
G1 X112.540 Y75.560 E1.95169
G1 X113.240 Y76.120 E1.95933
G1 X113.880 Y76.760 E1.96704
G1 X114.440 Y77.460 E1.97468
G1 X114.780 Y77.950 E1.97977
G1 X114.930 Y78.210 E1.98232
G1 X115.340 Y79.010 E1.98998
G1 X115.560 Y79.570 E1.99511
G1 X115.750 Y80.140 E2.00023
G1 X115.950 Y81.010 E2.00784
G1 X116.000 Y81.310 E2.01043
G1 X116.060 Y81.900 E2.01549
G1 X116.080 Y82.500 E2.02060
G1 X116.080 Y107.500 E2.23366
G1 X116.060 Y108.100 E2.23877
G1 X116.000 Y108.690 E2.24383
G1 X115.890 Y109.280 E2.24894
G1 X115.750 Y109.860 E2.25402
G1 X115.560 Y110.430 E2.25915
G1 X115.340 Y110.990 E2.26427
G1 X115.070 Y111.530 E2.26942
G1 X114.780 Y112.050 E2.27449
G1 X114.440 Y112.540 E2.27957
G1 X113.880 Y113.240 E2.28721
G1 X113.240 Y113.880 E2.29493
G1 X112.780 Y114.260 E2.30001
G1 X112.050 Y114.780 E2.30765
G1 X111.260 Y115.210 E2.31532
G1 X110.990 Y115.340 E2.31787
G1 X110.430 Y115.560 E2.32300
G1 X109.860 Y115.750 E2.32812
G1 X109.280 Y115.890 E2.33320
G1 X108.690 Y116.000 E2.33832
G1 X108.100 Y116.060 E2.34337
G1 X107.500 Y116.080 E2.34849
G1 X82.587 Y116.080 E2.56080
G1 F1800.000 E1.31080
G92 E0
G1 X105.429 Y84.571 F7800.000
G1 F1800.000 E1.25000
G1 X105.429 Y105.429 F1427.202 E1.50456
G1 X84.571 Y105.429 E1.75912
G1 X84.571 Y84.571 E2.01367
G1 X105.304 Y84.571 E2.26672
G1 X106.257 Y83.743 F7800.000
G1 X106.257 Y106.257 F1427.202 E2.54150
G1 X83.743 Y106.257 E2.81628
G1 X83.743 Y83.743 E3.09106
G1 X106.133 Y83.743 E3.36433
G1 X107.086 Y82.914 F7800.000
G1 X107.086 Y107.086 F999.042 E3.65933
G1 X82.914 Y107.086 E3.95434
G1 X82.914 Y82.914 E4.24935
G1 X106.961 Y82.914 E4.54284
G1 X106.671 Y83.632 F7800.000
G1 X104.828 Y104.828
G1 X103.637 Y104.828 F2854.405 E4.55762
G1 X104.828 Y103.637 E4.57853
G1 X104.828 Y102.445 E4.59331
G1 X102.445 Y104.828 E4.63512
G1 X101.254 Y104.828 E4.64991
G1 X104.828 Y101.254 E4.71262
G1 X104.828 Y100.063 E4.72740
G1 X100.063 Y104.828 E4.81102
G1 X98.872 Y104.828 E4.82581
G1 X104.828 Y98.872 E4.93033
G1 X104.828 Y97.680 E4.94511
G1 X97.680 Y104.828 E5.07054
G1 X96.489 Y104.828 E5.08532
G1 X104.828 Y96.489 E5.23166
G1 X104.828 Y95.298 E5.24644
G1 X95.298 Y104.828 E5.41368
G1 X94.106 Y104.828 E5.42846
G1 X104.828 Y94.106 E5.61660
G1 X104.828 Y92.915 E5.63138
G1 X92.915 Y104.828 E5.84043
G1 X91.724 Y104.828 E5.85521
G1 X104.828 Y91.724 E6.08516
G1 X104.828 Y90.533 E6.09995
G1 X90.533 Y104.828 E6.35080
G1 X89.341 Y104.828 E6.36558
G1 X104.828 Y89.341 E6.63734
G1 X104.828 Y88.150 E6.65213
G1 X88.150 Y104.828 E6.94479
G1 X86.959 Y104.828 E6.95957
G1 X104.828 Y86.959 E7.27314
G1 X104.828 Y85.768 E7.28792
G1 X85.768 Y104.828 E7.62240
G1 X85.172 Y104.232 E7.63285
G1 X104.232 Y85.172 E7.96732
G1 X103.041 Y85.172 E7.98210
G1 X85.172 Y103.041 E8.29567
G1 X85.172 Y101.850 E8.31045
G1 X101.850 Y85.172 E8.60312
G1 X100.659 Y85.172 E8.61790
G1 X85.172 Y100.659 E8.88966
G1 X85.172 Y99.467 E8.90444
G1 X99.467 Y85.172 E9.15529
G1 X98.276 Y85.172 E9.17008
G1 X85.172 Y98.276 E9.40003
G1 X85.172 Y97.085 E9.41481
G1 X97.085 Y85.172 E9.62385
G1 X95.894 Y85.172 E9.63864
G1 X85.172 Y95.894 E9.82678
G1 X85.172 Y94.702 E9.84156
G1 X94.702 Y85.172 E10.00880
G1 X93.511 Y85.172 E10.02358
G1 X85.172 Y93.511 E10.16991
G1 X85.172 Y92.320 E10.18469
G1 X92.320 Y85.172 E10.31012
G1 X91.128 Y85.172 E10.32491
G1 X85.172 Y91.128 E10.42943
G1 X85.172 Y89.937 E10.44421
G1 X89.937 Y85.172 E10.52783
G1 X88.746 Y85.172 E10.54261
G1 X85.172 Y88.746 E10.60533
G1 X85.172 Y87.555 E10.62011
G1 X87.555 Y85.172 E10.66192
G1 X86.363 Y85.172 E10.67670
G1 X85.172 Y86.363 E10.69761
G1 X85.172 Y85.172 E10.71240
G1 F1800.000 E9.46240
G92 E0
G1 Z0.500 F7800.000
G1 X83.000 Y83.000
G1 X82.500 Y73.920
G1 F1800.000 E1.25000
G1 X107.500 Y73.920 F1427.202 E1.46305
G1 X108.100 Y73.940 E1.46817
G1 X108.690 Y74.000 E1.47322
G1 X109.280 Y74.110 E1.47834
G1 X109.860 Y74.250 E1.48342
G1 X110.430 Y74.440 E1.48854
G1 X110.990 Y74.660 E1.49367
G1 X111.530 Y74.930 E1.49882
G1 X112.050 Y75.220 E1.50389
G1 X112.780 Y75.740 E1.51153
G1 X113.240 Y76.120 E1.51661
G1 X113.880 Y76.760 E1.52433
G1 X114.440 Y77.460 E1.53197
G1 X114.780 Y77.950 E1.53705
G1 X115.070 Y78.470 E1.54212
G1 X115.340 Y79.010 E1.54727
G1 X115.560 Y79.570 E1.55240
G1 X115.750 Y80.140 E1.55752
G1 X115.890 Y80.720 E1.56260
G1 X116.000 Y81.310 E1.56772
G1 X116.060 Y81.900 E1.57277
G1 X116.080 Y82.500 E1.57789
G1 X116.080 Y107.500 E1.79094
G1 X116.060 Y108.100 E1.79606
G1 X116.000 Y108.690 E1.80111
G1 X115.950 Y108.990 E1.80370
G1 X115.750 Y109.860 E1.81131
G1 X115.560 Y110.430 E1.81643
G1 X115.340 Y110.990 E1.82156
G1 X114.930 Y111.790 E1.82922
G1 X114.780 Y112.050 E1.83178
G1 X114.440 Y112.540 E1.83686
G1 X113.880 Y113.240 E1.84450
G1 X113.240 Y113.880 E1.85221
G1 X112.540 Y114.440 E1.85985
G1 X112.050 Y114.780 E1.86493
G1 X111.530 Y115.070 E1.87001
G1 X110.990 Y115.340 E1.87515
G1 X110.430 Y115.560 E1.88028
G1 X109.860 Y115.750 E1.88540
G1 X109.280 Y115.890 E1.89049
G1 X108.690 Y116.000 E1.89560
G1 X108.100 Y116.060 E1.90065
G1 X107.500 Y116.080 E1.90577
G1 X82.500 Y116.080 E2.11882
G1 X81.900 Y116.060 E2.12394
G1 X81.310 Y116.000 E2.12899
G1 X81.010 Y115.950 E2.13159
G1 X80.140 Y115.750 E2.13919
G1 X79.570 Y115.560 E2.14431
G1 X79.010 Y115.340 E2.14944
G1 X78.210 Y114.930 E2.15710
G1 X77.950 Y114.780 E2.15966
G1 X77.460 Y114.440 E2.16474
G1 X76.760 Y113.880 E2.17238
G1 X76.120 Y113.240 E2.18010
G1 X75.560 Y112.540 E2.18774
G1 X75.220 Y112.050 E2.19282
G1 X74.930 Y111.530 E2.19789
G1 X74.660 Y110.990 E2.20304
G1 X74.440 Y110.430 E2.20816
G1 X74.250 Y109.860 E2.21328
