; generated by Slic3r 0.9.9 on 2014-01-28 at 21:44:18

; layer_height = 0.4
; perimeters = 3
; top_solid_layers = 3
; bottom_solid_layers = 3
; fill_density = 0.4
; perimeter_speed = 30
; infill_speed = 60
; travel_speed = 130
; nozzle_diameter = 0.5
; filament_diameter = 3
; extrusion_multiplier = 1
; perimeters extrusion width = 0.53mm
; infill extrusion width = 0.53mm
; solid infill extrusion width = 0.53mm
; top infill extrusion width = 0.53mm
; first layer extrusion width = 0.60mm

G21 ; set units to millimeters
M190 S120 ; wait for bed temperature to be reached
M104 S205 ; set temperature
G28 ; home all axes
M109 S205 ; wait for temperature to be reached
G90 ; use absolute coordinates
G92 E0
M82 ; use absolute distances for extrusion
M106 S89
G1 F1800.000 E-1.25000
G92 E0
G1 Z0.300 F7800.000
G1 X73.350 Y73.870
G1 F1800.000 E1.25000
G1 X74.140 Y73.100 F540.000 E1.27709
G1 X74.410 Y72.860 E1.28596
G1 X74.990 Y72.410 E1.30398
G1 X75.590 Y71.990 E1.32197
G1 X76.210 Y71.610 E1.33982
G1 X76.850 Y71.260 E1.35773
G1 X77.520 Y70.950 E1.37586
G1 X78.540 Y70.560 E1.40267
G1 X79.240 Y70.350 E1.42062
G1 X79.960 Y70.180 E1.43878
G1 X80.680 Y70.050 E1.45675
G1 X81.400 Y69.970 E1.47453
G1 X81.770 Y69.940 E1.48365
G1 X82.500 Y69.920 E1.50158
G1 X107.500 Y69.920 E2.11543
G1 X108.230 Y69.940 E2.13336
G1 X108.600 Y69.970 E2.14248
G1 X109.320 Y70.050 E2.16026
G1 X109.680 Y70.110 E2.16922
G1 X110.760 Y70.350 E2.19639
G1 X111.800 Y70.680 E2.22318
G1 X112.820 Y71.100 E2.25027
G1 X113.470 Y71.430 E2.26817
G1 X114.100 Y71.790 E2.28598
G1 X114.410 Y71.990 E2.29504
G1 X115.300 Y72.630 E2.32196
G1 X115.590 Y72.860 E2.33104
G1 X116.130 Y73.350 E2.34895
G1 X116.900 Y74.140 E2.37604
G1 X117.140 Y74.410 E2.38491
G1 X117.590 Y74.990 E2.40293
G1 X118.010 Y75.590 E2.42091
G1 X118.390 Y76.210 E2.43877
G1 X118.740 Y76.850 E2.45668
G1 X119.050 Y77.520 E2.47481
G1 X119.440 Y78.540 E2.50162
G1 X119.650 Y79.240 E2.51957
G1 X119.820 Y79.960 E2.53773
G1 X119.950 Y80.680 E2.55570
G1 X120.030 Y81.400 E2.57348
G1 X120.060 Y81.770 E2.58260
G1 X120.080 Y82.500 E2.60053
G1 X120.080 Y107.500 E3.21438
G1 X120.060 Y108.230 E3.23231
G1 X120.030 Y108.600 E3.24142
G1 X119.950 Y109.320 E3.25921
G1 X119.890 Y109.680 E3.26817
G1 X119.650 Y110.760 E3.29534
G1 X119.320 Y111.800 E3.32213
G1 X118.900 Y112.820 E3.34922
G1 X118.570 Y113.470 E3.36711
G1 X118.210 Y114.100 E3.38493
G1 X118.010 Y114.410 E3.39399
G1 X117.370 Y115.300 E3.42091
G1 X117.140 Y115.590 E3.42999
G1 X116.650 Y116.130 E3.44790
G1 X115.860 Y116.900 E3.47499
G1 X115.590 Y117.140 E3.48386
G1 X115.010 Y117.590 E3.50188
G1 X114.410 Y118.010 E3.51986
G1 X113.790 Y118.390 E3.53772
G1 X113.150 Y118.740 E3.55563
G1 X112.480 Y119.050 E3.57376
G1 X111.460 Y119.440 E3.60057
G1 X110.760 Y119.650 E3.61851
G1 X110.040 Y119.820 E3.63668
G1 X109.320 Y119.950 E3.65464
G1 X108.600 Y120.030 E3.67243
G1 X108.230 Y120.060 E3.68155
G1 X107.500 Y120.080 E3.69948
G1 X82.500 Y120.080 E4.31333
G1 X81.770 Y120.060 E4.33126
G1 X81.400 Y120.030 E4.34037
G1 X80.680 Y119.950 E4.35816
G1 X80.320 Y119.890 E4.36712
G1 X79.240 Y119.650 E4.39429
G1 X78.200 Y119.320 E4.42108
G1 X77.180 Y118.900 E4.44816
G1 X76.530 Y118.570 E4.46606
G1 X75.900 Y118.210 E4.48388
G1 X75.590 Y118.010 E4.49294
G1 X74.700 Y117.370 E4.51985
G1 X74.410 Y117.140 E4.52894
G1 X73.870 Y116.650 E4.54685
G1 X73.100 Y115.860 E4.57393
G1 X72.860 Y115.590 E4.58280
G1 X72.410 Y115.010 E4.60083
G1 X71.990 Y114.410 E4.61881
G1 X71.610 Y113.790 E4.63667
G1 X71.260 Y113.150 E4.65458
G1 X70.950 Y112.480 E4.67271
G1 X70.560 Y111.460 E4.69952
G1 X70.350 Y110.760 E4.71746
G1 X70.180 Y110.040 E4.73563
G1 X70.050 Y109.320 E4.75359
G1 X69.970 Y108.600 E4.77138
G1 X69.940 Y108.230 E4.78050
G1 X69.920 Y107.500 E4.79843
G1 X69.920 Y82.500 E5.41228
G1 X69.940 Y81.770 E5.43021
G1 X69.970 Y81.400 E5.43932
G1 X70.050 Y80.680 E5.45711
G1 X70.110 Y80.320 E5.46607
G1 X70.350 Y79.240 E5.49324
G1 X70.680 Y78.200 E5.52003
G1 X71.100 Y77.180 E5.54711
G1 X71.430 Y76.530 E5.56501
G1 X71.790 Y75.900 E5.58283
G1 X71.990 Y75.590 E5.59189
G1 X72.630 Y74.700 E5.61880
G1 X72.860 Y74.410 E5.62789
G1 X73.291 Y73.934 E5.64367
G1 F1800.000 E4.39367
G92 E0
G1 X75.268 Y79.505 F7800.000
G1 F1800.000 E1.25000
G1 X79.505 Y75.268 F540.000 E1.39710
G1 X110.495 Y75.268 E2.15805
G1 X114.732 Y79.505 E2.30516
G1 X114.732 Y110.495 E3.06611
G1 X110.495 Y114.732 E3.21321
G1 X79.505 Y114.732 E3.97416
G1 X75.268 Y110.495 E4.12127
G1 X75.268 Y79.591 E4.88009
G1 X75.847 Y79.744 F7800.000
G1 X79.744 Y75.847 F540.000 E5.01542
G1 X110.256 Y75.847 E5.76461
G1 X114.153 Y79.744 E5.89994
G1 X114.153 Y110.256 E6.64912
G1 X110.256 Y114.153 E6.78446
G1 X79.744 Y114.153 E7.53364
G1 X75.847 Y110.256 E7.66898
G1 X75.847 Y79.831 E8.41603
G1 X76.425 Y79.984 F7800.000
G1 X79.984 Y76.425 F540.000 E8.53959
G1 X110.016 Y76.425 E9.27701
G1 X113.575 Y79.984 E9.40058
G1 X113.575 Y110.016 E10.13799
G1 X110.016 Y113.575 E10.26156
G1 X79.984 Y113.575 E10.99897
G1 X76.425 Y110.016 E11.12254
G1 X76.425 Y80.071 E11.85783
G1 X77.004 Y80.223 F7800.000
G1 X80.223 Y77.004 F540.000 E11.96962
G1 X109.777 Y77.004 E12.69527
G1 X112.996 Y80.223 E12.80707
G1 X112.996 Y109.777 E13.53272
G1 X109.777 Y112.996 E13.64451
G1 X80.223 Y112.996 E14.37016
G1 X77.004 Y109.777 E14.48196
G1 X77.004 Y80.310 E15.20548
G1 X77.582 Y80.463 F7800.000
G1 X80.463 Y77.582 F540.000 E15.30551
G1 X109.537 Y77.582 E16.01938
G1 X112.418 Y80.463 E16.11941
G1 X112.418 Y109.537 E16.83329
G1 X109.537 Y112.418 E16.93332
G1 X80.463 Y112.418 E17.64720
G1 X77.582 Y109.537 E17.74723
G1 X77.582 Y80.550 E18.45898
G1 X78.161 Y80.703 F7800.000
G1 X80.703 Y78.161 F540.000 E18.54724
G1 X109.297 Y78.161 E19.24935
G1 X111.839 Y80.703 E19.33761
G1 X111.839 Y109.297 E20.03973
G1 X109.297 Y111.839 E20.12799
G1 X80.703 Y111.839 E20.83010
G1 X78.161 Y109.297 E20.91836
G1 X78.161 Y80.789 E21.61834
G1 X78.739 Y80.942 F7800.000
G1 X80.942 Y78.739 F540.000 E21.69483
G1 X109.058 Y78.739 E22.38518
G1 X111.261 Y80.942 E22.46167
G1 X111.261 Y109.058 E23.15201
G1 X109.058 Y111.261 E23.22851
G1 X80.942 Y111.261 E23.91885
G1 X78.739 Y109.058 E23.99534
G1 X78.739 Y81.029 E24.68355
G1 X79.318 Y81.182 F7800.000
G1 X81.182 Y79.318 F540.000 E24.74828
G1 X108.818 Y79.318 E25.42685
G1 X110.682 Y81.182 E25.49158
G1 X110.682 Y108.818 E26.17015
G1 X108.818 Y110.682 E26.23488
G1 X81.182 Y110.682 E26.91345
G1 X79.318 Y108.818 E26.97818
G1 X79.318 Y81.269 E27.65462
G1 X79.897 Y81.422 F7800.000
G1 X81.422 Y79.897 F540.000 E27.70758
G1 X108.578 Y79.897 E28.37439
G1 X110.103 Y81.422 E28.42734
G1 X110.103 Y108.578 E29.09415
G1 X108.578 Y110.103 E29.14711
G1 X81.422 Y110.103 E29.81391
G1 X79.897 Y108.578 E29.86687
G1 X79.897 Y81.508 E30.53155
G1 X80.475 Y81.661 F7800.000
G1 X81.661 Y80.475 F540.000 E30.57273
G1 X108.339 Y80.475 E31.22777
G1 X109.525 Y81.661 E31.26896
G1 X109.525 Y108.339 E31.92400
G1 X108.339 Y109.525 E31.96519
G1 X81.661 Y109.525 E32.62023
G1 X80.475 Y108.339 E32.66142
G1 X80.475 Y81.748 E33.31432
G1 X81.054 Y81.901 F7800.000
G1 X81.901 Y81.054 F540.000 E33.34374
G1 X108.099 Y81.054 E33.98701
G1 X108.946 Y81.901 E34.01643
G1 X108.946 Y108.099 E34.65970
G1 X108.099 Y108.946 E34.68913
G1 X81.901 Y108.946 E35.33240
G1 X81.054 Y108.099 E35.36182
G1 X81.054 Y81.988 E36.00296
G1 X81.632 Y82.141 F7800.000
G1 X82.141 Y81.632 F540.000 E36.02061
G1 X107.859 Y81.632 E36.65211
G1 X108.368 Y82.141 E36.66976
G1 X108.368 Y107.859 E37.30126
G1 X107.859 Y108.368 E37.31892
G1 X82.141 Y108.368 E37.95042
G1 X81.632 Y107.859 E37.96807
G1 X81.632 Y82.227 E38.59744
G1 X82.211 Y82.380 F7800.000
G1 X82.380 Y82.211 F540.000 E38.60333
G1 X107.620 Y82.211 E39.22306
G1 X107.789 Y82.380 E39.22894
G1 X107.789 Y107.620 E39.84868
G1 X107.620 Y107.789 E39.85456
G1 X82.380 Y107.789 E40.47430
G1 X82.211 Y107.620 E40.48018
G1 X82.211 Y82.467 E41.09778
G1 X82.789 Y82.789 F7800.000
G1 X107.211 Y82.789 F378.000 E41.69743
G1 X107.211 Y107.211 E42.29707
G1 X82.789 Y107.211 E42.89672
G1 X82.789 Y82.876 E43.49423
G1 X83.290 Y83.079 F7800.000
G1 X83.368 Y83.368
G1 X106.632 Y83.368 F540.000 E44.06546
G1 X106.632 Y106.632 E44.63670
G1 X83.368 Y106.632 E45.20793
G1 X83.368 Y83.455 E45.77703
G1 X83.946 Y106.054 F7800.000
G1 X83.946 Y83.946 F540.000 E46.31985
G1 X106.054 Y83.946 E46.86268
G1 X106.054 Y106.054 E47.40550
G1 X84.033 Y106.054 E47.94619
G1 X84.366 Y105.634 F7800.000
G1 X84.366 Y104.800 F1080.000 E47.96707
G1 X85.200 Y105.634 E47.99661
G1 X86.034 Y105.634 E48.01748
G1 X84.366 Y103.966 E48.07654
G1 X84.366 Y103.132 E48.09741
G1 X86.868 Y105.634 E48.18600
G1 X87.702 Y105.634 E48.20687
G1 X84.366 Y102.298 E48.32498
G1 X84.366 Y101.464 E48.34585
G1 X88.536 Y105.634 E48.49348
G1 X89.370 Y105.634 E48.51436
G1 X84.366 Y100.630 E48.69151
G1 X84.366 Y99.796 E48.71239
G1 X90.204 Y105.634 E48.91907
G1 X91.038 Y105.634 E48.93995
G1 X84.366 Y98.962 E49.17615
G1 X84.366 Y98.128 E49.19703
G1 X91.872 Y105.634 E49.46275
G1 X92.706 Y105.634 E49.48363
G1 X84.366 Y97.294 E49.77888
G1 X84.366 Y96.459 E49.79976
G1 X93.541 Y105.634 E50.12453
G1 X94.375 Y105.634 E50.14541
G1 X84.366 Y95.625 E50.49971
G1 X84.366 Y94.791 E50.52059
G1 X95.209 Y105.634 E50.90441
G1 X96.043 Y105.634 E50.92529
G1 X84.366 Y93.957 E51.33864
G1 X84.366 Y93.123 E51.35952
G1 X96.877 Y105.634 E51.80239
G1 X97.711 Y105.634 E51.82327
G1 X84.366 Y92.289 E52.29567
G1 X84.366 Y91.455 E52.31654
G1 X98.545 Y105.634 E52.81847
G1 X99.379 Y105.634 E52.83934
G1 X84.366 Y90.621 E53.37079
G1 X84.366 Y89.787 E53.39167
G1 X100.213 Y105.634 E53.95264
G1 X101.047 Y105.634 E53.97351
G1 X84.366 Y88.953 E54.56401
G1 X84.366 Y88.119 E54.58489
G1 X101.881 Y105.634 E55.20491
G1 X102.715 Y105.634 E55.22579
G1 X84.366 Y87.285 E55.87533
G1 X84.366 Y86.451 E55.89621
G1 X103.549 Y105.634 E56.57528
G1 X104.383 Y105.634 E56.59615
G1 X84.366 Y85.617 E57.30475
G1 X84.366 Y84.783 E57.32562
G1 X105.217 Y105.634 E58.06374
G1 X105.634 Y105.217 E58.07850
G1 X84.783 Y84.366 E58.81662
G1 X85.617 Y84.366 E58.83750
G1 X105.634 Y104.383 E59.54609
G1 X105.634 Y103.549 E59.56697
G1 X86.451 Y84.366 E60.24603
G1 X87.285 Y84.366 E60.26691
G1 X105.634 Y102.715 E60.91645
G1 X105.634 Y101.881 E60.93733
G1 X88.119 Y84.366 E61.55735
G1 X88.953 Y84.366 E61.57823
G1 X105.634 Y101.047 E62.16872
G1 X105.634 Y100.213 E62.18960
G1 X89.787 Y84.366 E62.75057
G1 X90.621 Y84.366 E62.77144
G1 X105.634 Y99.379 E63.30289
G1 X105.634 Y98.545 E63.32377
G1 X91.455 Y84.366 E63.82569
G1 X92.289 Y84.366 E63.84656
G1 X105.634 Y97.711 E64.31896
G1 X105.634 Y96.877 E64.33984
G1 X93.123 Y84.366 E64.78271
G1 X93.957 Y84.366 E64.80359
G1 X105.634 Y96.043 E65.21693
G1 X105.634 Y95.209 E65.23781
G1 X94.791 Y84.366 E65.62163
G1 X95.625 Y84.366 E65.64251
G1 X105.634 Y94.375 E65.99681
G1 X105.634 Y93.540 E66.01768
G1 X96.460 Y84.366 E66.34246
G1 X97.294 Y84.366 E66.36334
G1 X105.634 Y92.706 E66.65859
G1 X105.634 Y91.872 E66.67946
G1 X98.128 Y84.366 E66.94519
G1 X98.962 Y84.366 E66.96606
G1 X105.634 Y91.038 E67.20227
G1 X105.634 Y90.204 E67.22314
G1 X99.796 Y84.366 E67.42982
G1 X100.630 Y84.366 E67.45070
G1 X105.634 Y89.370 E67.62785
G1 X105.634 Y88.536 E67.64872
G1 X101.464 Y84.366 E67.79635
G1 X102.298 Y84.366 E67.81723
G1 X105.634 Y87.702 E67.93533
G1 X105.634 Y86.868 E67.95621
G1 X103.132 Y84.366 E68.04479
G1 X103.966 Y84.366 E68.06566
G1 X105.634 Y86.034 E68.12472
G1 X105.634 Y85.200 E68.14559
G1 X104.800 Y84.366 E68.17512
G1 X105.634 Y84.366 E68.19600
M106 S255
G1 F1800.000 E66.94600
G92 E0
G1 Z0.700 F7800.000
G1 X83.799 Y83.799
G1 F1800.000 E1.25000
G1 X106.201 Y83.799 F1577.144 E1.90873
G1 X106.201 Y106.201 E2.56747
G1 X83.799 Y106.201 E3.22620
G1 X83.799 Y83.877 E3.88264
G1 X83.279 Y83.279 F7800.000
G1 X106.721 Y83.279 F1577.144 E4.57193
G1 X106.721 Y106.721 E5.26123
G1 X83.279 Y106.721 E5.95052
G1 X83.279 Y83.357 E6.63752
G1 X82.760 Y82.760 F7800.000
G1 X107.240 Y82.760 F1104.001 E7.35737
G1 X107.240 Y107.240 E8.07723
G1 X82.760 Y107.240 E8.79708
G1 X82.760 Y82.838 E9.51464
G1 X83.210 Y83.020 F7800.000
G1 X84.176 Y84.176
G1 X84.922 Y84.176 F3154.288 E9.53694
G1 X84.176 Y84.922 E9.56848
G1 X84.176 Y85.669 E9.59078
G1 X85.669 Y84.176 E9.65385
G1 X86.415 Y84.176 E9.67615
G1 X84.176 Y86.415 E9.77076
G1 X84.176 Y87.162 E9.79306
G1 X87.162 Y84.176 E9.91920
G1 X87.908 Y84.176 E9.94150
G1 X84.176 Y87.908 E10.09918
G1 X84.176 Y88.655 E10.12148
G1 X88.655 Y84.176 E10.31069
G1 X89.401 Y84.176 E10.33298
G1 X84.176 Y89.401 E10.55373
G1 X84.176 Y90.148 E10.57603
G1 X90.148 Y84.176 E10.82831
G1 X90.894 Y84.176 E10.85061
G1 X84.176 Y90.894 E11.13442
G1 X84.176 Y91.641 E11.15672
G1 X91.641 Y84.176 E11.47207
G1 X92.387 Y84.176 E11.49437
G1 X84.176 Y92.387 E11.84125
G1 X84.176 Y93.134 E11.86355
G1 X93.134 Y84.176 E12.24197
G1 X93.880 Y84.176 E12.26427
G1 X84.176 Y93.880 E12.67422
G1 X84.176 Y94.627 E12.69652
G1 X94.627 Y84.176 E13.13800
G1 X95.373 Y84.176 E13.16030
G1 X84.176 Y95.373 E13.63332
G1 X84.176 Y96.120 E13.65562
G1 X96.120 Y84.176 E14.16018
G1 X96.866 Y84.176 E14.18248
G1 X84.176 Y96.866 E14.71857
G1 X84.176 Y97.613 E14.74086
G1 X97.613 Y84.176 E15.30849
G1 X98.359 Y84.176 E15.33079
G1 X84.176 Y98.359 E15.92995
G1 X84.176 Y99.106 E15.95224
G1 X99.106 Y84.176 E16.58294
G1 X99.852 Y84.176 E16.60524
G1 X84.176 Y99.852 E17.26746
G1 X84.176 Y100.599 E17.28976
G1 X100.599 Y84.176 E17.98352
G1 X101.345 Y84.176 E18.00582
G1 X84.176 Y101.345 E18.73112
G1 X84.176 Y102.092 E18.75342
G1 X102.092 Y84.176 E19.51025
G1 X102.838 Y84.176 E19.53255
G1 X84.176 Y102.838 E20.32091
G1 X84.176 Y103.585 E20.34321
G1 X103.585 Y84.176 E21.16311
G1 X104.331 Y84.176 E21.18541
G1 X84.176 Y104.331 E22.03684
G1 X84.176 Y105.078 E22.05914
G1 X105.078 Y84.176 E22.94211
G1 X105.824 Y84.176 E22.96440
G1 X84.176 Y105.824 E23.87890
G1 X84.922 Y105.824 E23.90119
G1 X105.824 Y84.922 E24.78417
G1 X105.824 Y85.669 E24.80646
G1 X85.669 Y105.824 E25.65790
G1 X86.415 Y105.824 E25.68020
G1 X105.824 Y86.415 E26.50010
G1 X105.824 Y87.162 E26.52240
G1 X87.162 Y105.824 E27.31077
G1 X87.908 Y105.824 E27.33307
G1 X105.824 Y87.908 E28.08990
G1 X105.824 Y88.655 E28.11220
G1 X88.655 Y105.824 E28.83750
G1 X89.401 Y105.824 E28.85980
G1 X105.824 Y89.401 E29.55356
G1 X105.824 Y90.148 E29.57586
G1 X90.148 Y105.824 E30.23809
G1 X90.894 Y105.824 E30.26039
G1 X105.824 Y90.894 E30.89109
G1 X105.824 Y91.641 E30.91339
G1 X91.641 Y105.824 E31.51255
G1 X92.387 Y105.824 E31.53485
G1 X105.824 Y92.387 E32.10247
G1 X105.824 Y93.134 E32.12477
G1 X93.134 Y105.824 E32.66087
G1 X93.880 Y105.824 E32.68316
G1 X105.824 Y93.880 E33.18772
G1 X105.824 Y94.627 E33.21002
G1 X94.627 Y105.824 E33.68305
G1 X95.373 Y105.824 E33.70534
G1 X105.824 Y95.373 E34.14683
G1 X105.824 Y96.120 E34.16913
G1 X96.120 Y105.824 E34.57909
G1 X96.866 Y105.824 E34.60139
G1 X105.824 Y96.866 E34.97981
G1 X105.824 Y97.613 E35.00211
G1 X97.613 Y105.824 E35.34899
G1 X98.359 Y105.824 E35.37129
G1 X105.824 Y98.359 E35.68664
G1 X105.824 Y99.106 E35.70894
G1 X99.106 Y105.824 E35.99276
G1 X99.852 Y105.824 E36.01506
G1 X105.824 Y99.852 E36.26734
G1 X105.824 Y100.599 E36.28964
G1 X100.599 Y105.824 E36.51039
G1 X101.345 Y105.824 E36.53269
G1 X105.824 Y101.345 E36.72190
G1 X105.824 Y102.092 E36.74420
G1 X102.092 Y105.824 E36.90188
G1 X102.838 Y105.824 E36.92418
G1 X105.824 Y102.838 E37.05032
G1 X105.824 Y103.585 E37.07262
G1 X103.585 Y105.824 E37.16723
G1 X104.331 Y105.824 E37.18953
G1 X105.824 Y104.331 E37.25261
G1 X105.824 Y105.078 E37.27491
G1 X105.078 Y105.824 E37.30645
G1 X105.824 Y105.824 E37.32875
G1 F1800.000 E36.07875
G92 E0
G1 Z1.100 F7800.000
G1 X83.799 Y106.201
G1 F1800.000 E1.25000
G1 X83.799 Y83.799 F1577.144 E1.90873
G1 X106.201 Y83.799 E2.56747
G1 X106.201 Y106.201 E3.22620
G1 X83.877 Y106.201 E3.88264
G1 X83.279 Y106.721 F7800.000
G1 X83.279 Y83.279 F1577.144 E4.57193
G1 X106.721 Y83.279 E5.26123
G1 X106.721 Y106.721 E5.95052
G1 X83.357 Y106.721 E6.63752
G1 X82.760 Y107.240 F7800.000
G1 X82.760 Y82.760 F1104.001 E7.35737
G1 X107.240 Y82.760 E8.07723
G1 X107.240 Y107.240 E8.79708
G1 X82.838 Y107.240 E9.51464
G1 X83.020 Y106.790 F7800.000
G1 X84.176 Y105.824
G1 X84.176 Y105.078 F3154.288 E9.53694
G1 X84.922 Y105.824 E9.56849
G1 X85.669 Y105.824 E9.59079
