; generated by Slic3r 1.0.0RC3 on 2014-03-02 at 20:10:33

; layer_height = 0.25
; perimeters = 3
; top_solid_layers = 4
; bottom_solid_layers = 4
; fill_density = 0.4
; perimeter_speed = 30
; infill_speed = 60
; travel_speed = 130
; nozzle_diameter = 0.5
; filament_diameter = 2.94
; extrusion_multiplier = 1
; perimeters extrusion width = 0.50mm
; infill extrusion width = 0.84mm
; solid infill extrusion width = 0.84mm
; top infill extrusion width = 0.84mm
; first layer extrusion width = 0.40mm

G21 ; set units to millimeters
M107
M190 S110 ; wait for bed temperature to be reached
M104 S220 ; set temperature
G28 ; home all axes
M109 S220 ; wait for temperature to be reached
G90 ; use absolute coordinates
G92 E0
M82 ; use absolute distances for extrusion
G1 F1800.000 E-1.25000
G92 E0
G1 Z0.200 F7800.000
G1 X72.775 Y71.735 F7800.000
G1 E1.25000 F1800.000
G1 X73.975 Y70.895 E1.26819 F540.000
G1 X75.305 Y70.275 E1.28641
G1 X76.725 Y69.895 E1.30466
G1 X78.185 Y69.765 E1.32286
G1 X111.805 Y69.765 E1.74031
G1 X113.265 Y69.895 E1.75851
G1 X114.685 Y70.275 E1.77676
G1 X116.015 Y70.895 E1.79498
G1 X117.215 Y71.735 E1.81316
G1 X118.255 Y72.775 E1.83143
G1 X119.095 Y73.975 E1.84961
G1 X119.715 Y75.305 E1.86783
G1 X120.095 Y76.725 E1.88609
G1 X120.225 Y78.185 E1.90429
G1 X120.225 Y111.805 E2.32173
G1 X120.095 Y113.265 E2.33993
G1 X119.715 Y114.685 E2.35818
G1 X119.095 Y116.015 E2.37640
G1 X118.255 Y117.215 E2.39459
G1 X117.215 Y118.255 E2.41285
G1 X116.015 Y119.095 E2.43104
G1 X114.685 Y119.715 E2.44926
G1 X113.265 Y120.095 E2.46751
G1 X111.805 Y120.225 E2.48571
G1 X78.185 Y120.225 E2.90316
G1 X76.725 Y120.095 E2.92136
G1 X75.305 Y119.715 E2.93961
G1 X73.975 Y119.095 E2.95783
G1 X72.775 Y118.255 E2.97602
G1 X71.735 Y117.215 E2.99428
G1 X70.895 Y116.015 E3.01247
G1 X70.275 Y114.685 E3.03069
G1 X69.895 Y113.265 E3.04894
G1 X69.765 Y111.805 E3.06714
G1 X69.765 Y78.185 E3.48459
G1 X69.895 Y76.725 E3.50279
G1 X70.275 Y75.305 E3.52104
G1 X70.895 Y73.975 E3.53926
G1 X71.735 Y72.775 E3.55745
G1 X72.730 Y71.780 E3.57492
G1 F1800.000 E2.32492
G92 E0
G1 X75.660 Y72.080 F7800.000
G1 E1.25000 F1800.000
G1 X114.340 Y72.080 E1.73026 F540.000
G1 X117.920 Y75.660 E1.79313
G1 X117.920 Y114.340 E2.27339
G1 X114.340 Y117.920 E2.33625
G1 X75.660 Y117.920 E2.81652
G1 X72.080 Y114.340 E2.87938
G1 X72.080 Y75.660 E3.35964
G1 X75.616 Y72.125 E3.42172
G1 X75.835 Y72.502 F7800.000
G1 X114.165 Y72.502 E3.89765 F540.000
G1 X117.498 Y75.835 E3.95617
G1 X117.498 Y114.165 E4.43210
G1 X114.165 Y117.498 E4.49063
G1 X75.835 Y117.498 E4.96656
G1 X72.502 Y114.165 E5.02509
G1 X72.502 Y75.835 E5.50101
G1 X75.790 Y72.547 E5.55876
G1 X76.009 Y72.923 F7800.000
G1 X113.991 Y72.923 E6.03035 F540.000
G1 X117.077 Y76.009 E6.08454
G1 X117.077 Y113.991 E6.55613
G1 X113.991 Y117.077 E6.61033
G1 X76.009 Y117.077 E7.08192
G1 X72.923 Y113.991 E7.13611
G1 X72.923 Y76.009 E7.60770
G1 X75.965 Y72.968 E7.66111
G1 X76.184 Y73.345 F7800.000
G1 X113.816 Y73.345 E8.12837 F540.000
G1 X116.655 Y76.184 E8.17822
G1 X116.655 Y113.816 E8.64548
G1 X113.816 Y116.655 E8.69534
G1 X76.184 Y116.655 E9.16260
G1 X73.345 Y113.816 E9.21245
G1 X73.345 Y76.184 E9.67971
G1 X76.139 Y73.390 E9.72878
G1 X76.359 Y73.766 F7800.000
G1 X113.641 Y73.766 E10.19171 F540.000
G1 X116.234 Y76.359 E10.23723
G1 X116.234 Y113.641 E10.70015
G1 X113.641 Y116.234 E10.74567
G1 X76.359 Y116.234 E11.20860
G1 X73.766 Y113.641 E11.25412
G1 X73.766 Y76.359 E11.71704
G1 X76.314 Y73.811 E11.76177
G1 X76.533 Y74.188 F7800.000
G1 X113.467 Y74.188 E12.22036 F540.000
G1 X115.812 Y76.533 E12.26155
G1 X115.812 Y113.467 E12.72014
G1 X113.467 Y115.812 E12.76132
G1 X76.533 Y115.812 E13.21991
G1 X74.188 Y113.467 E13.26110
G1 X74.188 Y76.533 E13.71968
G1 X76.489 Y74.232 E13.76008
G1 X76.708 Y74.609 F7800.000
G1 X113.292 Y74.609 E14.21434 F540.000
G1 X115.391 Y76.708 E14.25119
G1 X115.391 Y113.292 E14.70544
G1 X113.292 Y115.391 E14.74229
G1 X76.708 Y115.391 E15.19654
G1 X74.609 Y113.292 E15.23339
G1 X74.609 Y76.708 E15.68765
G1 X76.663 Y74.654 E15.72371
G1 X76.882 Y75.031 F7800.000
G1 X113.118 Y75.031 E16.17363 F540.000
G1 X114.969 Y76.882 E16.20614
G1 X114.969 Y113.118 E16.65606
G1 X113.118 Y114.969 E16.68858
G1 X76.882 Y114.969 E17.13849
G1 X75.031 Y113.118 E17.17101
G1 X75.031 Y76.882 E17.62093
G1 X76.838 Y75.075 E17.65266
G1 X77.057 Y75.452 F7800.000
G1 X112.943 Y75.452 E18.09824 F540.000
G1 X114.548 Y77.057 E18.12642
G1 X114.548 Y112.943 E18.57200
G1 X112.943 Y114.548 E18.60018
G1 X77.057 Y114.548 E19.04576
G1 X75.452 Y112.943 E19.07394
G1 X75.452 Y77.057 E19.51953
G1 X77.012 Y75.497 E19.54692
G1 X77.232 Y75.874 F7800.000
G1 X112.768 Y75.874 E19.98817 F540.000
G1 X114.126 Y77.232 E20.01201
G1 X114.126 Y112.768 E20.45326
G1 X112.768 Y114.126 E20.47710
G1 X77.232 Y114.126 E20.91835
G1 X75.874 Y112.768 E20.94220
G1 X75.874 Y77.232 E21.38344
G1 X77.187 Y75.918 E21.40650
G1 X77.406 Y76.295 F7800.000
G1 X112.594 Y76.295 E21.84341 F540.000
G1 X113.705 Y77.406 E21.86292
G1 X113.705 Y112.594 E22.29984
G1 X112.594 Y113.705 E22.31934
G1 X77.406 Y113.705 E22.75626
G1 X76.295 Y112.594 E22.77577
G1 X76.295 Y77.406 E23.21268
G1 X77.361 Y76.340 E23.23140
G1 X77.581 Y76.717 F7800.000
G1 X112.419 Y76.717 E23.66398 F540.000
G1 X113.283 Y77.581 E23.67915
G1 X113.283 Y112.419 E24.11173
G1 X112.419 Y113.283 E24.12690
G1 X77.581 Y113.283 E24.55948
G1 X76.717 Y112.419 E24.57465
G1 X76.717 Y77.581 E25.00723
G1 X77.536 Y76.761 E25.02162
G1 X77.755 Y77.138 F7800.000
G1 X112.245 Y77.138 E25.44986 F540.000
G1 X112.862 Y77.755 E25.46070
G1 X112.862 Y112.245 E25.88894
G1 X112.245 Y112.862 E25.89978
G1 X77.755 Y112.862 E26.32802
G1 X77.138 Y112.245 E26.33886
G1 X77.138 Y77.755 E26.76710
G1 X77.711 Y77.183 E26.77716
G1 X77.930 Y77.559 F7800.000
G1 X112.070 Y77.559 E27.20106 F540.000
G1 X112.441 Y77.930 E27.20756
G1 X112.441 Y112.070 E27.63147
G1 X112.070 Y112.441 E27.63797
G1 X77.930 Y112.441 E28.06188
G1 X77.559 Y112.070 E28.06838
G1 X77.559 Y77.930 E28.49229
G1 X77.885 Y77.604 E28.49801
G1 X78.104 Y77.981 F7800.000
G1 X111.896 Y77.981 E28.91758 F540.000
G1 X112.019 Y78.104 E28.91975
G1 X112.019 Y111.896 E29.33932
G1 X111.896 Y112.019 E29.34149
G1 X78.104 Y112.019 E29.76106
G1 X77.981 Y111.896 E29.76323
G1 X77.981 Y78.104 E30.18280
G1 X78.060 Y78.026 E30.18418
G1 X78.392 Y78.392 F7800.000
G1 X111.608 Y78.392 E30.59662 F378.000
G1 X111.608 Y111.608 E31.00906
G1 X78.392 Y111.608 E31.42149
G1 X78.392 Y78.455 E31.83315
G1 X78.757 Y78.602 F7800.000
G1 X111.187 Y78.813 F7800.000
G1 X111.187 Y111.187 E32.23512 F540.000
G1 X78.813 Y111.187 E32.63709
G1 X78.813 Y78.813 E33.03906
G1 X111.124 Y78.813 E33.44025
G1 X110.765 Y79.235 F7800.000
G1 X110.765 Y110.765 E33.83175 F540.000
G1 X79.235 Y110.765 E34.22326
G1 X79.235 Y79.235 E34.61476
G1 X110.702 Y79.235 E35.00548
G1 X110.470 Y79.550 F7800.000
G1 X110.450 Y79.530 E35.00583 F1080.000
G1 X109.850 Y79.530 E35.01334
G1 X110.470 Y80.150 E35.02432
G1 X110.470 Y80.751 E35.03183
G1 X109.249 Y79.530 E35.05342
G1 X108.649 Y79.530 E35.06093
G1 X110.470 Y81.351 E35.09314
G1 X110.470 Y81.952 E35.10065
G1 X108.048 Y79.530 E35.14348
G1 X107.448 Y79.530 E35.15099
G1 X110.470 Y82.552 E35.20444
G1 X110.470 Y83.152 E35.21195
G1 X106.848 Y79.530 E35.27602
G1 X106.247 Y79.530 E35.28353
G1 X110.470 Y83.753 E35.35822
G1 X110.470 Y84.353 E35.36573
G1 X105.647 Y79.530 E35.45103
G1 X105.046 Y79.530 E35.45854
G1 X110.470 Y84.954 E35.55447
G1 X110.470 Y85.554 E35.56198
G1 X104.446 Y79.530 E35.66853
G1 X103.846 Y79.530 E35.67604
G1 X110.470 Y86.154 E35.79321
G1 X110.470 Y86.755 E35.80072
G1 X103.245 Y79.530 E35.92850
G1 X102.645 Y79.530 E35.93601
G1 X110.470 Y87.355 E36.07442
G1 X110.470 Y87.955 E36.08193
G1 X102.045 Y79.530 E36.23095
G1 X101.444 Y79.530 E36.23846
G1 X110.470 Y88.556 E36.39811
G1 X110.470 Y89.156 E36.40562
G1 X100.844 Y79.530 E36.57588
G1 X100.243 Y79.530 E36.58339
G1 X110.470 Y89.757 E36.76428
G1 X110.470 Y90.357 E36.77178
G1 X99.643 Y79.530 E36.96329
G1 X99.043 Y79.530 E36.97080
G1 X110.470 Y90.957 E37.17292
G1 X110.470 Y91.558 E37.18043
G1 X98.442 Y79.530 E37.39317
G1 X97.842 Y79.530 E37.40068
G1 X110.470 Y92.158 E37.62404
G1 X110.470 Y92.759 E37.63155
G1 X97.241 Y79.530 E37.86554
G1 X96.641 Y79.530 E37.87304
G1 X110.470 Y93.359 E38.11765
G1 X110.470 Y93.959 E38.12515
G1 X96.041 Y79.530 E38.38038
G1 X95.440 Y79.530 E38.38788
G1 X110.470 Y94.560 E38.65372
G1 X110.470 Y95.160 E38.66123
G1 X94.840 Y79.530 E38.93769
G1 X94.240 Y79.530 E38.94520
G1 X110.470 Y95.760 E39.23228
G1 X110.470 Y96.361 E39.23979
G1 X93.639 Y79.530 E39.53749
G1 X93.039 Y79.530 E39.54500
G1 X110.470 Y96.961 E39.85332
G1 X110.470 Y97.562 E39.86083
G1 X92.438 Y79.530 E40.17976
G1 X91.838 Y79.530 E40.18727
G1 X110.470 Y98.162 E40.51683
G1 X110.470 Y98.762 E40.52434
G1 X91.238 Y79.530 E40.86452
G1 X90.637 Y79.530 E40.87203
G1 X110.470 Y99.363 E41.22282
G1 X110.470 Y99.963 E41.23033
G1 X90.037 Y79.530 E41.59175
G1 X89.436 Y79.530 E41.59926
G1 X110.470 Y100.564 E41.97129
G1 X110.470 Y101.164 E41.97880
G1 X88.836 Y79.530 E42.36145
G1 X88.236 Y79.530 E42.36896
G1 X110.470 Y101.764 E42.76224
G1 X110.470 Y102.365 E42.76975
G1 X87.635 Y79.530 E43.17364
G1 X87.035 Y79.530 E43.18115
G1 X110.470 Y102.965 E43.59566
G1 X110.470 Y103.565 E43.60317
G1 X86.435 Y79.530 E44.02830
G1 X85.834 Y79.530 E44.03581
G1 X110.470 Y104.166 E44.47156
G1 X110.470 Y104.766 E44.47907
G1 X85.234 Y79.530 E44.92544
G1 X84.633 Y79.530 E44.93295
G1 X110.470 Y105.367 E45.38994
G1 X110.470 Y105.967 E45.39745
G1 X84.033 Y79.530 E45.86506
G1 X83.433 Y79.530 E45.87257
G1 X110.470 Y106.567 E46.35080
G1 X110.470 Y107.168 E46.35831
G1 X82.832 Y79.530 E46.84716
G1 X82.232 Y79.530 E46.85467
G1 X110.470 Y107.768 E47.35414
G1 X110.470 Y108.369 E47.36165
G1 X81.631 Y79.530 E47.87174
G1 X81.031 Y79.530 E47.87925
G1 X110.470 Y108.969 E48.39995
G1 X110.470 Y109.569 E48.40746
G1 X80.431 Y79.530 E48.93879
G1 X79.830 Y79.530 E48.94630
G1 X110.470 Y110.170 E49.48825
G1 X110.170 Y110.470 E49.49356
G1 X79.530 Y79.830 E50.03550
G1 X79.530 Y80.431 E50.04301
G1 X109.569 Y110.470 E50.57434
G1 X108.969 Y110.470 E50.58185
G1 X79.530 Y81.031 E51.10256
G1 X79.530 Y81.631 E51.11007
G1 X108.369 Y110.470 E51.62016
G1 X107.768 Y110.470 E51.62766
G1 X79.530 Y82.232 E52.12713
G1 X79.530 Y82.832 E52.13464
G1 X107.168 Y110.470 E52.62349
G1 X106.567 Y110.470 E52.63100
G1 X79.530 Y83.433 E53.10923
G1 X79.530 Y84.033 E53.11674
G1 X105.967 Y110.470 E53.58435
G1 X105.367 Y110.470 E53.59186
G1 X79.530 Y84.633 E54.04885
G1 X79.530 Y85.234 E54.05636
G1 X104.766 Y110.470 E54.50273
G1 X104.166 Y110.470 E54.51024
G1 X79.530 Y85.834 E54.94600
G1 X79.530 Y86.435 E54.95350
G1 X103.565 Y110.470 E55.37864
G1 X102.965 Y110.470 E55.38615
G1 X79.530 Y87.035 E55.80066
G1 X79.530 Y87.635 E55.80817
G1 X102.365 Y110.470 E56.21206
G1 X101.764 Y110.470 E56.21957
G1 X79.530 Y88.236 E56.61285
G1 X79.530 Y88.836 E56.62036
G1 X101.164 Y110.470 E57.00301
G1 X100.564 Y110.470 E57.01052
G1 X79.530 Y89.436 E57.38256
G1 X79.530 Y90.037 E57.39006
G1 X99.963 Y110.470 E57.75148
G1 X99.363 Y110.470 E57.75899
G1 X79.530 Y90.637 E58.10979
G1 X79.530 Y91.238 E58.11730
G1 X98.762 Y110.470 E58.45747
G1 X98.162 Y110.470 E58.46498
G1 X79.530 Y91.838 E58.79454
G1 X79.530 Y92.438 E58.80205
G1 X97.562 Y110.470 E59.12099
G1 X96.961 Y110.470 E59.12850
G1 X79.530 Y93.039 E59.43681
G1 X79.530 Y93.639 E59.44432
G1 X96.361 Y110.470 E59.74202
G1 X95.760 Y110.470 E59.74953
G1 X79.530 Y94.240 E60.03661
G1 X79.530 Y94.840 E60.04412
G1 X95.160 Y110.470 E60.32058
G1 X94.560 Y110.470 E60.32809
G1 X79.530 Y95.440 E60.59393
G1 X79.530 Y96.041 E60.60144
G1 X93.959 Y110.470 E60.85666
G1 X93.359 Y110.470 E60.86417
G1 X79.530 Y96.641 E61.10877
G1 X79.530 Y97.241 E61.11628
G1 X92.759 Y110.470 E61.35026
G1 X92.158 Y110.470 E61.35777
G1 X79.530 Y97.842 E61.58114
G1 X79.530 Y98.442 E61.58864
G1 X91.558 Y110.470 E61.80139
G1 X90.957 Y110.470 E61.80890
G1 X79.530 Y99.043 E62.01102
G1 X79.530 Y99.643 E62.01853
G1 X90.357 Y110.470 E62.21003
G1 X89.757 Y110.470 E62.21754
G1 X79.530 Y100.243 E62.39843
G1 X79.530 Y100.844 E62.40594
G1 X89.156 Y110.470 E62.57620
G1 X88.556 Y110.470 E62.58371
G1 X79.530 Y101.444 E62.74336
G1 X79.530 Y102.044 E62.75087
G1 X87.955 Y110.470 E62.89989
G1 X87.355 Y110.470 E62.90740
G1 X79.530 Y102.645 E63.04581
G1 X79.530 Y103.245 E63.05332
G1 X86.755 Y110.470 E63.18111
G1 X86.154 Y110.470 E63.18862
G1 X79.530 Y103.846 E63.30578
G1 X79.530 Y104.446 E63.31329
G1 X85.554 Y110.470 E63.41984
G1 X84.954 Y110.470 E63.42735
G1 X79.530 Y105.046 E63.52328
G1 X79.530 Y105.647 E63.53079
G1 X84.353 Y110.470 E63.61610
G1 X83.753 Y110.470 E63.62361
G1 X79.530 Y106.247 E63.69830
G1 X79.530 Y106.848 E63.70581
G1 X83.152 Y110.470 E63.76988
G1 X82.552 Y110.470 E63.77739
G1 X79.530 Y107.448 E63.83084
G1 X79.530 Y108.048 E63.83835
G1 X81.952 Y110.470 E63.88118
G1 X81.351 Y110.470 E63.88869
G1 X79.530 Y108.649 E63.92090
G1 X79.530 Y109.249 E63.92841
G1 X80.751 Y110.470 E63.95000
G1 X80.151 Y110.470 E63.95751
G1 X79.530 Y109.849 E63.96848
G1 X79.530 Y110.450 E63.97599
G1 X79.550 Y110.470 E63.97635
G1 F1800.000 E62.72635
G92 E0
G1 Z0.450 F7800.000
G1 X79.592 Y110.408 F7800.000
G1 E1.25000 F1800.000
G1 X79.592 Y79.592 E1.81743 F1800
G1 X110.408 Y79.592 E2.38486
G1 X110.408 Y110.408 E2.95229
G1 X79.667 Y110.408 E3.51833
G1 X79.092 Y79.092 F7800.000
G1 X110.908 Y79.092 E4.10417 F1800
G1 X110.908 Y110.908 E4.69002
G1 X79.092 Y110.908 E5.27586
G1 X79.092 Y79.167 E5.86032
G1 X78.592 Y78.592 F7800.000
G1 X111.408 Y78.592 E6.46457 F1260
G1 X111.408 Y111.408 E7.06883
G1 X78.592 Y111.408 E7.67308
G1 X78.592 Y78.667 E8.27596
G1 X79.025 Y78.842 F7800.000
G1 X80.028 Y80.008 F7800.000
G1 X80.008 Y80.028 E8.27679 F3600
G1 X80.008 Y81.159 E8.31008
G1 X81.159 Y80.008 E8.35799
G1 X82.290 Y80.008 E8.39128
G1 X80.008 Y82.290 E8.48628
G1 X80.008 Y83.420 E8.51957
G1 X83.420 Y80.008 E8.66164
G1 X84.551 Y80.008 E8.69493
G1 X80.008 Y84.551 E8.88409
G1 X80.008 Y85.682 E8.91738
G1 X85.682 Y80.008 E9.15361
G1 X86.812 Y80.008 E9.18691
G1 X80.008 Y86.812 E9.47022
G1 X80.008 Y87.943 E9.50351
G1 X87.943 Y80.008 E9.83391
G1 X89.074 Y80.008 E9.86720
G1 X80.008 Y89.074 E10.24468
G1 X80.008 Y90.205 E10.27797
G1 X90.205 Y80.008 E10.70253
G1 X91.335 Y80.008 E10.73582
G1 X80.008 Y91.335 E11.20746
G1 X80.008 Y92.466 E11.24075
G1 X92.466 Y80.008 E11.75947
G1 X93.597 Y80.008 E11.79276
G1 X80.008 Y93.597 E12.35856
G1 X80.008 Y94.727 E12.39185
G1 X94.727 Y80.008 E13.00473
G1 X95.858 Y80.008 E13.03802
G1 X80.008 Y95.858 E13.69798
G1 X80.008 Y96.989 E13.73128
G1 X96.989 Y80.008 E14.43832
G1 X98.119 Y80.008 E14.47161
G1 X80.008 Y98.119 E15.22573
G1 X80.008 Y99.250 E15.25902
G1 X99.250 Y80.008 E16.06023
G1 X100.381 Y80.008 E16.09352
G1 X80.008 Y100.381 E16.94180
G1 X80.008 Y101.511 E16.97509
G1 X101.511 Y80.008 E17.87046
G1 X102.642 Y80.008 E17.90375
G1 X80.008 Y102.642 E18.84619
G1 X80.008 Y103.773 E18.87948
G1 X103.773 Y80.008 E19.86901
G1 X104.904 Y80.008 E19.90230
G1 X80.008 Y104.904 E20.93891
G1 X80.008 Y106.034 E20.97220
G1 X106.034 Y80.008 E22.05589
G1 X107.165 Y80.008 E22.08918
G1 X80.008 Y107.165 E23.21995
G1 X80.008 Y108.296 E23.25324
G1 X108.296 Y80.008 E24.43109
G1 X109.426 Y80.008 E24.46438
G1 X80.008 Y109.426 E25.68931
G1 X80.574 Y109.992 E25.71285
G1 X109.992 Y80.574 E26.93778
G1 X109.992 Y81.704 E26.97107
G1 X81.704 Y109.992 E28.14892
G1 X82.835 Y109.992 E28.18221
G1 X109.992 Y82.835 E29.31298
G1 X109.992 Y83.966 E29.34627
G1 X83.966 Y109.992 E30.42996
G1 X85.096 Y109.992 E30.46325
G1 X109.992 Y85.096 E31.49986
G1 X109.992 Y86.227 E31.53315
G1 X86.227 Y109.992 E32.52267
G1 X87.358 Y109.992 E32.55596
G1 X109.992 Y87.358 E33.49841
G1 X109.992 Y88.489 E33.53170
G1 X88.489 Y109.992 E34.42707
G1 X89.619 Y109.992 E34.46036
G1 X109.992 Y89.619 E35.30864
G1 X109.992 Y90.750 E35.34193
G1 X90.750 Y109.992 E36.14314
G1 X91.881 Y109.992 E36.17643
G1 X109.992 Y91.881 E36.93055
G1 X109.992 Y93.011 E36.96384
G1 X93.011 Y109.992 E37.67089
G1 X94.142 Y109.992 E37.70418
G1 X109.992 Y94.142 E38.36414
G1 X109.992 Y95.273 E38.39743
G1 X95.273 Y109.992 E39.01031
G1 X96.403 Y109.992 E39.04360
G1 X109.992 Y96.403 E39.60940
