; generated by Slic3r 0.9.9 on 2014-01-17 at 21:14:00

; layer_height = 0.4
; perimeters = 3
; top_solid_layers = 3
; bottom_solid_layers = 3
; fill_density = 0.4
; perimeter_speed = 30
; infill_speed = 60
; travel_speed = 130
; nozzle_diameter = 0.5
; filament_diameter = 3
; extrusion_multiplier = 1
; perimeters extrusion width = 0.53mm
; infill extrusion width = 0.53mm
; solid infill extrusion width = 0.53mm
; top infill extrusion width = 0.53mm
; first layer extrusion width = 0.60mm

G21 ; set units to millimeters
M190 S110 ; wait for bed temperature to be reached
M104 S205 ; set temperature
G28 ; home all axes
M109 S205 ; wait for temperature to be reached
G90 ; use absolute coordinates
G92 E0
M82 ; use absolute distances for extrusion
M106 S89
G1 F1800.000 E-4.00000
G92 E0
G1 Z0.300 F7800.000
G1 X28.940 Y57.662
G1 F1800.000 E4.00000
G1 X29.670 Y57.342 F540.000 E4.01957
G1 X30.430 Y57.102 E4.03914
G1 X30.680 Y57.042 E4.04545
G1 X31.210 Y56.962 E4.05861
G1 X31.470 Y56.932 E4.06504
G1 X32.000 Y56.912 E4.07806
G1 X158.000 Y56.912 E7.17187
G1 X158.530 Y56.932 E7.18489
G1 X159.320 Y57.042 E7.20447
G1 X159.830 Y57.172 E7.21740
G1 X160.580 Y57.442 E7.23697
G1 X161.060 Y57.662 E7.24993
G1 X161.290 Y57.792 E7.25642
G1 X161.740 Y58.082 E7.26957
G1 X162.160 Y58.392 E7.28238
G1 X162.740 Y58.932 E7.30184
G1 X163.100 Y59.332 E7.31506
G1 X163.260 Y59.542 E7.32154
G1 X163.560 Y59.972 E7.33441
G1 X163.830 Y60.432 E7.34751
G1 X164.150 Y61.162 E7.36708
G1 X164.320 Y61.662 E7.38005
G1 X164.450 Y62.172 E7.39297
G1 X164.560 Y62.962 E7.41255
G1 X164.580 Y63.492 E7.42558
G1 X164.570 Y102.642 E8.38687
G1 X164.540 Y103.892 E8.41757
G1 X164.390 Y105.612 E8.45996
G1 X164.150 Y107.212 E8.49969
G1 X164.060 Y107.682 E8.51144
G1 X163.700 Y109.222 E8.55027
G1 X163.360 Y110.422 E8.58089
G1 X163.220 Y110.852 E8.59200
G1 X162.660 Y112.382 E8.63200
G1 X161.970 Y113.962 E8.67434
G1 X161.400 Y115.072 E8.70497
G1 X160.600 Y116.452 E8.74414
G1 X160.360 Y116.842 E8.75538
G1 X159.660 Y117.872 E8.78596
G1 X158.680 Y119.172 E8.82594
G1 X157.320 Y120.732 E8.87675
G1 X156.440 Y121.622 E8.90749
G1 X155.210 Y122.732 E8.94817
G1 X153.580 Y124.012 E8.99906
G1 X152.200 Y124.952 E9.04005
G1 X151.130 Y125.592 E9.07067
G1 X149.400 Y126.492 E9.11855
G1 X136.490 Y132.472 E9.46790
G1 X135.970 Y132.692 E9.48176
G1 X135.700 Y132.782 E9.48875
G1 X134.870 Y132.982 E9.50971
G1 X134.300 Y133.052 E9.52381
G1 X133.730 Y133.082 E9.53783
G1 X56.260 Y133.082 E11.44003
G1 X55.710 Y133.062 E11.45354
G1 X55.160 Y132.992 E11.46715
G1 X54.620 Y132.872 E11.48074
G1 X54.090 Y132.712 E11.49433
G1 X53.830 Y132.612 E11.50117
G1 X53.320 Y132.392 E11.51481
G1 X52.600 Y131.972 E11.53528
G1 X51.940 Y131.462 E11.55576
G1 X51.350 Y130.882 E11.57607
G1 X50.840 Y130.232 E11.59636
G1 X50.320 Y129.412 E11.62020
G1 X49.990 Y128.812 E11.63701
G1 X49.490 Y127.772 E11.66535
G1 X25.800 Y69.682 E13.20574
G1 X25.610 Y69.072 E13.22142
G1 X25.540 Y68.762 E13.22923
G1 X25.450 Y68.132 E13.24485
G1 X25.420 Y67.492 E13.26059
G1 X25.420 Y63.492 E13.35880
G1 X25.440 Y62.962 E13.37183
G1 X25.470 Y62.702 E13.37825
G1 X25.550 Y62.172 E13.39141
G1 X25.610 Y61.922 E13.39773
G1 X25.850 Y61.162 E13.41729
G1 X26.170 Y60.432 E13.43687
G1 X26.440 Y59.972 E13.44996
G1 X26.900 Y59.332 E13.46931
G1 X27.260 Y58.932 E13.48253
G1 X27.840 Y58.392 E13.50199
G1 X28.480 Y57.932 E13.52134
G1 X28.864 Y57.705 E13.53231
G1 F1800.000 E9.53231
G92 E0
G1 X136.395 Y87.659 F7800.000
G1 F1800.000 E4.00000
G1 X136.579 Y87.103 F378.000 E4.01438
G1 X136.837 Y86.578 E4.02875
G1 X137.164 Y86.092 E4.04313
G1 X137.555 Y85.656 E4.05751
G1 X138.001 Y85.276 E4.07188
G1 X138.494 Y84.961 E4.08626
G1 X139.026 Y84.717 E4.10064
G1 X139.586 Y84.546 E4.11501
G1 X140.165 Y84.454 E4.12939
G1 X140.750 Y84.441 E4.14377
G1 X141.327 Y84.508 E4.15802
G1 X142.512 Y84.768 E4.18781
G1 X143.672 Y85.105 E4.21748
G1 X144.808 Y85.517 E4.24715
G1 X145.914 Y86.004 E4.27682
G1 X146.985 Y86.562 E4.30649
G1 X148.018 Y87.190 E4.33615
G1 X149.006 Y87.885 E4.36582
G1 X149.928 Y88.629 E4.39489
G1 X150.835 Y89.463 E4.42516
G1 X151.667 Y90.339 E4.45483
G1 X152.440 Y91.268 E4.48449
G1 X153.149 Y92.246 E4.51416
G1 X153.780 Y93.248 E4.54323
G1 X154.368 Y94.331 E4.57350
G1 X154.871 Y95.430 E4.60317
G1 X155.300 Y96.559 E4.63284
G1 X155.654 Y97.715 E4.66250
G1 X155.926 Y98.867 E4.69157
G1 X156.130 Y100.082 E4.72184
G1 X156.250 Y101.285 E4.75151
G1 X156.289 Y102.492 E4.78117
G1 X156.250 Y103.690 E4.81059
G1 X156.133 Y104.882 E4.84000
G1 X155.937 Y106.064 E4.86941
G1 X155.665 Y107.230 E4.89883
G1 X155.317 Y108.376 E4.92824
G1 X154.895 Y109.497 E4.95765
G1 X154.400 Y110.588 E4.98707
G1 X153.835 Y111.645 E5.01648
G1 X153.215 Y112.641 E5.04530
G1 X152.503 Y113.635 E5.07530
G1 X151.743 Y114.560 E5.10472
G1 X150.924 Y115.434 E5.13413
G1 X150.049 Y116.252 E5.16354
G1 X149.122 Y117.011 E5.19296
G1 X148.148 Y117.708 E5.22237
G1 X147.130 Y118.340 E5.25178
G1 X146.073 Y118.904 E5.28119
G1 X144.981 Y119.397 E5.31061
G1 X143.860 Y119.818 E5.34002
G1 X142.713 Y120.164 E5.36943
G1 X141.546 Y120.435 E5.39884
G1 X140.364 Y120.628 E5.42826
G1 X139.169 Y120.745 E5.45774
G1 X138.415 Y120.754 E5.47625
G1 X137.662 Y120.685 E5.49483
G1 X136.920 Y120.538 E5.51341
G1 X136.197 Y120.314 E5.53198
G1 X135.501 Y120.018 E5.55056
G1 X134.839 Y119.650 E5.56914
G1 X134.219 Y119.216 E5.58772
G1 X133.648 Y118.720 E5.60630
G1 X132.960 Y117.972 E5.63127
G1 X132.678 Y117.602 E5.64267
G1 X132.458 Y117.177 E5.65444
G1 X132.313 Y116.720 E5.66621
G1 X132.248 Y116.245 E5.67798
G1 X132.266 Y115.766 E5.68975
G1 X132.366 Y115.297 E5.70153
G1 X132.544 Y114.852 E5.71330
G1 X132.796 Y114.444 E5.72507
G1 X133.114 Y114.085 E5.73684
G1 X133.489 Y113.786 E5.74861
G1 X133.909 Y113.556 E5.76038
G1 X134.351 Y113.404 E5.77185
G1 X140.334 Y111.918 E5.92323
G1 X141.164 Y111.673 E5.94448
G1 X141.963 Y111.357 E5.96557
G1 X142.731 Y110.972 E5.98666
G1 X143.462 Y110.521 E6.00776
G1 X144.150 Y110.007 E6.02885
G1 X144.790 Y109.434 E6.04994
G1 X145.377 Y108.807 E6.07103
G1 X145.906 Y108.130 E6.09212
G1 X146.374 Y107.409 E6.11322
G1 X146.775 Y106.650 E6.13431
G1 X147.108 Y105.858 E6.15540
G1 X147.370 Y105.040 E6.17649
G1 X147.559 Y104.202 E6.19758
G1 X147.672 Y103.351 E6.21868
G1 X147.710 Y102.492 E6.23977
G1 X147.674 Y101.651 E6.26044
G1 X147.565 Y100.817 E6.28111
G1 X147.384 Y99.994 E6.30178
G1 X147.132 Y99.191 E6.32246
G1 X146.812 Y98.412 E6.34313
G1 X146.425 Y97.665 E6.36380
G1 X145.975 Y96.953 E6.38447
G1 X145.466 Y96.283 E6.40514
G1 X144.900 Y95.660 E6.42581
G1 X144.282 Y95.088 E6.44649
G1 X143.617 Y94.571 E6.46716
G1 X142.910 Y94.115 E6.48783
G1 X142.166 Y93.721 E6.50850
G1 X141.390 Y93.393 E6.52917
G1 X140.589 Y93.134 E6.54984
G1 X139.202 Y92.799 E6.58489
G1 X138.660 Y92.578 E6.59927
G1 X138.153 Y92.284 E6.61364
G1 X137.691 Y91.925 E6.62802
G1 X137.282 Y91.506 E6.64240
G1 X136.934 Y91.035 E6.65677
G1 X136.653 Y90.521 E6.67115
G1 X136.445 Y89.974 E6.68553
G1 X136.314 Y89.403 E6.69990
G1 X136.261 Y88.820 E6.71428
G1 X136.288 Y88.235 E6.72866
G1 X136.379 Y87.745 E6.74090
G1 X135.991 Y87.245 F7800.000
G1 X136.598 Y86.503
G1 X136.408 Y90.573
G1 X140.972 Y96.138
G1 X144.106 Y99.019
G1 X146.581 Y106.546
G1 X133.776 Y113.370
G1 X132.329 Y114.743
G1 X132.079 Y116.760
G1 X132.422 Y122.500
G1 X133.270 Y123.781
G1 X133.349 Y122.486 F540.000 E6.77276
G1 X133.298 Y121.751 E6.79085
G1 X133.145 Y121.025 E6.80909
G1 X132.656 Y119.677 E6.84429
G1 X132.840 Y119.551 E6.84975
G1 X133.506 Y120.130 E6.87143
G1 X134.225 Y120.633 E6.89296
G1 X134.991 Y121.058 E6.91449
G1 X136.048 Y121.509 E6.94269
G1 X135.453 Y121.813 E6.95909
G1 X134.861 Y122.222 E6.97675
G1 X134.328 Y122.705 E6.99440
G1 X133.864 Y123.254 E7.01206
G1 X133.481 Y123.850 E7.02947
G1 X133.353 Y123.808 E7.03279
G1 X131.582 Y118.404 F7800.000
G1 X130.370 Y117.696 F540.000 E7.06724
G1 X129.683 Y117.414 E7.08548
G1 X128.963 Y117.230 E7.10373
G1 X128.225 Y117.147 E7.12197
G1 X127.482 Y117.168 E7.14021
G1 X126.749 Y117.291 E7.15845
G1 X126.041 Y117.514 E7.17669
G1 X125.370 Y117.834 E7.19493
G1 X124.750 Y118.243 E7.21318
G1 X123.944 Y118.953 E7.23955
G1 X123.700 Y118.759 E7.24721
G1 X127.407 Y111.840 E7.43996
G1 X139.033 Y110.372 E7.72768
G1 X139.803 Y110.233 E7.74690
G1 X140.591 Y110.006 E7.76703
G1 X141.352 Y109.700 E7.78717
G1 X142.076 Y109.316 E7.80730
G1 X142.758 Y108.859 E7.82745
G1 X143.389 Y108.335 E7.84758
G1 X143.962 Y107.749 E7.86771
G1 X144.472 Y107.106 E7.88786
G1 X144.913 Y106.415 E7.90799
G1 X145.280 Y105.682 E7.92814
G1 X145.570 Y104.914 E7.94827
G1 X145.779 Y104.122 E7.96840
G1 X145.906 Y103.311 E7.98854
G1 X145.948 Y102.492 E8.00868
G1 X145.906 Y101.672 E8.02885
G1 X145.779 Y100.860 E8.04903
G1 X145.569 Y100.066 E8.06921
G1 X145.278 Y99.297 E8.08939
G1 X144.909 Y98.563 E8.10956
G1 X144.466 Y97.870 E8.12974
G1 X143.955 Y97.228 E8.14990
G1 X143.379 Y96.641 E8.17009
G1 X142.746 Y96.117 E8.19026
G1 X142.062 Y95.661 E8.21045
G1 X141.335 Y95.278 E8.23062
G1 X140.573 Y94.972 E8.25080
G1 X139.783 Y94.747 E8.27097
G1 X137.897 Y94.436 E8.31789
G1 X136.834 Y94.197 E8.34464
G1 X135.790 Y93.888 E8.37139
G1 X134.768 Y93.512 E8.39813
G1 X133.772 Y93.068 E8.42488
G1 X132.809 Y92.561 E8.45163
G1 X131.880 Y91.991 E8.47838
G1 X130.991 Y91.361 E8.50512
G1 X130.146 Y90.674 E8.53187
G1 X129.347 Y89.933 E8.55862
G1 X128.599 Y89.142 E8.58536
G1 X127.905 Y88.302 E8.61211
G1 X127.268 Y87.419 E8.63886
G1 X126.689 Y86.496 E8.66560
G1 X126.173 Y85.536 E8.69235
G1 X125.721 Y84.545 E8.71910
G1 X125.335 Y83.527 E8.74585
G1 X125.018 Y82.485 E8.77259
G1 X124.769 Y81.424 E8.79934
G1 X124.590 Y80.350 E8.82609
G1 X124.483 Y79.266 E8.85283
G1 X124.446 Y78.153 E8.88017
G1 X124.446 Y68.398 E9.11970
G1 X124.375 Y67.856 E9.13311
G1 X124.129 Y67.263 E9.14887
G1 X123.739 Y66.754 E9.16463
G1 X123.229 Y66.363 E9.18039
G1 X122.636 Y66.117 E9.19615
G1 X122.095 Y66.046 E9.20957
G1 X99.446 Y66.046 E9.76568
G1 X99.446 Y64.939 E9.79287
G1 X156.554 Y64.939 E11.19508
G1 X156.554 Y66.046 E11.22227
G1 X136.953 Y66.046 E11.70354
G1 X136.289 Y66.090 E11.71989
G1 X135.590 Y66.229 E11.73739
G1 X134.915 Y66.458 E11.75489
G1 X134.275 Y66.773 E11.77240
G1 X133.683 Y67.169 E11.78990
G1 X133.147 Y67.639 E11.80740
G1 X132.677 Y68.175 E11.82490
G1 X132.281 Y68.768 E11.84241
G1 X131.965 Y69.407 E11.85991
G1 X131.736 Y70.082 E11.87741
G1 X131.597 Y70.781 E11.89491
G1 X131.554 Y71.445 E11.91125
G1 X131.554 Y78.540 E12.08545
G1 X131.597 Y79.204 E12.10179
G1 X131.736 Y79.903 E12.11929
G1 X131.965 Y80.578 E12.13680
G1 X132.281 Y81.217 E12.15430
G1 X132.677 Y81.810 E12.17180
G1 X133.147 Y82.346 E12.18931
G1 X133.683 Y82.816 E12.20681
G1 X134.275 Y83.212 E12.22431
G1 X134.915 Y83.527 E12.24181
G1 X135.590 Y83.756 E12.25932
G1 X136.289 Y83.895 E12.27682
G1 X136.953 Y83.939 E12.29316
G1 X137.788 Y83.939 E12.31366
G1 X136.745 Y84.826 E12.34727
G1 X136.249 Y85.380 E12.36553
G1 X135.833 Y85.997 E12.38380
G1 X135.506 Y86.665 E12.40206
G1 X135.272 Y87.371 E12.42032
G1 X135.136 Y88.102 E12.43859
G1 X135.102 Y88.845 E12.45685
G1 X135.169 Y89.586 E12.47511
G1 X135.336 Y90.311 E12.49338
G1 X135.600 Y91.006 E12.51164
G1 X135.956 Y91.659 E12.52990
G1 X136.398 Y92.257 E12.54817
G1 X136.918 Y92.789 E12.56643
G1 X137.505 Y93.246 E12.58469
G1 X138.149 Y93.619 E12.60296
G1 X138.837 Y93.900 E12.62122
G1 X140.280 Y94.250 E12.65769
G1 X140.986 Y94.478 E12.67589
G1 X141.669 Y94.767 E12.69410
G1 X142.324 Y95.114 E12.71230
G1 X142.947 Y95.516 E12.73051
G1 X143.533 Y95.971 E12.74872
G1 X144.077 Y96.475 E12.76692
G1 X144.575 Y97.024 E12.78513
G1 X145.024 Y97.614 E12.80333
G1 X145.420 Y98.240 E12.82154
G1 X145.761 Y98.899 E12.83975
G1 X146.043 Y99.585 E12.85795
G1 X146.264 Y100.292 E12.87616
G1 X146.424 Y101.016 E12.89436
G1 X146.520 Y101.752 E12.91257
G1 X146.552 Y102.492 E12.93076
G1 X146.519 Y103.248 E12.94935
G1 X146.419 Y103.998 E12.96793
G1 X146.253 Y104.736 E12.98651
G1 X146.022 Y105.457 E13.00508
G1 X145.729 Y106.154 E13.02366
G1 X145.375 Y106.823 E13.04224
G1 X144.963 Y107.458 E13.06081
G1 X144.497 Y108.054 E13.07939
G1 X143.980 Y108.606 E13.09796
G1 X143.417 Y109.111 E13.11654
G1 X142.811 Y109.563 E13.13512
G1 X142.167 Y109.961 E13.15369
G1 X141.490 Y110.300 E13.17227
G1 X140.787 Y110.578 E13.19085
G1 X140.031 Y110.802 E13.21021
G1 X134.024 Y112.294 E13.36218
G1 X133.440 Y112.493 E13.37732
G1 X132.845 Y112.819 E13.39399
G1 X132.314 Y113.243 E13.41066
G1 X131.864 Y113.751 E13.42733
G1 X131.507 Y114.329 E13.44401
G1 X131.255 Y114.959 E13.46068
G1 X131.114 Y115.623 E13.47735
G1 X131.088 Y116.301 E13.49402
G1 X131.180 Y116.974 E13.51069
G1 X131.385 Y117.621 E13.52736
G1 X131.722 Y118.271 E13.54532
G1 X131.645 Y118.344 E13.54793
G1 X132.188 Y117.913 F7800.000
G1 X132.511 Y118.338 F540.000 E13.56104
G1 X133.246 Y119.138 E13.58771
G1 X133.863 Y119.673 E13.60776
G1 X134.532 Y120.141 E13.62782
G1 X135.246 Y120.538 E13.64787
G1 X135.997 Y120.858 E13.66793
G1 X136.778 Y121.099 E13.68798
G1 X137.884 Y121.318 E13.71568
G1 X137.886 Y121.601 E13.72262
G1 X136.928 Y121.804 E13.74667
G1 X136.322 Y122.018 E13.76245
G1 X135.750 Y122.311 E13.77822
G1 X135.221 Y122.676 E13.79400
G1 X134.745 Y123.108 E13.80978
G1 X134.330 Y123.598 E13.82556
G1 X133.983 Y124.139 E13.84133
G1 X133.474 Y125.266 E13.87170
G1 X132.332 Y124.466 E13.90594
G1 X132.453 Y124.202 E13.91308
G1 X132.628 Y123.646 E13.92738
G1 X132.734 Y123.074 E13.94167
G1 X132.770 Y122.489 E13.95606
G1 X132.724 Y121.832 E13.97224
G1 X132.587 Y121.184 E13.98850
G1 X132.361 Y120.561 E14.00477
G1 X132.052 Y119.975 E14.02103
G1 X131.664 Y119.438 E14.03730
G1 X131.205 Y118.960 E14.05356
G1 X130.685 Y118.550 E14.06982
G1 X130.113 Y118.216 E14.08609
G1 X129.500 Y117.965 E14.10235
G1 X128.859 Y117.800 E14.11862
G1 X128.200 Y117.727 E14.13488
G1 X127.538 Y117.745 E14.15115
G1 X126.885 Y117.855 E14.16741
G1 X126.253 Y118.054 E14.18367
G1 X125.655 Y118.339 E14.19994
G1 X125.102 Y118.704 E14.21620
G1 X124.605 Y119.142 E14.23247
G1 X124.174 Y119.644 E14.24873
G1 X123.816 Y120.202 E14.26500
G1 X123.539 Y120.803 E14.28126
G1 X123.348 Y121.438 E14.29752
G1 X123.247 Y122.092 E14.31379
G1 X123.237 Y122.754 E14.33005
G1 X123.320 Y123.412 E14.34632
G1 X123.492 Y124.051 E14.36258
G1 X123.669 Y124.466 E14.37365
G1 X122.537 Y125.259 E14.40758
G1 X122.378 Y124.938 E14.41635
G1 X122.161 Y124.363 E14.43143
G1 X122.003 Y123.770 E14.44652
G1 X121.906 Y123.163 E14.46161
G1 X121.869 Y122.550 E14.47669
G1 X121.894 Y121.936 E14.49178
G1 X121.981 Y121.328 E14.50686
G1 X122.127 Y120.731 E14.52195
G1 X122.333 Y120.152 E14.53703
G1 X122.605 Y119.577 E14.55266
G1 X127.038 Y111.303 E14.78314
G1 X138.945 Y109.799 E15.07783
G1 X139.672 Y109.669 E15.09594
G1 X140.402 Y109.459 E15.11461
G1 X141.107 Y109.174 E15.13328
G1 X141.779 Y108.818 E15.15195
G1 X142.411 Y108.395 E15.17062
G1 X142.996 Y107.909 E15.18929
G1 X143.527 Y107.366 E15.20796
G1 X144.000 Y106.770 E15.22663
G1 X144.409 Y106.129 E15.24530
G1 X144.750 Y105.449 E15.26397
G1 X145.019 Y104.738 E15.28264
G1 X145.212 Y104.003 E15.30130
G1 X145.330 Y103.252 E15.31997
G1 X145.369 Y102.492 E15.33864
G1 X145.330 Y101.732 E15.35735
G1 X145.212 Y100.979 E15.37605
G1 X145.017 Y100.242 E15.39476
G1 X144.747 Y99.530 E15.41347
G1 X144.405 Y98.849 E15.43217
G1 X143.995 Y98.207 E15.45088
G1 X143.521 Y97.611 E15.46958
G1 X142.987 Y97.067 E15.48829
G1 X142.400 Y96.582 E15.50699
G1 X141.766 Y96.159 E15.52571
G1 X141.092 Y95.804 E15.54441
G1 X140.385 Y95.520 E15.56312
G1 X139.653 Y95.311 E15.58182
G1 X137.788 Y95.005 E15.62821
G1 X136.689 Y94.757 E15.65589
G1 X135.607 Y94.438 E15.68357
G1 X134.550 Y94.048 E15.71125
G1 X133.520 Y93.589 E15.73894
G1 X132.522 Y93.064 E15.76662
G1 X131.561 Y92.474 E15.79430
G1 X130.641 Y91.822 E15.82199
G1 X129.766 Y91.111 E15.84967
G1 X128.940 Y90.344 E15.87735
G1 X128.166 Y89.525 E15.90503
G1 X127.447 Y88.656 E15.93271
G1 X126.787 Y87.742 E15.96040
G1 X126.189 Y86.787 E15.98808
G1 X125.655 Y85.794 E16.01576
G1 X125.187 Y84.768 E16.04344
G1 X124.788 Y83.714 E16.07113
G1 X124.459 Y82.635 E16.09881
G1 X124.201 Y81.538 E16.12649
G1 X124.017 Y80.426 E16.15417
G1 X123.905 Y79.304 E16.18186
G1 X123.868 Y78.163 E16.20989
G1 X123.868 Y68.436 E16.44872
G1 X123.811 Y68.007 E16.45934
G1 X123.624 Y67.555 E16.47136
