; generated by Slic3r 1.0.0RC2 on 2014-02-14 at 16:35:02

; layer_height = 0.4
; perimeters = 3
; top_solid_layers = 6
; bottom_solid_layers = 3
; fill_density = 0.4
; perimeter_speed = 30
; infill_speed = 60
; travel_speed = 130
; nozzle_diameter = 0.5
; filament_diameter = 2.94
; extrusion_multiplier = 1
; perimeters extrusion width = 0.50mm
; infill extrusion width = 0.53mm
; solid infill extrusion width = 0.53mm
; top infill extrusion width = 0.53mm
; first layer extrusion width = 0.60mm

G21 ; set units to millimeters
M190 S110 ; wait for bed temperature to be reached
M104 S220 ; set temperature
G28 ; home all axes
M109 S220 ; wait for temperature to be reached
G90 ; use absolute coordinates
G92 E0
M82 ; use absolute distances for extrusion
M106 S89
G1 F1800.000 E-1.25000
G92 E0
G1 Z0.300 F7800.000
G1 X28.210 Y56.062 F7800.000
G1 E1.25000 F1800.000
G1 X29.570 Y55.432 E1.28832 F540.000
G1 X31.010 Y55.042 E1.32646
G1 X32.500 Y54.912 E1.36470
G1 X157.500 Y54.912 E4.56050
G1 X158.990 Y55.042 E4.59874
G1 X160.430 Y55.432 E4.63688
G1 X161.790 Y56.062 E4.67520
G1 X163.010 Y56.922 E4.71337
G1 X164.070 Y57.982 E4.75169
G1 X164.930 Y59.202 E4.78985
G1 X165.560 Y60.562 E4.82817
G1 X165.950 Y62.002 E4.86631
G1 X166.080 Y63.492 E4.90455
G1 X166.080 Y102.482 E5.90139
G1 X166.030 Y104.002 E5.94027
G1 X166.000 Y104.552 E5.95435
G1 X165.820 Y106.292 E5.99908
G1 X165.630 Y107.522 E6.03090
G1 X165.510 Y108.132 E6.04679
G1 X165.230 Y109.352 E6.07879
G1 X164.780 Y110.972 E6.12178
G1 X164.600 Y111.532 E6.13682
G1 X164.000 Y113.162 E6.18122
G1 X163.510 Y114.312 E6.21318
G1 X163.250 Y114.872 E6.22897
G1 X162.460 Y116.382 E6.27254
G1 X161.520 Y117.962 E6.31954
G1 X160.820 Y118.992 E6.35138
G1 X160.520 Y119.392 E6.36416
G1 X159.420 Y120.802 E6.40988
G1 X158.240 Y122.132 E6.45534
G1 X156.970 Y123.392 E6.50108
G1 X155.630 Y124.572 E6.54673
G1 X154.650 Y125.342 E6.57859
G1 X153.190 Y126.362 E6.62413
G1 X152.720 Y126.662 E6.63838
G1 X151.220 Y127.542 E6.68284
G1 X149.750 Y128.302 E6.72515
G1 X136.840 Y134.282 E7.08890
G1 X135.080 Y134.882 E7.13644
G1 X133.230 Y135.082 E7.18402
G1 X56.760 Y135.082 E9.13908
G1 X55.330 Y134.962 E9.17577
G1 X53.940 Y134.602 E9.21248
G1 X52.620 Y134.022 E9.24934
G1 X51.430 Y133.222 E9.28600
G1 X50.380 Y132.242 E9.32272
G1 X49.510 Y131.092 E9.35959
G1 X49.130 Y130.492 E9.37775
G1 X48.660 Y129.642 E9.40258
G1 X48.360 Y129.022 E9.42019
G1 X48.140 Y128.522 E9.43415
G1 X24.560 Y70.732 E11.02990
G1 X24.080 Y69.142 E11.07236
G1 X23.920 Y67.492 E11.11474
G1 X23.920 Y63.492 E11.21701
G1 X24.050 Y62.002 E11.25525
G1 X24.440 Y60.562 E11.29339
G1 X25.070 Y59.202 E11.33171
G1 X25.930 Y57.982 E11.36987
G1 X26.990 Y56.922 E11.40820
G1 X28.139 Y56.112 E11.44414
G1 F1800.000 E10.19414
G92 E0
G1 X30.223 Y57.996 F7800.000
G1 E1.25000 F1800.000
G1 X159.777 Y57.996 E4.56221 F540.000
G1 X162.996 Y61.216 E4.67862
G1 X162.996 Y69.769 E4.89729
G1 X159.777 Y72.989 E5.01370
G1 X138.335 Y72.989 E5.56188
G1 X137.996 Y73.328 E5.57414
G1 X137.996 Y76.683 E5.65992
G1 X138.322 Y77.019 E5.67190
G1 X139.187 Y77.052 E5.69403
G1 X140.610 Y77.187 E5.73057
G1 X142.193 Y77.432 E5.77152
G1 X143.757 Y77.776 E5.81247
G1 X145.297 Y78.218 E5.85342
G1 X146.966 Y78.819 E5.89878
G1 X148.434 Y79.460 E5.93973
G1 X149.858 Y80.192 E5.98068
G1 X151.234 Y81.012 E6.02163
G1 X152.556 Y81.916 E6.06258
G1 X153.818 Y82.902 E6.10353
G1 X155.016 Y83.966 E6.14448
G1 X156.145 Y85.102 E6.18543
G1 X157.090 Y86.174 E6.22197
G1 X158.076 Y87.436 E6.26292
G1 X158.981 Y88.758 E6.30387
G1 X159.801 Y90.134 E6.34482
G1 X160.533 Y91.559 E6.38577
G1 X161.174 Y93.026 E6.42672
G1 X161.722 Y94.532 E6.46767
G1 X162.217 Y96.235 E6.51303
G1 X162.561 Y97.800 E6.55398
G1 X162.806 Y99.383 E6.59493
G1 X162.951 Y100.978 E6.63588
G1 X162.996 Y102.578 E6.67681
G1 X162.941 Y104.169 E6.71750
G1 X162.787 Y105.752 E6.75818
G1 X162.534 Y107.323 E6.79886
G1 X162.184 Y108.875 E6.83954
G1 X161.738 Y110.403 E6.88022
G1 X161.197 Y111.899 E6.92090
G1 X160.565 Y113.359 E6.96159
G1 X159.842 Y114.777 E7.00227
G1 X159.032 Y116.147 E7.04295
G1 X158.138 Y117.463 E7.08363
G1 X157.164 Y118.721 E7.12431
G1 X156.114 Y119.916 E7.16499
G1 X154.990 Y121.044 E7.20567
G1 X153.799 Y122.098 E7.24636
G1 X152.544 Y123.077 E7.28704
G1 X151.375 Y123.883 E7.32334
G1 X150.014 Y124.706 E7.36402
G1 X148.604 Y125.444 E7.40470
G1 X146.992 Y126.156 E7.44976
G1 X145.497 Y126.702 E7.49044
G1 X143.971 Y127.154 E7.53113
G1 X142.589 Y127.476 E7.56742
G1 X140.850 Y127.768 E7.61249
G1 X139.438 Y127.915 E7.64879
G1 X138.923 Y127.942 E7.66197
G1 X138.663 Y128.105 E7.66982
G1 X138.218 Y128.918 E7.69350
G1 X136.593 Y131.448 E7.77039
G1 X131.999 Y132.352 E7.89009
G1 X127.682 Y129.330 E8.02482
G1 X127.318 Y129.330 E8.03415
G1 X122.985 Y132.363 E8.16936
G1 X118.360 Y131.425 E8.29002
G1 X116.526 Y128.470 E8.37893
G1 X115.986 Y127.351 E8.41068
G1 X115.642 Y126.437 E8.43566
G1 X115.307 Y125.230 E8.46768
G1 X115.094 Y123.996 E8.49969
G1 X115.006 Y122.747 E8.53171
G1 X115.043 Y121.495 E8.56373
G1 X115.068 Y121.221 E8.57077
G1 X115.258 Y119.983 E8.60279
G1 X115.491 Y119.034 E8.62777
G1 X115.570 Y118.771 E8.63481
G1 X116.003 Y117.595 E8.66683
G1 X116.453 Y116.651 E8.69357
G1 X121.771 Y106.726 E8.98146
G1 X123.972 Y105.213 E9.04974
G1 X137.711 Y103.466 E9.40383
G1 X137.839 Y103.429 E9.40722
G1 X138.024 Y103.340 E9.41247
G1 X138.257 Y103.140 E9.42032
G1 X138.373 Y102.971 E9.42557
G1 X138.444 Y102.810 E9.43006
G1 X138.478 Y102.682 E9.43345
G1 X138.496 Y102.478 E9.43869
G1 X138.456 Y102.207 E9.44569
G1 X138.316 Y101.922 E9.45382
G1 X138.107 Y101.703 E9.46156
G1 X137.904 Y101.582 E9.46757
G1 X137.739 Y101.528 E9.47203
G1 X135.997 Y101.237 E9.51716
G1 X134.674 Y100.940 E9.55183
G1 X133.018 Y100.450 E9.59599
G1 X131.737 Y99.978 E9.63090
G1 X130.322 Y99.354 E9.67043
G1 X128.794 Y98.550 E9.71458
G1 X127.630 Y97.835 E9.74949
G1 X126.365 Y96.946 E9.78903
G1 X125.025 Y95.857 E9.83318
G1 X124.024 Y94.928 E9.86809
G1 X122.958 Y93.808 E9.90762
G1 X121.857 Y92.478 E9.95178
G1 X120.955 Y91.218 E9.99139
G1 X120.223 Y90.047 E10.02668
G1 X119.414 Y88.542 E10.07037
G1 X118.847 Y87.300 E10.10528
G1 X118.294 Y85.856 E10.14481
G1 X117.790 Y84.204 E10.18897
G1 X117.478 Y82.875 E10.22387
G1 X117.219 Y81.351 E10.26341
G1 X117.061 Y79.812 E10.30294
G1 X117.004 Y78.222 E10.34363
G1 X117.004 Y73.328 E10.46876
G1 X116.665 Y72.989 E10.48102
G1 X73.335 Y72.989 E11.58881
G1 X72.996 Y73.328 E11.60106
G1 X72.996 Y76.683 E11.68685
G1 X73.322 Y77.019 E11.69883
G1 X74.187 Y77.052 E11.72095
G1 X75.781 Y77.208 E11.76190
G1 X77.362 Y77.464 E11.80285
G1 X78.924 Y77.819 E11.84380
G1 X80.461 Y78.271 E11.88475
G1 X81.966 Y78.819 E11.92571
G1 X83.434 Y79.460 E11.96666
G1 X84.858 Y80.192 E12.00760
G1 X86.234 Y81.012 E12.04856
G1 X87.556 Y81.916 E12.08951
G1 X88.818 Y82.902 E12.13046
G1 X90.016 Y83.966 E12.17141
G1 X91.145 Y85.102 E12.21236
G1 X92.200 Y86.307 E12.25331
G1 X93.178 Y87.576 E12.29426
G1 X94.073 Y88.904 E12.33521
G1 X94.884 Y90.285 E12.37616
G1 X95.606 Y91.715 E12.41711
G1 X96.237 Y93.187 E12.45806
G1 X96.722 Y94.532 E12.49459
G1 X97.217 Y96.235 E12.53996
G1 X97.561 Y97.800 E12.58091
G1 X97.806 Y99.383 E12.62186
G1 X97.940 Y100.805 E12.65839
G1 X97.996 Y102.406 E12.69934
G1 X97.952 Y103.997 E12.74004
G1 X97.808 Y105.582 E12.78072
G1 X97.534 Y107.323 E12.82579
G1 X97.184 Y108.875 E12.86647
G1 X96.738 Y110.403 E12.90715
G1 X96.260 Y111.740 E12.94345
G1 X95.637 Y113.204 E12.98413
G1 X94.924 Y114.626 E13.02481
G1 X94.123 Y116.001 E13.06549
G1 X93.239 Y117.324 E13.10617
G1 X92.273 Y118.589 E13.14685
G1 X91.230 Y119.791 E13.18753
G1 X90.115 Y120.925 E13.22822
G1 X88.799 Y122.098 E13.27328
G1 X87.544 Y123.077 E13.31396
G1 X86.375 Y123.883 E13.35026
G1 X85.014 Y124.706 E13.39094
G1 X83.604 Y125.444 E13.43162
G1 X81.992 Y126.156 E13.47669
G1 X80.497 Y126.702 E13.51737
G1 X78.971 Y127.154 E13.55805
G1 X77.589 Y127.476 E13.59435
G1 X75.850 Y127.768 E13.63941
G1 X74.438 Y127.915 E13.67571
G1 X73.923 Y127.942 E13.68889
G1 X73.663 Y128.105 E13.69674
G1 X73.218 Y128.918 E13.72043
G1 X71.593 Y131.448 E13.79732
G1 X66.999 Y132.352 E13.91701
G1 X62.682 Y129.330 E14.05174
G1 X62.318 Y129.330 E14.06107
G1 X57.985 Y132.363 E14.19628
G1 X53.360 Y131.425 E14.31694
G1 X51.526 Y128.470 E14.40586
G1 X50.986 Y127.351 E14.43760
G1 X50.642 Y126.437 E14.46258
G1 X50.307 Y125.230 E14.49460
G1 X50.094 Y123.996 E14.52662
G1 X50.006 Y122.747 E14.55863
G1 X50.043 Y121.495 E14.59065
G1 X50.068 Y121.221 E14.59770
G1 X50.258 Y119.983 E14.62971
G1 X50.491 Y119.034 E14.65469
G1 X50.570 Y118.771 E14.66174
G1 X51.003 Y117.595 E14.69375
G1 X51.453 Y116.651 E14.72049
G1 X56.771 Y106.726 E15.00839
G1 X58.972 Y105.213 E15.07666
G1 X72.478 Y103.507 E15.42470
G1 X72.740 Y103.459 E15.43153
G1 X72.933 Y103.389 E15.43677
G1 X73.084 Y103.299 E15.44126
G1 X73.237 Y103.162 E15.44651
G1 X73.359 Y102.997 E15.45176
G1 X73.444 Y102.810 E15.45701
G1 X73.489 Y102.610 E15.46225
G1 X73.491 Y102.377 E15.46820
G1 X73.456 Y102.207 E15.47264
G1 X73.360 Y101.990 E15.47871
G1 X73.236 Y101.822 E15.48405
G1 X73.022 Y101.644 E15.49116
G1 X72.836 Y101.555 E15.49642
G1 X70.997 Y101.237 E15.54413
G1 X69.674 Y100.940 E15.57880
G1 X68.018 Y100.450 E15.62296
G1 X66.737 Y99.978 E15.65787
G1 X65.322 Y99.354 E15.69740
G1 X63.794 Y98.550 E15.74155
G1 X62.630 Y97.835 E15.77646
G1 X61.365 Y96.946 E15.81600
G1 X60.025 Y95.857 E15.86015
G1 X59.024 Y94.928 E15.89506
G1 X57.958 Y93.808 E15.93459
G1 X56.857 Y92.478 E15.97875
G1 X55.955 Y91.218 E16.01836
G1 X55.223 Y90.047 E16.05365
G1 X54.414 Y88.542 E16.09734
G1 X53.847 Y87.300 E16.13225
G1 X53.294 Y85.856 E16.17178
G1 X52.790 Y84.204 E16.21593
G1 X52.478 Y82.875 E16.25084
G1 X52.219 Y81.351 E16.29038
G1 X52.061 Y79.812 E16.32991
G1 X52.004 Y78.222 E16.37060
G1 X52.004 Y73.328 E16.49573
G1 X51.665 Y72.989 E16.50799
G1 X30.223 Y72.989 E17.05617
G1 X27.004 Y69.769 E17.17258
G1 X27.004 Y61.216 E17.39125
G1 X30.162 Y58.058 E17.50544
G1 X30.463 Y58.575 F7800.000
G1 X94.537 Y58.575 E19.14358 F540.000
G1 X94.760 Y58.798 E19.15166
G1 X95.240 Y58.798 E19.16391
G1 X95.463 Y58.575 E19.17199
G1 X159.537 Y58.575 E20.81013
G1 X162.418 Y61.456 E20.91428
G1 X162.418 Y69.529 E21.12070
G1 X159.537 Y72.410 E21.22486
G1 X137.756 Y72.410 E21.78170
G1 X137.418 Y72.749 E21.79396
G1 X137.418 Y77.244 E21.90887
G1 X137.744 Y77.580 E21.92085
G1 X139.142 Y77.629 E21.95661
G1 X140.700 Y77.781 E21.99663
G1 X142.245 Y78.031 E22.03665
G1 X143.772 Y78.377 E22.07667
G1 X145.273 Y78.818 E22.11670
G1 X146.745 Y79.353 E22.15672
G1 X148.179 Y79.979 E22.19674
G1 X149.572 Y80.694 E22.23676
G1 X150.786 Y81.412 E22.27283
G1 X152.084 Y82.288 E22.31285
G1 X153.324 Y83.244 E22.35287
G1 X154.501 Y84.275 E22.39289
G1 X155.611 Y85.379 E22.43291
G1 X156.650 Y86.550 E22.47293
G1 X157.613 Y87.784 E22.51296
G1 X158.497 Y89.076 E22.55298
G1 X159.298 Y90.421 E22.59300
G1 X160.013 Y91.813 E22.63302
G1 X160.696 Y93.392 E22.67699
G1 X161.222 Y94.866 E22.71701
G1 X161.654 Y96.371 E22.75703
G1 X161.991 Y97.899 E22.79705
G1 X162.231 Y99.446 E22.83707
G1 X162.373 Y101.005 E22.87709
G1 X162.418 Y102.569 E22.91709
G1 X162.364 Y104.123 E22.95686
G1 X162.214 Y105.671 E22.99662
G1 X161.968 Y107.207 E23.03637
G1 X161.626 Y108.724 E23.07613
G1 X161.190 Y110.217 E23.11589
G1 X160.662 Y111.679 E23.15565
G1 X160.044 Y113.106 E23.19541
G1 X159.338 Y114.492 E23.23517
G1 X158.547 Y115.831 E23.27492
G1 X157.674 Y117.118 E23.31468
G1 X156.723 Y118.348 E23.35444
G1 X155.696 Y119.516 E23.39420
G1 X154.599 Y120.618 E23.43396
G1 X153.435 Y121.649 E23.47371
G1 X152.209 Y122.606 E23.51347
G1 X150.926 Y123.484 E23.55323
G1 X149.724 Y124.206 E23.58907
G1 X148.207 Y124.992 E23.63275
G1 X146.783 Y125.616 E23.67251
G1 X145.322 Y126.151 E23.71226
G1 X143.980 Y126.553 E23.74810
G1 X142.466 Y126.910 E23.78786
G1 X140.781 Y127.193 E23.83154
G1 X139.387 Y127.339 E23.86737
G1 X138.559 Y127.378 E23.88857
G1 X138.293 Y127.551 E23.89668
G1 X137.725 Y128.615 E23.92751
G1 X136.239 Y130.928 E23.99780
G1 X132.129 Y131.737 E24.10490
G1 X127.682 Y128.623 E24.24368
G1 X127.318 Y128.623 E24.25301
G1 X122.857 Y131.747 E24.39223
G1 X118.719 Y130.907 E24.50019
G1 X117.038 Y128.200 E24.58165
G1 X116.523 Y127.134 E24.61192
G1 X116.113 Y126.012 E24.64246
G1 X115.818 Y124.855 E24.67299
G1 X115.640 Y123.674 E24.70353
G1 X115.584 Y122.727 E24.72776
G1 X115.620 Y121.534 E24.75830
G1 X115.776 Y120.349 E24.78883
G1 X116.120 Y118.951 E24.82566
G1 X116.438 Y118.057 E24.84990
G1 X116.911 Y117.028 E24.87886
G1 X122.215 Y107.123 E25.16612
G1 X124.184 Y105.769 E25.22721
G1 X137.565 Y104.079 E25.57204
G1 X137.872 Y104.023 E25.58001
G1 X138.178 Y103.914 E25.58831
G1 X138.431 Y103.763 E25.59585
G1 X138.579 Y103.640 E25.60077
G1 X138.774 Y103.419 E25.60831
G1 X138.877 Y103.257 E25.61323
G1 X138.996 Y102.987 E25.62077
G1 X139.045 Y102.801 E25.62568
G1 X139.075 Y102.478 E25.63398
G1 X139.049 Y102.191 E25.64133
G1 X139.009 Y102.033 E25.64551
G1 X138.936 Y101.846 E25.65065
G1 X138.787 Y101.584 E25.65834
G1 X138.670 Y101.438 E25.66313
G1 X138.453 Y101.238 E25.67068
G1 X138.147 Y101.057 E25.67976
G1 X137.865 Y100.962 E25.68736
G1 X136.259 Y100.699 E25.72899
G1 X134.811 Y100.377 E25.76690
G1 X133.209 Y99.904 E25.80960
G1 X131.796 Y99.377 E25.84816
G1 X130.421 Y98.759 E25.88672
G1 X129.229 Y98.132 E25.92114
G1 X127.941 Y97.347 E25.95970
G1 X126.708 Y96.480 E25.99826
G1 X125.411 Y95.427 E26.04095
G1 X124.309 Y94.397 E26.07951
G1 X123.385 Y93.418 E26.11393
G1 X122.321 Y92.131 E26.15662
G1 X121.440 Y90.903 E26.19526
G1 X120.719 Y89.749 E26.23006
G1 X119.936 Y88.294 E26.27230
G1 X119.378 Y87.069 E26.30672
G1 X118.838 Y85.660 E26.34528
G1 X118.351 Y84.063 E26.38797
G1 X118.044 Y82.752 E26.42240
G1 X117.791 Y81.265 E26.46096
G1 X117.637 Y79.765 E26.49951
G1 X117.582 Y78.217 E26.53911
G1 X117.582 Y72.749 E26.67891
G1 X117.244 Y72.410 E26.69117
G1 X95.463 Y72.410 E27.24801
G1 X95.240 Y72.187 E27.25609
G1 X94.760 Y72.187 E27.26835
G1 X94.537 Y72.410 E27.27642
G1 X72.756 Y72.410 E27.83327
G1 X72.418 Y72.749 E27.84553
G1 X72.418 Y77.244 E27.96044
G1 X72.744 Y77.580 E27.97242
G1 X74.142 Y77.629 E28.00818
G1 X75.700 Y77.781 E28.04820
G1 X77.245 Y78.031 E28.08822
G1 X78.772 Y78.377 E28.12824
G1 X80.273 Y78.818 E28.16826
G1 X81.745 Y79.353 E28.20828
G1 X83.179 Y79.979 E28.24831
G1 X84.572 Y80.694 E28.28833
G1 X85.917 Y81.495 E28.32835
G1 X87.209 Y82.379 E28.36837
G1 X88.443 Y83.342 E28.40839
G1 X89.614 Y84.381 E28.44841
G1 X90.717 Y85.492 E28.48843
G1 X91.749 Y86.669 E28.52845
G1 X92.704 Y87.909 E28.56847
G1 X93.580 Y89.206 E28.60849
G1 X94.373 Y90.556 E28.64851
G1 X95.079 Y91.953 E28.68854
G1 X95.696 Y93.392 E28.72856
G1 X96.174 Y94.719 E28.76463
G1 X96.654 Y96.371 E28.80860
G1 X96.991 Y97.899 E28.84862
G1 X97.231 Y99.446 E28.88864
G1 X97.373 Y101.005 E28.92866
G1 X97.418 Y102.415 E28.96473
G1 X97.374 Y103.970 E29.00450
G1 X97.233 Y105.519 E29.04426
G1 X96.968 Y107.207 E29.08794
G1 X96.626 Y108.724 E29.12770
G1 X96.190 Y110.217 E29.16746
G1 X95.662 Y111.679 E29.20722
G1 X95.109 Y112.967 E29.24305
G1 X94.412 Y114.357 E29.28281
G1 X93.629 Y115.701 E29.32257
G1 X92.764 Y116.993 E29.36233
G1 X91.820 Y118.229 E29.40209
G1 X90.801 Y119.403 E29.44184
G1 X89.710 Y120.512 E29.48160
G1 X88.435 Y121.649 E29.52528
G1 X87.209 Y122.606 E29.56504
G1 X85.926 Y123.484 E29.60480
G1 X84.724 Y124.206 E29.64063
G1 X83.207 Y124.992 E29.68432
G1 X81.783 Y125.616 E29.72407
G1 X80.322 Y126.151 E29.76383
G1 X78.980 Y126.553 E29.79967
G1 X77.466 Y126.910 E29.83943
G1 X75.781 Y127.193 E29.88311
G1 X74.387 Y127.339 E29.91894
G1 X73.559 Y127.378 E29.94013
G1 X73.293 Y127.551 E29.94825
G1 X72.725 Y128.615 E29.97907
G1 X71.239 Y130.928 E30.04937
G1 X67.129 Y131.737 E30.15647
G1 X62.682 Y128.623 E30.29525
G1 X62.318 Y128.623 E30.30458
G1 X57.857 Y131.747 E30.44380
G1 X53.719 Y130.907 E30.55175
G1 X52.038 Y128.200 E30.63322
G1 X51.523 Y127.134 E30.66349
G1 X51.113 Y126.012 E30.69403
G1 X50.818 Y124.855 E30.72456
G1 X50.640 Y123.674 E30.75509
G1 X50.584 Y122.727 E30.77933
G1 X50.620 Y121.534 E30.80987
G1 X50.776 Y120.349 E30.84040
G1 X51.120 Y118.951 E30.87723
G1 X51.438 Y118.057 E30.90147
G1 X51.911 Y117.028 E30.93042
G1 X57.215 Y107.123 E31.21769
G1 X59.184 Y105.769 E31.27878
