; generated by Slic3r 0.9.9 on 2014-01-18 at 22:30:20

; layer_height = 0.4
; perimeters = 3
; top_solid_layers = 3
; bottom_solid_layers = 3
; fill_density = 0.4
; perimeter_speed = 30
; infill_speed = 60
; travel_speed = 130
; nozzle_diameter = 0.5
; filament_diameter = 3
; extrusion_multiplier = 1
; perimeters extrusion width = 0.53mm
; infill extrusion width = 0.53mm
; solid infill extrusion width = 0.53mm
; top infill extrusion width = 0.53mm
; first layer extrusion width = 0.60mm

G21 ; set units to millimeters
M190 S110 ; wait for bed temperature to be reached
M104 S205 ; set temperature
G28 ; home all axes
M109 S205 ; wait for temperature to be reached
G90 ; use absolute coordinates
G92 E0
M82 ; use absolute distances for extrusion
M106 S89
G1 F1800.000 E-4.00000
G92 E0
G1 Z0.300 F7800.000
G1 X33.309 Y34.166
G1 F1800.000 E4.00000
G1 X33.719 Y33.786 F540.000 E4.01373
G1 X34.339 Y33.276 E4.03344
G1 X34.799 Y32.946 E4.04734
G1 X35.279 Y32.646 E4.06124
G1 X38.429 Y31.096 E4.14744
G1 X39.249 Y30.796 E4.16888
G1 X40.149 Y30.576 E4.19163
G1 X40.689 Y30.466 E4.20516
G1 X62.909 Y27.006 E4.75732
G1 X63.919 Y26.926 E4.78220
G1 X98.519 Y26.926 E5.63177
G1 X99.019 Y26.946 E5.64406
G1 X136.909 Y29.826 E6.57709
G1 X137.439 Y29.886 E6.59019
G1 X137.969 Y29.996 E6.60348
G1 X138.489 Y30.146 E6.61677
G1 X138.999 Y30.336 E6.63013
G1 X139.479 Y30.566 E6.64320
G1 X139.949 Y30.836 E6.65651
G1 X140.389 Y31.146 E6.66972
G1 X140.809 Y31.496 E6.68315
G1 X141.189 Y31.866 E6.69617
G1 X141.549 Y32.276 E6.70957
G1 X141.869 Y32.706 E6.72273
G1 X142.279 Y33.406 E6.74265
G1 X159.869 Y71.866 E7.78108
G1 X160.239 Y72.906 E7.80818
G1 X161.089 Y76.066 E7.88853
G1 X161.239 Y76.746 E7.90563
G1 X161.309 Y77.426 E7.92241
G1 X161.319 Y81.066 E8.01179
G1 X161.299 Y81.616 E8.02530
G1 X161.229 Y82.166 E8.03892
G1 X149.929 Y135.306 E9.37289
G1 X149.859 Y135.566 E9.37950
G1 X149.669 Y136.096 E9.39332
G1 X149.569 Y136.346 E9.39994
G1 X149.319 Y136.846 E9.41366
G1 X149.029 Y137.316 E9.42722
G1 X148.529 Y137.986 E9.44775
G1 X147.939 Y138.576 E9.46824
G1 X146.599 Y139.766 E9.51224
G1 X145.879 Y140.276 E9.53391
G1 X145.619 Y140.426 E9.54128
G1 X145.089 Y140.686 E9.55577
G1 X101.369 Y159.966 E10.72902
G1 X100.469 Y160.286 E10.75247
G1 X93.419 Y162.236 E10.93208
G1 X93.079 Y162.326 E10.94071
G1 X92.729 Y162.386 E10.94943
G1 X92.379 Y162.436 E10.95812
G1 X91.669 Y162.476 E10.97558
G1 X84.409 Y162.526 E11.15384
G1 X83.639 Y162.486 E11.17277
G1 X43.139 Y158.016 E12.17325
G1 X42.429 Y157.896 E12.19093
G1 X41.519 Y157.686 E12.21386
G1 X40.959 Y157.516 E12.22823
G1 X40.419 Y157.286 E12.24264
G1 X37.519 Y155.916 E12.32140
G1 X37.039 Y155.636 E12.33504
G1 X36.579 Y155.316 E12.34880
G1 X36.069 Y154.926 E12.36456
G1 X35.599 Y154.526 E12.37972
G1 X34.959 Y153.846 E12.40265
G1 X32.929 Y151.326 E12.48210
G1 X32.759 Y151.086 E12.48932
G1 X32.449 Y150.576 E12.50398
G1 X31.909 Y149.486 E12.53385
G1 X31.699 Y148.936 E12.54830
G1 X31.539 Y148.376 E12.56260
G1 X30.799 Y145.246 E12.64157
G1 X30.749 Y144.966 E12.64856
G1 X30.689 Y144.406 E12.66239
G1 X28.679 Y45.346 E15.09521
G1 X28.669 Y44.376 E15.11903
G1 X28.719 Y43.766 E15.13405
G1 X28.769 Y43.456 E15.14176
G1 X29.519 Y40.026 E15.22797
G1 X29.599 Y39.746 E15.23512
G1 X29.799 Y39.206 E15.24926
G1 X30.319 Y38.096 E15.27936
G1 X30.459 Y37.836 E15.28661
G1 X30.779 Y37.336 E15.30119
G1 X32.759 Y34.786 E15.38046
G1 X33.249 Y34.229 E15.39868
G1 F1800.000 E11.39868
G92 E0
G1 X101.651 Y89.108 F7800.000
G1 F1800.000 E4.00000
G1 X100.198 Y86.592 F540.000 E4.07135
G1 X99.446 Y83.785 E4.14269
G1 X99.446 Y80.879 E4.21404
G1 X100.198 Y78.073 E4.28539
G1 X101.651 Y75.556 E4.35673
G1 X103.706 Y73.502 E4.42808
G1 X106.222 Y72.049 E4.49943
G1 X109.029 Y71.297 E4.57077
G1 X111.935 Y71.297 E4.64212
G1 X114.741 Y72.049 E4.71347
G1 X117.258 Y73.502 E4.78481
G1 X119.312 Y75.556 E4.85616
G1 X120.765 Y78.073 E4.92751
G1 X121.517 Y80.879 E4.99885
G1 X121.517 Y83.785 E5.07020
G1 X120.765 Y86.592 E5.14155
G1 X119.312 Y89.108 E5.21289
G1 X117.258 Y91.163 E5.28424
G1 X114.741 Y92.616 E5.35559
G1 X111.935 Y93.368 E5.42693
G1 X109.029 Y93.368 E5.49828
G1 X106.222 Y92.616 E5.56963
G1 X103.706 Y91.163 E5.64097
G1 X101.713 Y89.170 E5.71019
G1 X101.188 Y89.464 F7800.000
G1 X99.659 Y86.815 F540.000 E5.78528
G1 X98.868 Y83.861 E5.86036
G1 X98.868 Y80.803 E5.93545
G1 X99.659 Y77.849 E6.01054
G1 X101.188 Y75.201 E6.08562
G1 X103.351 Y73.039 E6.16071
G1 X105.999 Y71.510 E6.23580
G1 X108.953 Y70.718 E6.31089
G1 X112.011 Y70.718 E6.38597
G1 X114.965 Y71.510 E6.46106
G1 X117.613 Y73.039 E6.53615
G1 X119.775 Y75.201 E6.61123
G1 X121.304 Y77.849 E6.68632
G1 X122.096 Y80.803 E6.76141
G1 X122.096 Y83.861 E6.83649
G1 X121.304 Y86.815 E6.91158
G1 X119.775 Y89.463 E6.98667
G1 X117.613 Y91.626 E7.06176
G1 X114.965 Y93.155 E7.13684
G1 X112.011 Y93.946 E7.21193
G1 X108.953 Y93.946 E7.28702
G1 X105.999 Y93.155 E7.36210
G1 X103.351 Y91.626 E7.43719
G1 X101.250 Y89.525 E7.51015
G1 X100.725 Y89.819 F7800.000
G1 X99.120 Y87.038 F378.000 E7.58897
G1 X98.289 Y83.938 E7.66780
G1 X98.289 Y80.727 E7.74663
G1 X99.120 Y77.626 E7.82546
G1 X100.503 Y75.231 E7.89335
G1 X100.725 Y74.846 E7.90428
G1 X102.995 Y72.576 E7.98311
G1 X105.776 Y70.971 E8.06194
G1 X108.877 Y70.140 E8.14077
G1 X112.087 Y70.140 E8.21959
G1 X115.188 Y70.971 E8.29842
G1 X117.968 Y72.576 E8.37725
G1 X120.238 Y74.846 E8.45608
G1 X121.844 Y77.626 E8.53490
G1 X122.674 Y80.727 E8.61373
G1 X122.674 Y83.937 E8.69256
G1 X121.844 Y87.038 E8.77139
G1 X120.238 Y89.819 E8.85021
G1 X117.968 Y92.089 E8.92904
G1 X115.188 Y93.694 E9.00787
G1 X114.758 Y93.809 E9.01880
G1 X112.087 Y94.525 E9.08670
G1 X108.877 Y94.525 E9.16552
G1 X105.776 Y93.694 E9.24435
G1 X102.995 Y92.089 E9.32318
G1 X100.787 Y89.880 E9.39987
G1 X100.970 Y89.294 F7800.000
G1 X103.964 Y90.828
G1 X101.987 Y88.850 F1080.000 E9.46986
G1 X100.847 Y86.877 E9.52690
G1 X105.937 Y91.967 E9.70708
G1 X107.265 Y92.461 E9.74256
G1 X100.353 Y85.549 E9.98726
G1 X100.048 Y84.409 E10.01678
G1 X108.405 Y92.766 E10.31262
G1 X109.421 Y92.948 E10.33846
G1 X99.866 Y83.393 E10.67671
G1 X99.866 Y82.559 E10.69759
G1 X110.255 Y92.948 E11.06537
G1 X111.089 Y92.948 E11.08624
G1 X99.866 Y81.725 E11.48355
G1 X99.875 Y80.900 E11.50420
G1 X111.914 Y92.939 E11.93037
G1 X112.572 Y92.763 E11.94742
G1 X100.051 Y80.242 E12.39064
G1 X100.227 Y79.585 E12.40769
G1 X113.230 Y92.587 E12.86796
G1 X113.887 Y92.410 E12.88501
G1 X100.404 Y78.927 E13.36232
G1 X100.580 Y78.269 E13.37937
G1 X114.545 Y92.234 E13.87373
G1 X115.081 Y91.936 E13.88908
G1 X100.879 Y77.733 E14.39183
G1 X101.184 Y77.205 E14.40712
G1 X115.610 Y91.630 E14.91778
G1 X116.138 Y91.325 E14.93306
G1 X101.489 Y76.676 E15.45164
G1 X101.794 Y76.147 E15.46692
G1 X116.667 Y91.020 E15.99341
G1 X117.155 Y90.673 E16.00838
G1 X102.141 Y75.660 E16.53985
G1 X102.558 Y75.243 E16.55461
G1 X117.572 Y90.256 E17.08608
G1 X117.989 Y89.839 E17.10084
G1 X102.975 Y74.826 E17.63231
G1 X103.392 Y74.409 E17.64707
G1 X118.406 Y89.422 E18.17854
G1 X118.823 Y89.005 E18.19330
G1 X103.809 Y73.991 E18.72477
G1 X104.297 Y73.645 E18.73974
G1 X119.169 Y88.518 E19.26623
G1 X119.475 Y87.989 E19.28151
G1 X104.825 Y73.340 E19.80008
G1 X105.354 Y73.034 E19.81537
G1 X119.780 Y87.460 E20.32603
G1 X120.085 Y86.931 E20.34131
G1 X105.883 Y72.729 E20.84407
G1 X106.419 Y72.430 E20.85941
G1 X120.384 Y86.396 E21.35378
G1 X120.560 Y85.738 E21.37082
G1 X107.076 Y72.254 E21.84814
G1 X107.734 Y72.078 E21.86519
G1 X120.736 Y85.080 E22.32545
G1 X120.913 Y84.422 E22.34250
G1 X108.392 Y71.902 E22.78572
G1 X109.050 Y71.725 E22.80277
G1 X121.089 Y83.764 E23.22895
G1 X121.098 Y82.940 E23.24959
G1 X109.875 Y71.716 E23.64690
G1 X110.709 Y71.716 E23.66777
G1 X121.098 Y82.105 E24.03555
G1 X121.098 Y81.271 E24.05643
G1 X111.543 Y71.716 E24.39468
G1 X112.559 Y71.898 E24.42052
G1 X120.916 Y80.255 E24.71636
G1 X120.611 Y79.116 E24.74588
G1 X113.698 Y72.203 E24.99058
G1 X115.027 Y72.698 E25.02605
G1 X120.116 Y77.787 E25.20623
G1 X118.977 Y75.814 E25.26327
G1 X117.000 Y73.837 E25.33325
G1 F1800.000 E21.33325
G92 E0
G1 X117.863 Y72.768 F7800.000
G1 X122.464 Y80.788
G1 X130.297 Y77.850
G1 X147.313 Y68.517
G1 X146.525 Y69.145
G1 F1800.000 E4.00000
G1 X149.042 Y70.598 F540.000 E4.07135
G1 X151.096 Y72.652 E4.14269
G1 X152.549 Y75.169 E4.21404
G1 X153.301 Y77.976 E4.28539
G1 X153.301 Y80.534 E4.34820
G1 X153.301 Y80.881 E4.35673
G1 X152.549 Y83.688 E4.42808
G1 X151.096 Y86.204 E4.49943
G1 X149.042 Y88.259 E4.57077
G1 X146.525 Y89.712 E4.64212
G1 X143.719 Y90.464 E4.71347
G1 X140.813 Y90.464 E4.78481
G1 X138.006 Y89.712 E4.85616
G1 X135.490 Y88.259 E4.92751
G1 X133.435 Y86.204 E4.99885
G1 X131.982 Y83.688 E5.07020
G1 X131.230 Y80.881 E5.14155
G1 X131.230 Y77.976 E5.21289
G1 X131.982 Y75.169 E5.28424
G1 X133.435 Y72.652 E5.35559
G1 X135.490 Y70.598 E5.42693
G1 X138.006 Y69.145 E5.49828
G1 X140.813 Y68.393 E5.56963
G1 X143.719 Y68.393 E5.64097
G1 X146.441 Y69.122 E5.71019
G1 X146.749 Y68.606 F7800.000
G1 X149.397 Y70.135 F540.000 E5.78528
G1 X151.559 Y72.297 E5.86036
G1 X153.088 Y74.946 E5.93545
G1 X153.880 Y77.899 E6.01054
G1 X153.880 Y80.534 E6.07523
G1 X153.880 Y80.957 E6.08562
G1 X153.088 Y83.911 E6.16071
G1 X151.559 Y86.560 E6.23580
G1 X149.397 Y88.722 E6.31089
G1 X146.749 Y90.251 E6.38597
G1 X143.795 Y91.042 E6.46106
G1 X140.737 Y91.042 E6.53615
G1 X137.783 Y90.251 E6.61123
G1 X135.135 Y88.722 E6.68632
G1 X132.972 Y86.560 E6.76141
G1 X131.443 Y83.911 E6.83649
G1 X130.652 Y80.957 E6.91158
G1 X130.652 Y77.899 E6.98667
G1 X131.443 Y74.946 E7.06176
G1 X132.972 Y72.297 E7.13684
G1 X135.135 Y70.135 E7.21193
G1 X137.783 Y68.606 E7.28702
G1 X140.737 Y67.814 E7.36210
G1 X143.795 Y67.814 E7.43719
G1 X146.665 Y68.583 E7.51015
G1 X146.972 Y68.067 F7800.000
G1 X149.752 Y69.672 F378.000 E7.58897
G1 X152.022 Y71.942 E7.66780
G1 X153.627 Y74.722 E7.74663
G1 X154.458 Y77.823 E7.82546
G1 X154.458 Y80.534 E7.89202
G1 X154.458 Y81.034 E7.90428
G1 X153.627 Y84.135 E7.98311
G1 X152.022 Y86.915 E8.06194
G1 X149.752 Y89.185 E8.14077
G1 X146.972 Y90.790 E8.21959
G1 X143.871 Y91.621 E8.29842
G1 X140.661 Y91.621 E8.37725
G1 X137.560 Y90.790 E8.45608
G1 X134.779 Y89.185 E8.53490
G1 X132.509 Y86.915 E8.61373
G1 X130.904 Y84.135 E8.69256
G1 X130.073 Y81.034 E8.77139
G1 X130.073 Y77.823 E8.85021
G1 X130.904 Y74.722 E8.92904
G1 X132.509 Y71.942 E9.00787
G1 X134.779 Y69.672 E9.08670
G1 X137.560 Y68.067 E9.16552
G1 X140.661 Y67.236 E9.24435
G1 X143.871 Y67.236 E9.32318
G1 X146.888 Y68.044 E9.39987
G1 X147.022 Y68.643 F7800.000
G1 X148.784 Y70.933
G1 X150.761 Y72.910 F1080.000 E9.46986
G1 X151.900 Y74.884 E9.52690
G1 X146.811 Y69.794 E9.70707
G1 X145.482 Y69.300 E9.74255
G1 X152.395 Y76.212 E9.98724
G1 X152.700 Y77.351 E10.01677
G1 X144.343 Y68.994 E10.31260
G1 X143.327 Y68.812 E10.33844
G1 X152.882 Y78.367 E10.67669
G1 X152.882 Y79.202 E10.69757
G1 X142.493 Y68.812 E11.06535
G1 X141.659 Y68.812 E11.08623
G1 X152.882 Y80.036 E11.48353
G1 X152.873 Y80.860 E11.50418
G1 X140.834 Y68.821 E11.93035
G1 X140.176 Y68.998 E11.94740
G1 X152.697 Y81.518 E12.39062
G1 X152.520 Y82.176 E12.40767
G1 X139.518 Y69.174 E12.86794
G1 X138.860 Y69.350 E12.88499
G1 X152.344 Y82.834 E13.36230
G1 X152.168 Y83.492 E13.37935
G1 X138.202 Y69.527 E13.87371
G1 X137.667 Y69.825 E13.88906
G1 X151.869 Y84.027 E14.39181
G1 X151.564 Y84.556 E14.40709
G1 X137.138 Y70.130 E14.91776
G1 X136.609 Y70.436 E14.93304
G1 X151.259 Y85.085 E15.45161
G1 X150.953 Y85.614 E15.46690
G1 X136.081 Y70.741 E15.99338
G1 X135.593 Y71.088 E16.00836
G1 X150.607 Y86.101 E16.53982
G1 X150.190 Y86.518 E16.55459
G1 X135.176 Y71.505 E17.08605
G1 X134.759 Y71.922 E17.10082
G1 X149.773 Y86.935 E17.63228
G1 X149.355 Y87.352 E17.64705
G1 X134.342 Y72.339 E18.17851
G1 X133.925 Y72.756 E18.19328
G1 X148.938 Y87.769 E18.72474
G1 X148.451 Y88.116 E18.73972
G1 X133.578 Y73.243 E19.26620
G1 X133.273 Y73.772 E19.28149
G1 X147.922 Y88.421 E19.80006
G1 X147.393 Y88.726 E19.81534
G1 X132.968 Y74.301 E20.32601
G1 X132.662 Y74.830 E20.34129
G1 X146.865 Y89.032 E20.84404
G1 X146.329 Y89.330 E20.85939
G1 X132.364 Y75.365 E21.35375
G1 X132.188 Y76.023 E21.37080
G1 X145.671 Y89.507 E21.84812
G1 X145.014 Y89.683 E21.86516
G1 X132.011 Y76.681 E22.32543
G1 X131.835 Y77.339 E22.34248
G1 X144.356 Y89.859 E22.78570
G1 X143.698 Y90.035 E22.80275
G1 X131.659 Y77.996 E23.22893
G1 X131.650 Y78.821 E23.24958
G1 X142.873 Y90.045 E23.64688
G1 X142.039 Y90.045 E23.66776
G1 X131.650 Y79.655 E24.03554
G1 X131.650 Y80.489 E24.05641
G1 X141.205 Y90.045 E24.39467
G1 X140.189 Y89.863 E24.42051
G1 X131.832 Y81.505 E24.71634
G1 X132.137 Y82.645 E24.74587
G1 X139.049 Y89.557 E24.99057
G1 X137.721 Y89.063 E25.02604
G1 X132.631 Y83.973 E25.20622
G1 X133.771 Y85.947 E25.26326
G1 X135.748 Y87.924 E25.33325
G1 F1800.000 E21.33325
G92 E0
G1 X144.396 Y94.879 F7800.000
G1 X112.456 Y109.094
G1 X106.431 Y112.872
G1 F1800.000 E4.00000
G1 X109.868 Y118.119 F540.000 E4.15400
G1 X111.830 Y124.076 E4.30800
G1 X112.184 Y130.338 E4.46201
G1 X110.905 Y136.478 E4.61601
G1 X108.080 Y142.078 E4.77001
G1 X103.902 Y146.756 E4.92401
G1 X98.656 Y150.193 E5.07802
G1 X93.330 Y151.947 E5.21570
G1 X92.699 Y152.155 E5.23202
G1 X86.437 Y152.509 E5.38602
G1 X80.296 Y151.230 E5.54002
G1 X74.697 Y148.405 E5.69403
G1 X70.019 Y144.227 E5.84803
G1 X66.581 Y138.981 E6.00203
G1 X64.619 Y133.024 E6.15603
G1 X64.265 Y126.762 E6.31004
G1 X65.545 Y120.621 E6.46404
G1 X68.369 Y115.022 E6.61804
G1 X72.547 Y110.344 E6.77204
G1 X77.794 Y106.906 E6.92605
G1 X83.751 Y104.944 E7.08005
G1 X90.013 Y104.590 E7.23405
G1 X96.153 Y105.870 E7.38805
G1 X101.753 Y108.694 E7.54206
G1 X106.366 Y112.814 E7.69393
G1 X105.989 Y113.253 F7800.000
G1 X109.342 Y118.372 F540.000 E7.84419
G1 X111.257 Y124.184 E7.99445
G1 X111.602 Y130.294 E8.14471
G1 X110.354 Y136.285 E8.29498
G1 X107.598 Y141.749 E8.44524
G1 X103.521 Y146.313 E8.59550
G1 X98.402 Y149.667 E8.74576
G1 X93.149 Y151.398 E8.88158
G1 X92.590 Y151.582 E8.89602
G1 X86.480 Y151.927 E9.04629
G1 X80.489 Y150.679 E9.19655
G1 X75.025 Y147.923 E9.34681
G1 X70.461 Y143.846 E9.49707
G1 X67.107 Y138.727 E9.64733
G1 X65.192 Y132.915 E9.79760
G1 X64.847 Y126.805 E9.94786
G1 X66.096 Y120.814 E10.09812
G1 X68.852 Y115.350 E10.24838
G1 X72.928 Y110.786 E10.39864
G1 X78.047 Y107.432 E10.54891
G1 X83.859 Y105.517 E10.69917
G1 X89.969 Y105.172 E10.84943
G1 X95.960 Y106.420 E10.99969
G1 X101.424 Y109.177 E11.14995
G1 X105.924 Y113.195 E11.29809
G1 X105.546 Y113.634 F7800.000
G1 X108.817 Y118.625 F378.000 E11.44461
G1 X110.684 Y124.293 E11.59113
G1 X111.020 Y130.251 E11.73765
G1 X109.803 Y136.093 E11.88417
G1 X107.115 Y141.421 E12.03069
G1 X103.140 Y145.871 E12.17722
G1 X98.149 Y149.142 E12.32374
G1 X92.968 Y150.848 E12.45768
G1 X92.481 Y151.009 E12.47026
G1 X86.523 Y151.345 E12.61678
G1 X80.682 Y150.128 E12.76330
G1 X75.354 Y147.440 E12.90982
G1 X70.903 Y143.465 E13.05635
G1 X67.633 Y138.474 E13.20287
G1 X65.766 Y132.806 E13.34939
G1 X65.429 Y126.848 E13.49591
G1 X66.646 Y121.007 E13.64243
G1 X69.334 Y115.679 E13.78895
G1 X73.309 Y111.228 E13.93548
G1 X78.300 Y107.958 E14.08200
G1 X83.968 Y106.091 E14.22852
G1 X89.926 Y105.754 E14.37504
G1 X95.768 Y106.971 E14.52156
G1 X101.096 Y109.659 E14.66809
G1 X105.482 Y113.576 E14.81248
G1 X106.119 Y113.551 F7800.000
G1 X105.707 Y113.495
G1 X115.051 Y124.383
G1 X104.714 Y149.857
G1 X104.127 Y149.104
G1 X98.153 Y152.611 F540.000 E14.98257
G1 X97.767 Y152.718 E14.99241
G1 X91.475 Y154.452 E15.15267
G1 X84.547 Y154.502 E15.32277
G1 X77.843 Y152.758 E15.49286
G1 X71.819 Y149.337 E15.66296
G1 X66.885 Y144.474 E15.83305
G1 X63.379 Y138.500 E16.00315
G1 X63.272 Y138.114 E16.01299
G1 X61.537 Y131.822 E16.17325
G1 X61.487 Y124.894 E16.34334
G1 X63.232 Y118.190 E16.51344
G1 X66.652 Y112.166 E16.68354
G1 X71.515 Y107.233 E16.85363
G1 X77.490 Y103.726 E17.02373
G1 X77.876 Y103.619 E17.03357
G1 X84.168 Y101.884 E17.19383
G1 X91.095 Y101.834 E17.36392
G1 X97.799 Y103.579 E17.53402
G1 X103.823 Y106.999 E17.70411
G1 X108.757 Y111.862 E17.87421
G1 X112.264 Y117.837 E18.04431
G1 X114.105 Y124.515 E18.21440
G1 X114.155 Y131.442 E18.38450
G1 X112.411 Y138.146 E18.55460
G1 X108.990 Y144.170 E18.72469
G1 X104.188 Y149.042 E18.89266
