; generated by Slic3r 1.0.0RC3 on 2014-03-02 at 17:47:23

; layer_height = 0.25
; perimeters = 1
; top_solid_layers = 0
; bottom_solid_layers = 4
; fill_density = 0
; perimeter_speed = 30
; infill_speed = 60
; travel_speed = 130
; nozzle_diameter = 0.5
; filament_diameter = 2.94
; extrusion_multiplier = 1
; perimeters extrusion width = 0.50mm
; infill extrusion width = 0.84mm
; solid infill extrusion width = 0.84mm
; top infill extrusion width = 0.84mm
; first layer extrusion width = 0.40mm

G21 ; set units to millimeters
M107
M190 S110 ; wait for bed temperature to be reached
M104 S220 ; set temperature
G28 ; home all axes
M109 S220 ; wait for temperature to be reached
G90 ; use absolute coordinates
G92 E0
M82 ; use absolute distances for extrusion
G1 Z0.200 F7800.000
G1 F1800.000 E-1.25000
G92 E0
G1 X72.936 Y73.052 F7800.000
G1 E1.25000 F1800.000
G1 X73.656 Y72.352 E1.26247 F540.000
G1 X74.386 Y71.692 E1.27469
G1 X75.346 Y70.872 E1.29036
G1 X76.226 Y70.182 E1.30425
G1 X77.076 Y69.562 E1.31731
G1 X77.666 Y69.162 E1.32616
G1 X78.766 Y68.462 E1.34235
G1 X79.706 Y67.912 E1.35588
G1 X80.366 Y67.562 E1.36515
G1 X81.576 Y66.972 E1.38187
G1 X83.246 Y66.242 E1.40450
G1 X84.246 Y65.852 E1.41782
G1 X84.926 Y65.612 E1.42678
G1 X86.116 Y65.242 E1.44225
G1 X87.206 Y64.932 E1.45632
G1 X88.646 Y64.592 E1.47469
G1 X89.206 Y64.482 E1.48178
G1 X90.656 Y64.242 E1.50003
G1 X92.096 Y64.062 E1.51805
G1 X93.186 Y63.982 E1.53162
G1 X95.136 Y63.912 E1.55585
G1 X97.136 Y63.972 E1.58069
G1 X97.906 Y64.032 E1.59028
G1 X99.356 Y64.202 E1.60841
G1 X101.166 Y64.512 E1.63121
G1 X102.316 Y64.762 E1.64582
G1 X104.166 Y65.262 E1.66962
G1 X105.306 Y65.642 E1.68454
G1 X107.106 Y66.342 E1.70852
G1 X108.126 Y66.802 E1.72241
G1 X109.856 Y67.672 E1.74645
G1 X110.876 Y68.262 E1.76109
G1 X112.596 Y69.382 E1.78657
G1 X113.986 Y70.412 E1.80805
G1 X114.846 Y71.102 E1.82174
G1 X115.706 Y71.852 E1.83591
G1 X117.076 Y73.152 E1.85936
G1 X117.856 Y73.982 E1.87350
G1 X119.126 Y75.442 E1.89753
G1 X120.056 Y76.632 E1.91628
G1 X120.916 Y77.842 E1.93472
G1 X121.316 Y78.462 E1.94388
G1 X122.486 Y80.472 E1.97275
G1 X122.816 Y81.112 E1.98169
G1 X123.786 Y83.232 E2.01064
G1 X124.056 Y83.912 E2.01973
G1 X124.666 Y85.672 E2.04286
G1 X124.856 Y86.272 E2.05067
G1 X125.236 Y87.702 E2.06904
G1 X125.486 Y88.832 E2.08341
G1 X125.846 Y91.032 E2.11109
G1 X125.936 Y91.762 E2.12022
G1 X125.986 Y92.282 E2.12671
G1 X126.076 Y93.772 E2.14525
G1 X126.096 Y94.872 E2.15891
G1 X126.016 Y96.882 E2.18388
G1 X125.976 Y97.402 E2.19036
G1 X125.876 Y98.322 E2.20185
G1 X125.676 Y99.822 E2.22064
G1 X125.476 Y100.952 E2.23489
G1 X125.056 Y102.782 E2.25820
G1 X124.756 Y103.872 E2.27224
G1 X124.146 Y105.692 E2.29607
G1 X123.976 Y106.142 E2.30204
G1 X123.406 Y107.542 E2.32081
G1 X122.956 Y108.542 E2.33443
G1 X122.026 Y110.312 E2.35926
G1 X121.326 Y111.522 E2.37661
G1 X120.366 Y112.972 E2.39820
G1 X119.516 Y114.122 E2.41596
G1 X118.586 Y115.272 E2.43433
G1 X117.486 Y116.472 E2.45454
G1 X116.436 Y117.522 E2.47298
G1 X115.606 Y118.292 E2.48703
G1 X114.086 Y119.542 E2.51147
G1 X112.836 Y120.472 E2.53081
G1 X111.596 Y121.292 E2.54927
G1 X110.186 Y122.122 E2.56959
G1 X108.866 Y122.802 E2.58802
G1 X107.076 Y123.612 E2.61242
G1 X105.746 Y124.132 E2.63015
G1 X104.656 Y124.512 E2.64448
G1 X103.236 Y124.932 E2.66287
G1 X101.786 Y125.292 E2.68142
G1 X100.346 Y125.582 E2.69966
G1 X98.356 Y125.872 E2.72463
G1 X96.926 Y126.002 E2.74246
G1 X95.796 Y126.052 E2.75650
G1 X94.286 Y126.062 E2.77525
G1 X92.726 Y126.002 E2.79464
G1 X91.226 Y125.862 E2.81334
G1 X89.686 Y125.632 E2.83268
G1 X88.226 Y125.352 E2.85114
G1 X87.656 Y125.222 E2.85839
G1 X86.226 Y124.842 E2.87677
G1 X85.036 Y124.462 E2.89228
G1 X83.326 Y123.822 E2.91495
G1 X81.866 Y123.182 E2.93474
G1 X80.136 Y122.312 E2.95879
G1 X79.076 Y121.702 E2.97397
G1 X77.496 Y120.672 E2.99739
G1 X76.896 Y120.242 E3.00655
G1 X75.146 Y118.882 E3.03407
G1 X74.286 Y118.132 E3.04824
G1 X72.916 Y116.832 E3.07169
G1 X72.406 Y116.302 E3.08083
G1 X71.476 Y115.272 E3.09806
G1 X70.536 Y114.132 E3.11640
G1 X69.076 Y112.142 E3.14705
G1 X68.676 Y111.522 E3.15621
G1 X67.506 Y109.512 E3.18509
G1 X67.176 Y108.872 E3.19403
G1 X66.246 Y106.852 E3.22164
G1 X65.966 Y106.172 E3.23077
G1 X65.306 Y104.262 E3.25586
G1 X64.766 Y102.342 E3.28063
G1 X64.496 Y101.152 E3.29578
G1 X64.186 Y99.262 E3.31956
G1 X64.046 Y98.112 E3.33394
G1 X63.916 Y96.212 E3.35759
G1 X63.896 Y95.112 E3.37125
G1 X63.976 Y93.102 E3.39623
G1 X64.016 Y92.582 E3.40270
G1 X64.116 Y91.662 E3.41420
G1 X64.316 Y90.162 E3.43298
G1 X64.516 Y89.032 E3.44723
G1 X64.936 Y87.202 E3.47055
G1 X65.226 Y86.132 E3.48431
G1 X65.666 Y84.792 E3.50182
G1 X66.176 Y83.412 E3.52009
G1 X66.976 Y81.572 E3.54500
G1 X67.186 Y81.112 E3.55128
G1 X67.526 Y80.452 E3.56050
G1 X68.456 Y78.822 E3.58380
G1 X68.996 Y77.942 E3.59662
G1 X69.296 Y77.492 E3.60334
G1 X70.176 Y76.262 E3.62212
G1 X71.106 Y75.072 E3.64087
G1 X72.076 Y73.952 E3.65927
G1 X72.892 Y73.098 E3.67394
G1 F1800.000 E2.42394
G92 E0
G1 X74.602 Y74.665 F7800.000
G1 E1.25000 F1800.000
G1 X75.372 Y73.919 E1.26332 F540.000
G1 X76.083 Y73.280 E1.27519
G1 X76.726 Y72.744 E1.28557
G1 X77.447 Y72.169 E1.29703
G1 X78.208 Y71.601 E1.30882
G1 X79.057 Y71.018 E1.32161
G1 X79.793 Y70.546 E1.33246
G1 X80.617 Y70.057 E1.34436
G1 X81.477 Y69.594 E1.35649
G1 X82.465 Y69.106 E1.37017
G1 X84.031 Y68.422 E1.39139
G1 X84.967 Y68.052 E1.40389
G1 X85.873 Y67.736 E1.41580
G1 X86.688 Y67.485 E1.42639
G1 X87.685 Y67.199 E1.43926
G1 X89.300 Y66.823 E1.45986
G1 X91.096 Y66.517 E1.48248
G1 X92.196 Y66.378 E1.49625
G1 X93.227 Y66.288 E1.50910
G1 X94.921 Y66.229 E1.53014
G1 X95.987 Y66.237 E1.54337
G1 X96.928 Y66.282 E1.55508
G1 X97.789 Y66.352 E1.56581
G1 X98.886 Y66.472 E1.57951
G1 X100.634 Y66.758 E1.60150
G1 X101.677 Y66.981 E1.61474
G1 X103.420 Y67.453 E1.63716
G1 X104.398 Y67.773 E1.64994
G1 X106.072 Y68.414 E1.67220
G1 X107.037 Y68.836 E1.68527
G1 X108.657 Y69.647 E1.70777
G1 X109.573 Y70.171 E1.72087
G1 X110.977 Y71.073 E1.74159
G1 X112.447 Y72.147 E1.76420
G1 X113.319 Y72.836 E1.77800
G1 X114.070 Y73.485 E1.79032
G1 X115.254 Y74.601 E1.81052
G1 X116.072 Y75.447 E1.82513
G1 X117.151 Y76.680 E1.84548
G1 X118.286 Y78.127 E1.86831
G1 X118.863 Y78.938 E1.88068
G1 X119.474 Y79.884 E1.89466
G1 X120.391 Y81.454 E1.91723
G1 X120.856 Y82.359 E1.92987
G1 X121.550 Y83.870 E1.95051
G1 X121.989 Y84.970 E1.96521
G1 X122.532 Y86.542 E1.98586
G1 X123.064 Y88.516 E2.01126
G1 X123.275 Y89.524 E2.02404
G1 X123.558 Y91.294 E2.04630
G1 X123.675 Y92.340 E2.05937
G1 X123.782 Y94.149 E2.08187
G1 X123.787 Y95.205 E2.09497
G1 X123.696 Y97.020 E2.11754
G1 X123.598 Y97.980 E2.12952
G1 X123.355 Y99.763 E2.15187
G1 X123.165 Y100.756 E2.16442
G1 X122.755 Y102.475 E2.18636
G1 X122.467 Y103.470 E2.19923
G1 X121.878 Y105.184 E2.22172
G1 X121.253 Y106.728 E2.24241
G1 X120.829 Y107.655 E2.25507
G1 X119.972 Y109.277 E2.27784
G1 X119.414 Y110.231 E2.29158
G1 X118.904 Y111.024 E2.30328
G1 X117.863 Y112.493 E2.32563
G1 X116.729 Y113.890 E2.34797
G1 X115.924 Y114.787 E2.36294
G1 X114.756 Y115.955 E2.38344
G1 X113.997 Y116.646 E2.39619
G1 X112.592 Y117.795 E2.41873
G1 X111.773 Y118.407 E2.43142
G1 X110.262 Y119.414 E2.45396
G1 X109.364 Y119.948 E2.46694
G1 X107.556 Y120.879 E2.49220
G1 X105.969 Y121.572 E2.51370
G1 X105.149 Y121.899 E2.52465
G1 X104.231 Y122.224 E2.53675
G1 X102.537 Y122.736 E2.55872
G1 X101.544 Y122.987 E2.57144
G1 X99.788 Y123.339 E2.59368
G1 X97.967 Y123.598 E2.61652
G1 X96.975 Y123.693 E2.62888
G1 X95.851 Y123.749 E2.64286
G1 X94.195 Y123.761 E2.66342
G1 X93.162 Y123.719 E2.67625
G1 X91.361 Y123.554 E2.69871
G1 X90.189 Y123.384 E2.71342
G1 X88.345 Y123.019 E2.73676
G1 X86.728 Y122.585 E2.75755
G1 X85.602 Y122.221 E2.77224
G1 X84.053 Y121.631 E2.79283
G1 X82.963 Y121.158 E2.80757
G1 X81.343 Y120.347 E2.83007
G1 X80.427 Y119.823 E2.84318
G1 X79.035 Y118.929 E2.86371
G1 X78.118 Y118.272 E2.87772
G1 X76.695 Y117.170 E2.90007
G1 X75.930 Y116.509 E2.91262
G1 X74.746 Y115.394 E2.93282
G1 X73.979 Y114.603 E2.94649
G1 X73.308 Y113.856 E2.95897
G1 X72.166 Y112.463 E2.98134
G1 X71.078 Y110.971 E3.00426
G1 X70.526 Y110.110 E3.01696
G1 X69.609 Y108.540 E3.03954
G1 X69.143 Y107.635 E3.05217
G1 X68.388 Y105.980 E3.07475
G1 X68.011 Y105.024 E3.08752
G1 X67.405 Y103.245 E3.11086
G1 X66.972 Y101.627 E3.13165
G1 X66.753 Y100.624 E3.14440
G1 X66.461 Y98.833 E3.16693
G1 X66.340 Y97.818 E3.17962
G1 X66.223 Y96.006 E3.20217
G1 X66.210 Y94.961 E3.21514
G1 X66.291 Y93.137 E3.23781
G1 X66.391 Y92.111 E3.25061
G1 X66.619 Y90.390 E3.27217
G1 X66.805 Y89.378 E3.28495
G1 X67.209 Y87.655 E3.30692
G1 X67.510 Y86.596 E3.32059
G1 X67.822 Y85.641 E3.33307
G1 X68.457 Y83.955 E3.35544
G1 X69.128 Y82.431 E3.37611
G1 X69.614 Y81.471 E3.38947
G1 X70.492 Y79.918 E3.41163
G1 X71.045 Y79.045 E3.42446
G1 X72.089 Y77.568 E3.44691
G1 X72.730 Y76.748 E3.45984
G1 X73.897 Y75.399 E3.48198
G1 X74.558 Y74.711 E3.49383
G1 X74.902 Y74.961 F7800.000
G1 X75.657 Y74.229 E3.50689 F540.000
G1 X76.356 Y73.601 E3.51856
G1 X76.994 Y73.070 E3.52886
G1 X77.707 Y72.501 E3.54019
G1 X78.456 Y71.942 E3.55180
G1 X79.287 Y71.371 E3.56432
G1 X80.017 Y70.902 E3.57508
G1 X80.827 Y70.423 E3.58677
G1 X81.673 Y69.968 E3.59870
G1 X82.639 Y69.490 E3.61208
G1 X84.190 Y68.812 E3.63310
G1 X85.111 Y68.448 E3.64540
G1 X86.001 Y68.137 E3.65710
G1 X86.810 Y67.888 E3.66762
G1 X87.786 Y67.608 E3.68021
G1 X89.390 Y67.235 E3.70066
G1 X91.161 Y66.933 E3.72297
G1 X92.238 Y66.797 E3.73645
G1 X93.247 Y66.709 E3.74903
G1 X94.928 Y66.650 E3.76991
G1 X95.972 Y66.658 E3.78287
G1 X96.898 Y66.702 E3.79438
G1 X97.753 Y66.771 E3.80503
G1 X98.824 Y66.889 E3.81842
G1 X100.553 Y67.172 E3.84017
G1 X101.573 Y67.390 E3.85312
G1 X103.295 Y67.855 E3.87527
G1 X104.253 Y68.169 E3.88778
G1 X105.909 Y68.803 E3.90980
G1 X106.854 Y69.215 E3.92260
G1 X108.454 Y70.016 E3.94483
G1 X109.350 Y70.529 E3.95764
G1 X110.744 Y71.424 E3.97821
G1 X112.195 Y72.484 E4.00052
G1 X113.048 Y73.158 E4.01402
G1 X113.785 Y73.795 E4.02611
G1 X114.961 Y74.904 E4.04619
G1 X115.758 Y75.728 E4.06042
G1 X116.830 Y76.953 E4.08063
G1 X117.950 Y78.382 E4.10318
G1 X118.517 Y79.178 E4.11531
G1 X119.113 Y80.101 E4.12896
G1 X120.020 Y81.653 E4.15127
G1 X120.476 Y82.539 E4.16365
G1 X121.165 Y84.041 E4.18416
G1 X121.592 Y85.112 E4.19848
G1 X122.131 Y86.672 E4.21897
G1 X122.653 Y88.610 E4.24389
G1 X122.860 Y89.596 E4.25640
G1 X123.140 Y91.347 E4.27842
G1 X123.254 Y92.372 E4.29123
G1 X123.361 Y94.158 E4.31345
G1 X123.366 Y95.191 E4.32626
G1 X123.277 Y96.983 E4.34855
G1 X123.179 Y97.927 E4.36033
G1 X122.940 Y99.691 E4.38243
G1 X122.754 Y100.664 E4.39473
G1 X122.349 Y102.364 E4.41643
G1 X122.066 Y103.339 E4.42904
G1 X121.485 Y105.031 E4.45125
G1 X120.864 Y106.565 E4.47180
G1 X120.449 Y107.473 E4.48420
G1 X119.602 Y109.075 E4.50670
G1 X119.056 Y110.008 E4.52011
G1 X118.555 Y110.788 E4.53162
G1 X117.525 Y112.240 E4.55373
G1 X116.405 Y113.620 E4.57580
G1 X115.622 Y114.493 E4.59036
G1 X114.462 Y115.653 E4.61073
G1 X113.718 Y116.329 E4.62321
G1 X112.329 Y117.465 E4.64549
G1 X111.526 Y118.065 E4.65794
G1 X110.034 Y119.059 E4.68020
G1 X109.155 Y119.582 E4.69290
G1 X107.380 Y120.496 E4.71769
G1 X105.810 Y121.182 E4.73897
G1 X104.997 Y121.506 E4.74983
G1 X104.096 Y121.825 E4.76170
G1 X102.421 Y122.330 E4.78343
G1 X101.447 Y122.577 E4.79590
G1 X99.712 Y122.924 E4.81787
G1 X97.913 Y123.180 E4.84042
G1 X96.941 Y123.273 E4.85255
G1 X95.843 Y123.327 E4.86620
G1 X94.197 Y123.340 E4.88664
G1 X93.187 Y123.298 E4.89920
G1 X91.406 Y123.135 E4.92140
G1 X90.265 Y122.969 E4.93572
G1 X88.447 Y122.610 E4.95872
G1 X86.842 Y122.179 E4.97935
G1 X85.747 Y121.825 E4.99365
G1 X84.207 Y121.239 E5.01411
G1 X83.146 Y120.779 E5.02847
G1 X81.546 Y119.978 E5.05069
G1 X80.649 Y119.465 E5.06351
G1 X79.268 Y118.578 E5.08390
G1 X78.373 Y117.936 E5.09757
G1 X76.965 Y116.847 E5.11967
G1 X76.215 Y116.199 E5.13197
G1 X75.039 Y115.090 E5.15205
G1 X74.290 Y114.318 E5.16541
G1 X73.630 Y113.584 E5.17766
G1 X72.502 Y112.209 E5.19975
G1 X71.429 Y110.737 E5.22236
G1 X70.887 Y109.893 E5.23482
G1 X69.980 Y108.341 E5.25713
G1 X69.524 Y107.455 E5.26951
G1 X68.778 Y105.819 E5.29183
G1 X68.408 Y104.882 E5.30434
G1 X67.810 Y103.129 E5.32735
G1 X67.381 Y101.523 E5.34797
G1 X67.167 Y100.541 E5.36046
G1 X66.878 Y98.771 E5.38273
G1 X66.759 Y97.775 E5.39518
G1 X66.644 Y95.986 E5.41745
G1 X66.631 Y94.963 E5.43014
G1 X66.712 Y93.163 E5.45252
G1 X66.810 Y92.157 E5.46507
G1 X67.036 Y90.451 E5.48643
G1 X67.218 Y89.460 E5.49894
G1 X67.618 Y87.757 E5.52067
G1 X67.913 Y86.722 E5.53403
G1 X68.218 Y85.784 E5.54628
G1 X68.845 Y84.119 E5.56837
G1 X69.511 Y82.607 E5.58888
G1 X69.987 Y81.668 E5.60196
G1 X70.856 Y80.130 E5.62388
G1 X71.397 Y79.276 E5.63644
G1 X72.429 Y77.816 E5.65864
G1 X73.058 Y77.013 E5.67131
G1 X74.211 Y75.680 E5.69319
G1 X74.858 Y75.007 E5.70479
G1 X75.203 Y75.257 F7800.000
G1 X75.943 Y74.539 E5.71759 F540.000
G1 X76.629 Y73.922 E5.72905
G1 X77.262 Y73.395 E5.73927
G1 X77.967 Y72.833 E5.75047
G1 X78.705 Y72.282 E5.76190
G1 X79.518 Y71.724 E5.77415
G1 X80.241 Y71.259 E5.78483
G1 X81.037 Y70.788 E5.79631
G1 X81.869 Y70.341 E5.80804
G1 X82.812 Y69.874 E5.82111
G1 X84.349 Y69.202 E5.84193
G1 X85.255 Y68.844 E5.85402
G1 X86.129 Y68.539 E5.86552
G1 X86.933 Y68.292 E5.87596
G1 X87.887 Y68.018 E5.88829
G1 X89.479 Y67.647 E5.90858
G1 X91.226 Y67.350 E5.93059
G1 X92.280 Y67.216 E5.94378
G1 X93.268 Y67.130 E5.95609
G1 X94.936 Y67.072 E5.97681
G1 X95.957 Y67.079 E5.98949
G1 X96.867 Y67.122 E6.00081
G1 X97.716 Y67.191 E6.01138
G1 X98.763 Y67.306 E6.02446
G1 X100.471 Y67.585 E6.04595
G1 X101.470 Y67.798 E6.05863
G1 X103.170 Y68.258 E6.08050
G1 X104.108 Y68.565 E6.09275
G1 X105.746 Y69.191 E6.11453
G1 X106.671 Y69.595 E6.12706
G1 X108.252 Y70.386 E6.14901
G1 X109.128 Y70.886 E6.16153
G1 X110.511 Y71.775 E6.18194
G1 X111.942 Y72.821 E6.20396
G1 X112.777 Y73.481 E6.21717
G1 X113.499 Y74.105 E6.22902
G1 X114.668 Y75.207 E6.24898
G1 X115.444 Y76.010 E6.26283
G1 X116.509 Y77.226 E6.28290
G1 X117.615 Y78.638 E6.30517
G1 X118.170 Y79.418 E6.31706
G1 X118.752 Y80.319 E6.33038
G1 X119.648 Y81.852 E6.35242
G1 X120.095 Y82.720 E6.36455
G1 X120.779 Y84.212 E6.38493
G1 X121.195 Y85.254 E6.39886
G1 X121.730 Y86.803 E6.41921
G1 X122.242 Y88.703 E6.44365
G1 X122.445 Y89.668 E6.45589
G1 X122.721 Y91.401 E6.47767
G1 X122.834 Y92.404 E6.49020
G1 X122.940 Y94.168 E6.51215
G1 X122.944 Y95.177 E6.52467
G1 X122.857 Y96.946 E6.54667
G1 X122.761 Y97.875 E6.55826
G1 X122.525 Y99.618 E6.58011
G1 X122.343 Y100.571 E6.59216
G1 X121.942 Y102.253 E6.61362
G1 X121.666 Y103.209 E6.62597
G1 X121.092 Y104.878 E6.64789
G1 X120.475 Y106.402 E6.66831
G1 X120.069 Y107.291 E6.68045
G1 X119.232 Y108.873 E6.70267
G1 X118.699 Y109.784 E6.71577
G1 X118.207 Y110.551 E6.72709
G1 X117.188 Y111.987 E6.74895
G1 X116.082 Y113.350 E6.77074
G1 X115.320 Y114.199 E6.78491
G1 X114.168 Y115.351 E6.80514
G1 X113.440 Y116.013 E6.81736
G1 X112.067 Y117.135 E6.83937
G1 X111.279 Y117.724 E6.85158
G1 X109.806 Y118.705 E6.87356
G1 X108.946 Y119.216 E6.88598
G1 X107.205 Y120.113 E6.91030
G1 X105.651 Y120.792 E6.93136
G1 X104.845 Y121.112 E6.94212
G1 X103.961 Y121.426 E6.95377
G1 X102.304 Y121.925 E6.97526
G1 X101.350 Y122.167 E6.98748
G1 X99.636 Y122.510 E7.00918
G1 X97.860 Y122.762 E7.03145
G1 X96.907 Y122.853 E7.04334
G1 X95.836 Y122.906 E7.05666
G1 X94.200 Y122.918 E7.07698
G1 X93.211 Y122.877 E7.08926
G1 X91.451 Y122.715 E7.11121
G1 X90.340 Y122.554 E7.12515
G1 X88.549 Y122.201 E7.14781
G1 X86.957 Y121.774 E7.16828
G1 X85.892 Y121.429 E7.18217
G1 X84.361 Y120.846 E7.20252
G1 X83.329 Y120.399 E7.21649
G1 X81.748 Y119.608 E7.23843
G1 X80.872 Y119.108 E7.25096
G1 X79.500 Y118.226 E7.27121
G1 X78.627 Y117.600 E7.28454
G1 X77.235 Y116.523 E7.30640
G1 X76.501 Y115.889 E7.31844
G1 X75.331 Y114.787 E7.33840
G1 X74.600 Y114.032 E7.35145
G1 X73.952 Y113.312 E7.36347
G1 X72.838 Y111.955 E7.38528
G1 X71.780 Y110.503 E7.40759
G1 X71.248 Y109.675 E7.41980
G1 X70.352 Y108.142 E7.44185
G1 X69.905 Y107.274 E7.45397
G1 X69.167 Y105.658 E7.47603
G1 X68.804 Y104.740 E7.48829
G1 X68.215 Y103.012 E7.51095
G1 X67.789 Y101.420 E7.53142
G1 X67.580 Y100.458 E7.54364
G1 X67.294 Y98.708 E7.56566
G1 X67.178 Y97.732 E7.57787
