; generated by Slic3r 1.0.0RC3 on 2014-02-17 at 13:24:59

; layer_height = 0.1
; perimeters = 3
; top_solid_layers = 6
; bottom_solid_layers = 6
; fill_density = 0.4
; perimeter_speed = 30
; infill_speed = 60
; travel_speed = 130
; nozzle_diameter = 0.5
; filament_diameter = 2.94
; extrusion_multiplier = 1
; perimeters extrusion width = 0.50mm
; infill extrusion width = 1.98mm
; solid infill extrusion width = 0.85mm
; top infill extrusion width = 0.85mm
; first layer extrusion width = 0.40mm

G21 ; set units to millimeters
M190 S110 ; wait for bed temperature to be reached
M104 S220 ; set temperature
G28 ; home all axes
M109 S220 ; wait for temperature to be reached
G90 ; use absolute coordinates
G92 E0
M82 ; use absolute distances for extrusion
M106 S89
G1 F1800.000 E-1.25000
G92 E0
G1 Z0.200 F7800.000
G91 ; go to relative mode
G1 Z4 ; move up 4
G4 P5000 ;pause 5 seconds (5000 milliseconds)
G1 Z-4 ; move down 4
G90 ; go back to absolute mode
G1 X83.487 Y84.832 F7800.000
G1 E1.25000 F1800.000
G1 X84.107 Y84.262 E1.26046 F540.000
G1 X84.817 Y83.682 E1.27184
G1 X85.507 Y83.172 E1.28249
G1 X86.037 Y82.822 E1.29038
G1 X86.877 Y82.332 E1.30246
G1 X87.907 Y81.812 E1.31678
G1 X88.967 Y81.372 E1.33103
G1 X89.897 Y81.052 E1.34324
G1 X90.777 Y80.802 E1.35460
G1 X91.617 Y80.612 E1.36530
G1 X92.297 Y80.482 E1.37389
G1 X93.077 Y80.372 E1.38367
G1 X93.937 Y80.292 E1.39440
G1 X95.227 Y80.272 E1.41042
G1 X95.967 Y80.292 E1.41961
G1 X96.897 Y80.372 E1.43120
G1 X97.687 Y80.482 E1.44110
G1 X98.607 Y80.662 E1.45274
G1 X99.747 Y80.952 E1.46735
G1 X100.527 Y81.192 E1.47748
G1 X101.137 Y81.412 E1.48553
G1 X102.007 Y81.782 E1.49727
G1 X102.777 Y82.162 E1.50793
G1 X103.237 Y82.412 E1.51443
G1 X104.327 Y83.062 E1.53019
G1 X104.917 Y83.472 E1.53911
G1 X105.567 Y83.982 E1.54937
G1 X106.457 Y84.762 E1.56407
G1 X107.247 Y85.562 E1.57803
G1 X107.867 Y86.282 E1.58982
G1 X108.557 Y87.212 E1.60420
G1 X109.177 Y88.172 E1.61839
G1 X109.717 Y89.132 E1.63207
G1 X109.897 Y89.512 E1.63729
G1 X110.147 Y90.112 E1.64536
G1 X110.437 Y90.882 E1.65558
G1 X110.617 Y91.412 E1.66253
G1 X110.857 Y92.232 E1.67313
G1 X111.147 Y93.812 E1.69308
G1 X111.267 Y95.212 E1.71053
G1 X111.267 Y95.882 E1.71885
G1 X111.207 Y97.042 E1.73327
G1 X111.087 Y98.012 E1.74540
G1 X110.957 Y98.722 E1.75437
G1 X110.737 Y99.632 E1.76599
G1 X110.547 Y100.262 E1.77416
G1 X110.227 Y101.162 E1.78602
G1 X109.887 Y101.952 E1.79670
G1 X109.357 Y102.972 E1.81097
G1 X108.917 Y103.702 E1.82156
G1 X108.507 Y104.322 E1.83079
G1 X108.127 Y104.842 E1.83878
G1 X107.417 Y105.682 E1.85244
G1 X106.797 Y106.332 E1.86359
G1 X106.037 Y107.062 E1.87668
G1 X105.077 Y107.832 E1.89196
G1 X104.517 Y108.222 E1.90043
G1 X103.407 Y108.912 E1.91666
G1 X102.777 Y109.252 E1.92555
G1 X102.157 Y109.552 E1.93410
G1 X101.427 Y109.872 E1.94400
G1 X100.457 Y110.232 E1.95684
G1 X99.387 Y110.552 E1.97071
G1 X98.337 Y110.792 E1.98409
G1 X97.237 Y110.972 E1.99793
G1 X96.257 Y111.072 E2.01016
G1 X95.377 Y111.112 E2.02109
G1 X94.617 Y111.112 E2.03053
G1 X93.737 Y111.072 E2.04147
G1 X92.887 Y110.992 E2.05207
G1 X92.077 Y110.872 E2.06224
G1 X91.357 Y110.732 E2.07134
G1 X90.517 Y110.532 E2.08207
G1 X89.737 Y110.312 E2.09213
G1 X89.077 Y110.082 E2.10081
G1 X88.387 Y109.812 E2.11001
G1 X87.717 Y109.512 E2.11912
G1 X86.887 Y109.082 E2.13073
G1 X86.157 Y108.652 E2.14125
G1 X85.367 Y108.142 E2.15292
G1 X84.617 Y107.602 E2.16440
G1 X83.997 Y107.082 E2.17445
G1 X83.337 Y106.472 E2.18561
G1 X82.687 Y105.802 E2.19720
G1 X82.237 Y105.282 E2.20574
G1 X81.837 Y104.792 E2.21359
G1 X81.407 Y104.212 E2.22255
G1 X80.887 Y103.412 E2.23440
G1 X80.557 Y102.842 E2.24258
G1 X80.147 Y102.042 E2.25374
G1 X79.867 Y101.412 E2.26230
G1 X79.527 Y100.492 E2.27448
G1 X79.297 Y99.752 E2.28410
G1 X79.067 Y98.822 E2.29600
G1 X78.917 Y98.032 E2.30598
G1 X78.787 Y97.032 E2.31850
G1 X78.737 Y96.292 E2.32771
G1 X78.737 Y95.162 E2.34174
G1 X78.787 Y94.412 E2.35108
G1 X78.897 Y93.512 E2.36233
G1 X79.027 Y92.772 E2.37166
G1 X79.287 Y91.692 E2.38546
G1 X79.537 Y90.902 E2.39574
G1 X79.897 Y89.962 E2.40824
G1 X80.147 Y89.402 E2.41586
G1 X80.567 Y88.582 E2.42730
G1 X80.957 Y87.912 E2.43692
G1 X81.577 Y87.002 E2.45059
G1 X82.157 Y86.252 E2.46237
G1 X82.867 Y85.452 E2.47565
G1 X83.442 Y84.877 E2.48575
G1 F1800.000 E1.23575
G92 E0
G1 X85.226 Y86.354 F7800.000
G1 E1.25000 F1800.000
G1 X85.482 Y86.124 E1.25426 F540.000
G1 X86.438 Y85.357 E1.26948
G1 X87.455 Y84.668 E1.28474
G1 X87.766 Y84.487 E1.28921
G1 X89.138 Y83.793 E1.30830
G1 X89.523 Y83.630 E1.31349
G1 X90.802 Y83.190 E1.33029
G1 X91.110 Y83.102 E1.33426
G1 X92.248 Y82.839 E1.34877
G1 X93.587 Y82.646 E1.36556
G1 X94.573 Y82.591 E1.37783
G1 X95.142 Y82.588 E1.38489
G1 X96.088 Y82.618 E1.39664
G1 X97.510 Y82.791 E1.41442
G1 X97.856 Y82.857 E1.41880
G1 X99.317 Y83.226 E1.43751
G1 X99.613 Y83.317 E1.44135
G1 X100.516 Y83.645 E1.45328
G1 X100.817 Y83.772 E1.45734
G1 X102.017 Y84.368 E1.47397
G1 X102.907 Y84.893 E1.48681
G1 X103.965 Y85.648 E1.50294
G1 X104.693 Y86.269 E1.51483
G1 X105.210 Y86.759 E1.52366
G1 X106.258 Y87.951 E1.54337
G1 X106.520 Y88.301 E1.54881
G1 X107.363 Y89.615 E1.56819
G1 X107.561 Y89.973 E1.57327
G1 X107.941 Y90.802 E1.58460
G1 X108.243 Y91.579 E1.59494
G1 X108.487 Y92.307 E1.60448
G1 X108.730 Y93.299 E1.61716
G1 X108.919 Y94.487 E1.63210
G1 X108.957 Y94.939 E1.63772
G1 X108.966 Y95.937 E1.65012
G1 X108.904 Y97.054 E1.66401
G1 X108.860 Y97.413 E1.66850
G1 X108.666 Y98.474 E1.68190
G1 X108.584 Y98.814 E1.68623
G1 X108.294 Y99.768 E1.69861
G1 X108.180 Y100.082 E1.70276
G1 X107.688 Y101.231 E1.71828
G1 X107.488 Y101.619 E1.72371
G1 X106.705 Y102.882 E1.74215
G1 X106.131 Y103.659 E1.75415
G1 X105.887 Y103.949 E1.75886
G1 X104.905 Y104.970 E1.77645
G1 X104.182 Y105.615 E1.78847
G1 X103.599 Y106.065 E1.79762
G1 X102.606 Y106.716 E1.81236
G1 X101.560 Y107.285 E1.82715
G1 X100.378 Y107.823 E1.84327
G1 X100.005 Y107.963 E1.84822
G1 X98.548 Y108.401 E1.86711
G1 X98.154 Y108.492 E1.87213
G1 X96.677 Y108.730 E1.89071
G1 X96.322 Y108.766 E1.89513
G1 X94.875 Y108.818 E1.91312
G1 X93.706 Y108.768 E1.92764
G1 X93.396 Y108.739 E1.93152
G1 X91.987 Y108.519 E1.94922
G1 X90.710 Y108.195 E1.96557
G1 X90.088 Y107.993 E1.97370
G1 X89.441 Y107.750 E1.98227
G1 X88.518 Y107.338 E1.99483
G1 X88.226 Y107.188 E1.99891
G1 X87.274 Y106.634 E2.01257
G1 X86.499 Y106.124 E2.02410
G1 X85.705 Y105.509 E2.03656
G1 X84.808 Y104.694 E2.05161
G1 X84.544 Y104.423 E2.05631
G1 X83.752 Y103.486 E2.07155
G1 X83.162 Y102.684 E2.08391
G1 X82.983 Y102.410 E2.08798
G1 X82.485 Y101.552 E2.10030
G1 X82.335 Y101.259 E2.10438
G1 X81.920 Y100.326 E2.11706
G1 X81.800 Y100.009 E2.12126
G1 X81.456 Y98.928 E2.13535
G1 X81.364 Y98.562 E2.14004
G1 X81.149 Y97.406 E2.15464
G1 X81.103 Y97.041 E2.15921
G1 X81.032 Y95.920 E2.17315
G1 X81.032 Y95.530 E2.17799
G1 X81.102 Y94.417 E2.19184
G1 X81.143 Y94.077 E2.19609
G1 X81.340 Y92.970 E2.21005
G1 X81.437 Y92.576 E2.21510
G1 X81.801 Y91.431 E2.23001
G1 X81.922 Y91.114 E2.23422
G1 X82.501 Y89.875 E2.25121
G1 X83.056 Y88.918 E2.26495
G1 X83.280 Y88.584 E2.26993
G1 X84.102 Y87.518 E2.28665
G1 X84.355 Y87.230 E2.29141
G1 X85.182 Y86.398 E2.30597
G1 X85.517 Y86.659 F7800.000
G1 X85.755 Y86.445 E2.30994 F540.000
G1 X86.694 Y85.692 E2.32489
G1 X87.678 Y85.026 E2.33965
G1 X87.967 Y84.857 E2.34380
G1 X89.316 Y84.175 E2.36256
G1 X89.674 Y84.024 E2.36739
G1 X90.929 Y83.592 E2.38388
G1 X92.334 Y83.252 E2.40182
G1 X93.634 Y83.065 E2.41813
G1 X94.588 Y83.012 E2.42999
G1 X95.133 Y83.009 E2.43676
G1 X96.064 Y83.039 E2.44833
G1 X97.442 Y83.207 E2.46557
G1 X97.765 Y83.269 E2.46965
G1 X99.479 Y83.716 E2.49164
G1 X100.642 Y84.156 E2.50708
G1 X101.813 Y84.736 E2.52330
G1 X102.673 Y85.244 E2.53571
G1 X103.699 Y85.975 E2.55135
G1 X104.415 Y86.586 E2.56303
G1 X104.910 Y87.056 E2.57151
G1 X105.929 Y88.215 E2.59068
G1 X106.174 Y88.542 E2.59574
G1 X107.001 Y89.831 E2.61476
G1 X107.185 Y90.164 E2.61949
G1 X107.551 Y90.963 E2.63040
G1 X107.845 Y91.718 E2.64046
G1 X108.084 Y92.433 E2.64982
G1 X108.315 Y93.374 E2.66185
G1 X108.500 Y94.538 E2.67649
G1 X108.535 Y94.958 E2.68172
G1 X108.544 Y95.934 E2.69384
G1 X108.484 Y97.015 E2.70729
G1 X108.443 Y97.349 E2.71146
G1 X108.254 Y98.387 E2.72456
G1 X108.177 Y98.703 E2.72860
G1 X107.894 Y99.634 E2.74069
G1 X107.788 Y99.927 E2.74455
G1 X107.307 Y101.051 E2.75973
G1 X107.120 Y101.413 E2.76479
G1 X106.501 Y102.429 E2.77956
G1 X105.800 Y103.398 E2.79441
G1 X105.572 Y103.668 E2.79880
G1 X104.761 Y104.521 E2.81342
G1 X103.918 Y105.287 E2.82756
G1 X103.145 Y105.870 E2.83958
G1 X102.386 Y106.357 E2.85078
G1 X101.368 Y106.909 E2.86516
G1 X100.218 Y107.433 E2.88085
G1 X99.870 Y107.563 E2.88545
G1 X98.440 Y107.994 E2.90400
G1 X98.073 Y108.078 E2.90868
G1 X96.622 Y108.312 E2.92693
G1 X96.292 Y108.346 E2.93105
G1 X94.883 Y108.397 E2.94855
G1 X93.446 Y108.321 E2.96643
G1 X92.078 Y108.107 E2.98361
G1 X90.832 Y107.792 E2.99957
G1 X90.228 Y107.596 E3.00746
G1 X89.606 Y107.362 E3.01570
G1 X88.700 Y106.958 E3.02802
G1 X88.428 Y106.818 E3.03182
G1 X87.347 Y106.183 E3.04739
G1 X86.739 Y105.778 E3.05647
G1 X86.159 Y105.340 E3.06549
G1 X85.101 Y104.391 E3.08313
G1 X84.856 Y104.139 E3.08750
G1 X84.222 Y103.400 E3.09958
G1 X83.509 Y102.443 E3.11440
G1 X83.342 Y102.188 E3.11818
G1 X82.855 Y101.350 E3.13022
G1 X82.716 Y101.077 E3.13403
G1 X82.310 Y100.165 E3.14642
G1 X82.198 Y99.871 E3.15033
G1 X81.862 Y98.813 E3.16411
G1 X81.776 Y98.472 E3.16848
G1 X81.566 Y97.341 E3.18276
G1 X81.523 Y97.001 E3.18701
G1 X81.453 Y95.907 E3.20063
G1 X81.453 Y95.544 E3.20514
G1 X81.522 Y94.456 E3.21868
G1 X81.560 Y94.139 E3.22263
G1 X81.752 Y93.057 E3.23627
G1 X81.843 Y92.690 E3.24097
G1 X82.200 Y91.571 E3.25556
G1 X82.312 Y91.275 E3.25948
G1 X82.870 Y90.078 E3.27589
G1 X83.414 Y89.141 E3.28934
G1 X83.622 Y88.831 E3.29398
G1 X84.428 Y87.786 E3.31036
G1 X84.663 Y87.518 E3.31479
G1 X85.472 Y86.704 E3.32904
G1 X85.807 Y86.965 F7800.000
G1 X86.028 Y86.767 E3.33272 F540.000
G1 X86.950 Y86.027 E3.34740
G1 X87.900 Y85.384 E3.36165
G1 X88.168 Y85.228 E3.36550
G1 X89.493 Y84.558 E3.38393
G1 X89.825 Y84.418 E3.38840
G1 X91.056 Y83.994 E3.40456
G1 X92.419 Y83.665 E3.42197
G1 X93.680 Y83.484 E3.43780
G1 X94.602 Y83.433 E3.44926
G1 X96.041 Y83.460 E3.46713
G1 X97.375 Y83.623 E3.48382
G1 X97.674 Y83.681 E3.48760
G1 X99.345 Y84.116 E3.50904
G1 X100.467 Y84.539 E3.52392
G1 X101.608 Y85.105 E3.53974
G1 X102.440 Y85.596 E3.55173
G1 X103.433 Y86.302 E3.56687
G1 X104.136 Y86.902 E3.57835
G1 X104.611 Y87.353 E3.58647
G1 X105.601 Y88.480 E3.60510
G1 X105.827 Y88.782 E3.60978
G1 X106.638 Y90.046 E3.62844
G1 X106.809 Y90.355 E3.63282
G1 X107.162 Y91.124 E3.64332
G1 X107.447 Y91.857 E3.65309
G1 X107.682 Y92.558 E3.66227
G1 X107.901 Y93.449 E3.67366
G1 X108.082 Y94.589 E3.68799
G1 X108.114 Y94.978 E3.69283
G1 X108.123 Y95.930 E3.70466
G1 X108.064 Y96.977 E3.71768
G1 X108.027 Y97.286 E3.72154
G1 X107.841 Y98.299 E3.73434
G1 X107.771 Y98.592 E3.73807
G1 X107.494 Y99.501 E3.74987
G1 X107.396 Y99.772 E3.75345
G1 X106.925 Y100.871 E3.76830
G1 X106.753 Y101.207 E3.77298
G1 X106.146 Y102.201 E3.78744
G1 X105.468 Y103.137 E3.80179
G1 X105.258 Y103.387 E3.80585
G1 X104.461 Y104.225 E3.82021
G1 X103.653 Y104.958 E3.83375
G1 X102.910 Y105.520 E3.84532
G1 X102.165 Y105.997 E3.85631
G1 X101.176 Y106.534 E3.87028
G1 X100.057 Y107.043 E3.88554
G1 X99.736 Y107.163 E3.88980
G1 X98.332 Y107.586 E3.90800
G1 X97.992 Y107.664 E3.91234
G1 X96.567 Y107.894 E3.93027
G1 X96.261 Y107.925 E3.93408
G1 X94.892 Y107.975 E3.95109
G1 X93.496 Y107.902 E3.96845
G1 X92.170 Y107.696 E3.98511
G1 X90.954 Y107.388 E4.00069
G1 X89.943 Y107.044 E4.01394
G1 X88.882 Y106.577 E4.02833
G1 X88.630 Y106.448 E4.03185
G1 X87.575 Y105.828 E4.04704
G1 X86.978 Y105.431 E4.05595
G1 X86.423 Y105.011 E4.06459
G1 X85.394 Y104.088 E4.08175
G1 X85.167 Y103.854 E4.08580
G1 X84.547 Y103.132 E4.09762
G1 X83.855 Y102.203 E4.11200
G1 X83.701 Y101.967 E4.11550
G1 X83.096 Y100.896 E4.13078
G1 X82.596 Y99.732 E4.14650
G1 X82.268 Y98.698 E4.15998
G1 X82.188 Y98.382 E4.16402
G1 X81.982 Y97.276 E4.17799
G1 X81.943 Y96.962 E4.18192
G1 X81.875 Y95.893 E4.19521
G1 X81.874 Y95.557 E4.19939
G1 X81.942 Y94.494 E4.21261
G1 X81.977 Y94.201 E4.21628
G1 X82.165 Y93.145 E4.22960
G1 X82.249 Y92.805 E4.23395
G1 X82.598 Y91.710 E4.24822
G1 X82.702 Y91.436 E4.25185
G1 X83.239 Y90.281 E4.26767
G1 X83.771 Y89.365 E4.28083
G1 X83.964 Y89.077 E4.28513
G1 X84.754 Y88.054 E4.30118
G1 X84.971 Y87.805 E4.30528
G1 X85.763 Y87.009 E4.31921
G1 X86.098 Y87.270 F7800.000
G1 X87.207 Y86.361 E4.33701 F540.000
G1 X88.123 Y85.742 E4.35075
G1 X88.369 Y85.598 E4.35429
G1 X89.670 Y84.941 E4.37239
G1 X89.975 Y84.812 E4.37650
G1 X91.182 Y84.396 E4.39235
G1 X92.504 Y84.078 E4.40923
G1 X93.727 Y83.903 E4.42457
G1 X94.616 Y83.855 E4.43563
G1 X96.017 Y83.881 E4.45302
G1 X97.308 Y84.040 E4.46917
G1 X97.582 Y84.092 E4.47264
G1 X99.211 Y84.516 E4.49354
G1 X100.291 Y84.923 E4.50787
G1 X101.404 Y85.474 E4.52329
G1 X102.207 Y85.947 E4.53485
G1 X103.168 Y86.630 E4.54949
G1 X103.858 Y87.219 E4.56076
G1 X104.312 Y87.650 E4.56853
G1 X105.272 Y88.744 E4.58661
G1 X105.480 Y89.022 E4.59093
G1 X106.276 Y90.262 E4.60922
G1 X106.433 Y90.546 E4.61325
G1 X106.772 Y91.284 E4.62333
G1 X107.049 Y91.996 E4.63282
G1 X107.280 Y92.684 E4.64183
G1 X107.486 Y93.524 E4.65256
G1 X107.663 Y94.639 E4.66659
G1 X107.693 Y94.997 E4.67105
G1 X107.701 Y95.926 E4.68259
G1 X107.644 Y96.938 E4.69516
G1 X107.610 Y97.222 E4.69872
G1 X107.429 Y98.212 E4.71121
G1 X107.094 Y99.367 E4.72615
G1 X106.544 Y100.692 E4.74396
G1 X106.385 Y101.000 E4.74827
G1 X105.791 Y101.974 E4.76242
G1 X105.137 Y102.876 E4.77626
G1 X104.944 Y103.106 E4.77999
G1 X104.161 Y103.929 E4.79410
G1 X103.389 Y104.630 E4.80704
G1 X102.674 Y105.170 E4.81816
G1 X101.945 Y105.638 E4.82892
G1 X100.984 Y106.159 E4.84249
G1 X99.897 Y106.653 E4.85732
G1 X99.601 Y106.764 E4.86124
G1 X98.224 Y107.178 E4.87910
G1 X97.911 Y107.250 E4.88309
G1 X96.512 Y107.476 E4.90069
G1 X96.231 Y107.505 E4.90420
G1 X94.901 Y107.554 E4.92072
G1 X93.546 Y107.483 E4.93757
G1 X92.261 Y107.284 E4.95371
G1 X91.075 Y106.985 E4.96890
G1 X90.094 Y106.650 E4.98176
G1 X89.064 Y106.197 E4.99574
G1 X88.832 Y106.078 E4.99897
G1 X87.803 Y105.474 E5.01379
G1 X87.218 Y105.084 E5.02252
G1 X86.687 Y104.682 E5.03079
G1 X85.687 Y103.785 E5.04747
G1 X85.478 Y103.570 E5.05120
G1 X84.872 Y102.863 E5.06276
G1 X84.202 Y101.963 E5.07669
G1 X84.060 Y101.746 E5.07992
G1 X83.477 Y100.714 E5.09463
G1 X82.994 Y99.593 E5.10978
G1 X82.673 Y98.582 E5.12295
G1 X82.600 Y98.292 E5.12667
G1 X82.399 Y97.211 E5.14031
G1 X82.363 Y96.922 E5.14393
G1 X82.296 Y95.880 E5.15690
G1 X82.296 Y95.570 E5.16074
G1 X82.362 Y94.533 E5.17365
G1 X82.577 Y93.232 E5.19002
G1 X82.654 Y92.920 E5.19402
G1 X83.091 Y91.597 E5.21131
G1 X83.608 Y90.485 E5.22654
G1 X84.129 Y89.588 E5.23942
G1 X84.306 Y89.324 E5.24337
G1 X85.079 Y88.322 E5.25908
G1 X85.280 Y88.093 E5.26286
G1 X86.053 Y87.315 E5.27648
G1 X86.388 Y87.576 F7800.000
G1 X87.463 Y86.696 E5.29372 F540.000
G1 X88.346 Y86.100 E5.30695
G1 X88.571 Y85.969 E5.31019
G1 X89.847 Y85.323 E5.32795
G1 X90.126 Y85.206 E5.33171
G1 X91.309 Y84.799 E5.34724
G1 X92.589 Y84.491 E5.36358
G1 X93.774 Y84.322 E5.37844
G1 X94.631 Y84.276 E5.38910
G1 X95.993 Y84.302 E5.40601
G1 X97.240 Y84.456 E5.42162
G1 X97.491 Y84.504 E5.42479
G1 X99.078 Y84.916 E5.44515
G1 X100.116 Y85.306 E5.45892
G1 X101.200 Y85.842 E5.47393
G1 X101.973 Y86.298 E5.48507
G1 X102.902 Y86.957 E5.49922
G1 X103.580 Y87.535 E5.51028
G1 X104.012 Y87.946 E5.51769
G1 X104.944 Y89.009 E5.53523
G1 X105.134 Y89.262 E5.53917
G1 X105.914 Y90.478 E5.55710
G1 X106.057 Y90.737 E5.56078
G1 X106.382 Y91.445 E5.57045
G1 X106.651 Y92.135 E5.57965
G1 X106.877 Y92.810 E5.58848
G1 X107.071 Y93.598 E5.59857
G1 X107.244 Y94.690 E5.61229
G1 X107.271 Y95.017 E5.61636
G1 X107.280 Y95.923 E5.62761
G1 X107.225 Y96.899 E5.63975
G1 X107.017 Y98.124 E5.65518
G1 X106.695 Y99.234 E5.66953
G1 X106.162 Y100.512 E5.68672
G1 X106.017 Y100.794 E5.69066
G1 X105.436 Y101.747 E5.70451
G1 X104.806 Y102.615 E5.71783
G1 X104.629 Y102.825 E5.72124
G1 X103.861 Y103.633 E5.73509
G1 X103.124 Y104.302 E5.74744
G1 X102.439 Y104.820 E5.75811
G1 X101.725 Y105.279 E5.76865
