; generated by Slic3r 1.0.0RC3 on 2014-03-06 at 20:03:42

; layer_height = 0.25
; perimeters = 3
; top_solid_layers = 4
; bottom_solid_layers = 4
; fill_density = 0.4
; perimeter_speed = 30
; infill_speed = 60
; travel_speed = 130
; nozzle_diameter = 0.5
; filament_diameter = 2.94
; extrusion_multiplier = 1
; perimeters extrusion width = 0.50mm
; infill extrusion width = 0.84mm
; solid infill extrusion width = 0.84mm
; top infill extrusion width = 0.84mm

G21 ; set units to millimeters
M107
M190 S110 ; wait for bed temperature to be reached
M104 S220 ; set temperature
G28 ; home all axes
M109 S220 ; wait for temperature to be reached
G90 ; use absolute coordinates
G92 E0
M82 ; use absolute distances for extrusion
G1 F600.000 E-1.00000
G92 E0
G1 Z0.200 F7800.000
G1 X74.348 Y86.316 F7800.000
G1 E1.00000 F600.000
G1 X75.258 Y85.606 E1.01700 F540.000
G1 X75.898 Y85.186 E1.02828
G1 X77.498 Y84.316 E1.05511
G1 X78.258 Y83.976 E1.06737
G1 X79.898 Y83.386 E1.09304
G1 X80.848 Y83.116 E1.10759
G1 X81.678 Y82.956 E1.12004
G1 X83.218 Y82.786 E1.14287
G1 X83.818 Y82.756 E1.15172
G1 X105.998 Y82.756 E1.47844
G1 X106.488 Y82.776 E1.48566
G1 X107.898 Y82.916 E1.50653
G1 X109.238 Y83.156 E1.52659
G1 X110.128 Y83.386 E1.54013
G1 X110.648 Y83.556 E1.54818
G1 X111.518 Y83.876 E1.56184
G1 X112.098 Y84.126 E1.57114
G1 X113.238 Y84.716 E1.59005
G1 X114.368 Y85.376 E1.60933
G1 X115.118 Y85.886 E1.62269
G1 X115.778 Y86.446 E1.63544
G1 X116.238 Y86.956 E1.64556
G1 X116.658 Y87.486 E1.65552
G1 X117.248 Y88.306 E1.67040
G1 X117.628 Y88.906 E1.68086
G1 X117.968 Y89.576 E1.69193
G1 X118.428 Y90.626 E1.70881
G1 X118.708 Y91.426 E1.72130
G1 X118.928 Y92.326 E1.73495
G1 X119.108 Y93.296 E1.74948
G1 X119.198 Y94.166 E1.76236
G1 X119.218 Y95.016 E1.77489
G1 X119.208 Y95.506 E1.78211
G1 X118.988 Y97.016 E1.80458
G1 X118.898 Y97.506 E1.81192
G1 X118.698 Y98.306 E1.82407
G1 X118.538 Y98.826 E1.83208
G1 X118.328 Y99.326 E1.84007
G1 X117.798 Y100.446 E1.85832
G1 X117.438 Y101.116 E1.86953
G1 X117.108 Y101.616 E1.87835
G1 X116.788 Y102.056 E1.88637
G1 X116.288 Y102.676 E1.89810
G1 X115.868 Y103.146 E1.90738
G1 X115.258 Y103.746 E1.91999
G1 X114.838 Y104.116 E1.92823
G1 X114.078 Y104.726 E1.94259
G1 X113.298 Y105.246 E1.95640
G1 X112.358 Y105.766 E1.97222
G1 X111.868 Y106.016 E1.98032
G1 X111.378 Y106.226 E1.98818
G1 X110.828 Y106.426 E1.99680
G1 X109.758 Y106.756 E2.01329
G1 X109.198 Y106.896 E2.02179
G1 X108.538 Y107.026 E2.03170
G1 X107.548 Y107.176 E2.04645
G1 X106.828 Y107.226 E2.05708
G1 X106.268 Y107.236 E2.06534
G1 X83.958 Y107.236 E2.39397
G1 X82.648 Y107.186 E2.41328
G1 X81.898 Y107.096 E2.42441
G1 X81.168 Y106.966 E2.43533
G1 X80.418 Y106.796 E2.44666
G1 X79.878 Y106.636 E2.45496
G1 X78.468 Y106.136 E2.47699
G1 X77.688 Y105.796 E2.48953
G1 X77.148 Y105.506 E2.49856
G1 X76.498 Y105.096 E2.50988
G1 X75.368 Y104.266 E2.53053
G1 X74.838 Y103.836 E2.54058
G1 X74.208 Y103.206 E2.55371
G1 X73.828 Y102.776 E2.56216
G1 X73.128 Y101.876 E2.57896
G1 X72.728 Y101.276 E2.58958
G1 X72.018 Y100.066 E2.61024
G1 X71.738 Y99.526 E2.61920
G1 X71.518 Y98.956 E2.62820
G1 X71.218 Y98.016 E2.64274
G1 X71.028 Y97.206 E2.65499
G1 X70.868 Y96.196 E2.67006
G1 X70.798 Y95.506 E2.68027
G1 X70.788 Y95.176 E2.68514
G1 X70.808 Y94.526 E2.69472
G1 X70.918 Y93.266 E2.71335
G1 X71.058 Y92.416 E2.72604
G1 X71.298 Y91.456 E2.74061
G1 X71.568 Y90.656 E2.75305
G1 X71.858 Y89.966 E2.76408
G1 X72.168 Y89.336 E2.77442
G1 X72.608 Y88.576 E2.78735
G1 X73.278 Y87.576 E2.80508
G1 X73.638 Y87.106 E2.81381
G1 X74.297 Y86.371 E2.82835
G1 F600.000 E1.82835
G92 E0
G1 X76.287 Y88.236 F7800.000
G1 E1.00000 F600.000
G1 X76.671 Y87.999 E1.00665 F540.000
G1 X77.032 Y87.705 E1.01351
G1 X77.570 Y87.432 E1.02240
G1 X77.666 Y87.407 E1.02386
G1 X77.778 Y87.345 E1.02575
G1 X77.884 Y87.243 E1.02792
G1 X78.914 Y86.688 E1.04515
G1 X79.104 Y86.604 E1.04820
G1 X80.933 Y85.950 E1.07682
G1 X81.823 Y85.718 E1.09036
G1 X83.586 Y85.522 E1.11649
G1 X84.031 Y85.509 E1.12305
G1 X85.310 Y85.616 E1.14196
G1 X86.397 Y85.791 E1.15818
G1 X87.067 Y85.983 E1.16844
G1 X87.589 Y86.104 E1.17634
G1 X88.789 Y86.549 E1.19519
G1 X90.060 Y87.192 E1.21618
G1 X90.139 Y87.265 E1.21776
G1 X90.595 Y87.540 E1.22560
G1 X90.771 Y87.601 E1.22834
G1 X91.531 Y88.119 E1.24189
G1 X91.751 Y88.304 E1.24614
G1 X91.998 Y88.549 E1.25124
G1 X92.568 Y89.281 E1.26491
G1 X93.899 Y91.127 E1.29844
G1 X93.817 Y91.334 E1.30173
G1 X93.820 Y91.535 E1.30469
G1 X94.021 Y92.032 E1.31258
G1 X94.200 Y92.705 E1.32284
G1 X94.291 Y93.263 E1.33118
G1 X94.416 Y93.862 E1.34018
G1 X94.444 Y94.108 E1.34384
G1 X94.472 Y95.205 E1.36000
G1 X94.456 Y95.448 E1.36358
G1 X94.271 Y96.662 E1.38167
G1 X93.993 Y97.787 E1.39874
G1 X93.903 Y98.039 E1.40269
G1 X93.290 Y99.336 E1.42381
G1 X93.043 Y99.760 E1.43104
G1 X92.755 Y100.201 E1.43880
G1 X92.380 Y100.645 E1.44736
G1 X92.204 Y100.899 E1.45191
G1 X92.030 Y101.105 E1.45588
G1 X91.274 Y101.843 E1.47145
G1 X90.277 Y102.654 E1.49038
G1 X90.081 Y102.786 E1.49386
G1 X88.976 Y103.398 E1.51246
G1 X88.236 Y103.724 E1.52438
G1 X86.855 Y104.158 E1.54571
G1 X85.993 Y104.335 E1.55866
G1 X85.367 Y104.436 E1.56800
G1 X84.828 Y104.476 E1.57596
G1 X84.135 Y104.492 E1.58618
G1 X82.684 Y104.433 E1.60757
G1 X81.611 Y104.266 E1.62357
G1 X80.860 Y104.068 E1.63500
G1 X79.318 Y103.524 E1.65909
G1 X78.881 Y103.319 E1.66620
G1 X78.214 Y102.948 E1.67744
G1 X76.965 Y102.029 E1.70028
G1 X76.500 Y101.630 E1.70931
G1 X76.047 Y101.154 E1.71899
G1 X75.224 Y100.096 E1.73874
G1 X75.090 Y99.888 E1.74238
G1 X74.729 Y99.197 E1.75386
G1 X74.375 Y98.668 E1.76324
G1 X74.206 Y98.319 E1.76896
G1 X73.810 Y97.087 E1.78801
G1 X73.761 Y96.875 E1.79121
G1 X73.578 Y95.689 E1.80890
G1 X73.543 Y94.853 E1.82122
G1 X73.676 Y93.399 E1.84272
G1 X73.712 Y93.192 E1.84582
G1 X74.002 Y92.031 E1.86345
G1 X74.065 Y91.840 E1.86641
G1 X74.501 Y90.813 E1.88285
G1 X75.013 Y89.919 E1.89802
G1 X75.597 Y89.065 E1.91327
G1 X76.238 Y88.294 E1.92804
G1 X76.618 Y88.619 F7800.000
G1 X76.990 Y88.387 E1.93450 F540.000
G1 X77.307 Y88.126 E1.94056
G1 X77.747 Y87.902 E1.94783
G1 X77.917 Y87.859 E1.95041
G1 X78.029 Y87.796 E1.95230
G1 X78.181 Y87.651 E1.95539
G1 X79.290 Y87.068 E1.97385
G1 X81.083 Y86.427 E2.00190
G1 X81.446 Y86.342 E2.00739
G1 X81.661 Y86.267 E2.01075
G1 X81.906 Y86.212 E2.01444
G1 X83.735 Y86.014 E2.04155
G1 X84.145 Y86.013 E2.04759
G1 X85.339 Y86.123 E2.06524
G1 X86.299 Y86.282 E2.07958
G1 X86.945 Y86.468 E2.08949
G1 X87.437 Y86.580 E2.09691
G1 X88.577 Y87.002 E2.11482
G1 X89.772 Y87.607 E2.13455
G1 X89.936 Y87.739 E2.13765
G1 X90.063 Y87.792 E2.13968
G1 X90.388 Y88.002 E2.14538
G1 X90.558 Y88.061 E2.14803
G1 X90.960 Y88.326 E2.15512
G1 X91.421 Y88.681 E2.16370
G1 X91.623 Y88.881 E2.16788
G1 X92.165 Y89.577 E2.18087
G1 X93.333 Y91.197 E2.21030
G1 X93.275 Y91.344 E2.21263
G1 X93.279 Y91.545 E2.21558
G1 X93.543 Y92.179 E2.22571
G1 X93.713 Y92.819 E2.23547
G1 X93.798 Y93.350 E2.24338
G1 X93.922 Y93.942 E2.25229
G1 X93.945 Y94.143 E2.25528
G1 X93.971 Y95.196 E2.27078
G1 X93.959 Y95.394 E2.27371
G1 X93.778 Y96.575 E2.29130
G1 X93.514 Y97.641 E2.30748
G1 X93.440 Y97.847 E2.31071
G1 X92.843 Y99.111 E2.33130
G1 X92.347 Y99.911 E2.34517
G1 X91.986 Y100.337 E2.35339
G1 X91.664 Y100.764 E2.36128
G1 X90.933 Y101.477 E2.37631
G1 X89.980 Y102.251 E2.39440
G1 X89.820 Y102.359 E2.39724
G1 X88.745 Y102.955 E2.41535
G1 X88.051 Y103.259 E2.42651
G1 X86.725 Y103.674 E2.44697
G1 X85.900 Y103.844 E2.45938
G1 X85.317 Y103.938 E2.46808
G1 X84.810 Y103.976 E2.47557
G1 X84.142 Y103.991 E2.48542
G1 X82.716 Y103.933 E2.50644
G1 X81.705 Y103.774 E2.52151
G1 X81.017 Y103.593 E2.53199
G1 X79.499 Y103.057 E2.55571
G1 X79.112 Y102.875 E2.56200
G1 X78.496 Y102.535 E2.57238
G1 X77.268 Y101.632 E2.59482
G1 X76.850 Y101.273 E2.60294
G1 X76.433 Y100.836 E2.61184
G1 X75.632 Y99.807 E2.63105
G1 X75.523 Y99.636 E2.63403
G1 X75.160 Y98.941 E2.64558
G1 X74.810 Y98.418 E2.65486
G1 X74.671 Y98.133 E2.65953
G1 X74.293 Y96.953 E2.67778
G1 X74.074 Y95.626 E2.69759
G1 X74.042 Y94.881 E2.70857
G1 X74.173 Y93.464 E2.72953
G1 X74.201 Y93.295 E2.73206
G1 X74.534 Y92.014 E2.75156
G1 X74.942 Y91.048 E2.76701
G1 X75.442 Y90.177 E2.78179
G1 X76.002 Y89.359 E2.79639
G1 X76.570 Y88.677 E2.80947
G1 X76.949 Y89.002 F7800.000
G1 X77.281 Y88.794 E2.81525 F540.000
G1 X77.582 Y88.547 E2.82099
G1 X77.925 Y88.373 E2.82664
G1 X78.171 Y88.302 E2.83042
G1 X78.315 Y88.215 E2.83290
G1 X78.477 Y88.059 E2.83621
G1 X79.476 Y87.533 E2.85284
G1 X81.233 Y86.905 E2.88033
G1 X81.575 Y86.826 E2.88549
G1 X81.799 Y86.749 E2.88898
G1 X81.989 Y86.706 E2.89185
G1 X83.755 Y86.513 E2.91803
G1 X84.114 Y86.512 E2.92331
G1 X85.266 Y86.618 E2.94036
G1 X86.201 Y86.773 E2.95432
G1 X86.824 Y86.954 E2.96386
G1 X87.284 Y87.057 E2.97082
G1 X88.365 Y87.455 E2.98778
G1 X89.484 Y88.021 E3.00625
G1 X89.661 Y88.165 E3.00961
G1 X89.828 Y88.236 E3.01229
G1 X90.182 Y88.464 E3.01849
G1 X90.346 Y88.521 E3.02105
G1 X90.713 Y88.767 E3.02755
G1 X91.092 Y89.058 E3.03459
G1 X91.248 Y89.214 E3.03784
G1 X91.762 Y89.873 E3.05016
G1 X92.768 Y91.267 E3.07548
G1 X92.733 Y91.354 E3.07685
G1 X92.737 Y91.555 E3.07981
G1 X93.065 Y92.326 E3.09216
G1 X93.226 Y92.934 E3.10142
G1 X93.446 Y94.178 E3.12004
G1 X93.461 Y95.340 E3.13715
G1 X93.286 Y96.487 E3.15424
G1 X93.036 Y97.495 E3.16954
G1 X92.978 Y97.656 E3.17205
G1 X92.396 Y98.886 E3.19210
G1 X91.939 Y99.622 E3.20486
G1 X91.591 Y100.029 E3.21275
G1 X91.297 Y100.424 E3.22000
G1 X90.593 Y101.111 E3.23450
G1 X89.559 Y101.932 E3.25394
G1 X88.513 Y102.511 E3.27155
G1 X87.866 Y102.795 E3.28196
G1 X86.596 Y103.191 E3.30155
G1 X86.151 Y103.269 E3.30821
G1 X85.806 Y103.352 E3.31344
G1 X85.267 Y103.441 E3.32148
G1 X84.792 Y103.476 E3.32851
G1 X84.148 Y103.491 E3.33799
G1 X82.748 Y103.434 E3.35863
G1 X81.799 Y103.283 E3.37279
G1 X81.174 Y103.119 E3.38230
G1 X79.679 Y102.591 E3.40566
G1 X79.343 Y102.432 E3.41113
G1 X78.777 Y102.121 E3.42064
G1 X77.572 Y101.234 E3.44269
G1 X77.199 Y100.915 E3.44991
G1 X76.819 Y100.518 E3.45801
G1 X76.041 Y99.517 E3.47668
G1 X75.955 Y99.385 E3.47900
G1 X75.590 Y98.685 E3.49063
G1 X75.244 Y98.168 E3.49980
G1 X75.136 Y97.946 E3.50343
G1 X74.775 Y96.819 E3.52087
G1 X74.570 Y95.562 E3.53963
G1 X74.542 Y94.909 E3.54925
G1 X74.669 Y93.529 E3.56967
G1 X75.003 Y92.187 E3.59004
G1 X75.384 Y91.282 E3.60450
G1 X75.870 Y90.435 E3.61889
G1 X76.407 Y89.654 E3.63285
G1 X76.901 Y89.060 E3.64423
G1 X77.280 Y89.386 F7800.000
G1 X77.573 Y89.202 E3.64932 F540.000
G1 X77.858 Y88.968 E3.65475
G1 X78.102 Y88.843 E3.65879
G1 X78.354 Y88.771 E3.66266
G1 X78.556 Y88.663 E3.66603
G1 X78.774 Y88.468 E3.67034
G1 X79.576 Y88.036 E3.68376
G1 X81.383 Y87.382 E3.71207
G1 X81.669 Y87.320 E3.71637
G1 X82.072 Y87.200 E3.72257
G1 X83.717 Y87.017 E3.74695
G1 X84.016 Y87.009 E3.75136
G1 X85.148 Y87.107 E3.76810
G1 X86.104 Y87.263 E3.78236
G1 X86.702 Y87.440 E3.79155
G1 X87.132 Y87.534 E3.79803
G1 X88.152 Y87.908 E3.81404
G1 X89.195 Y88.436 E3.83126
G1 X89.385 Y88.591 E3.83488
G1 X89.593 Y88.679 E3.83820
G1 X89.975 Y88.926 E3.84491
G1 X90.133 Y88.982 E3.84737
G1 X90.466 Y89.208 E3.85329
G1 X90.762 Y89.435 E3.85879
G1 X90.873 Y89.546 E3.86111
G1 X91.360 Y90.170 E3.87276
G1 X92.202 Y91.337 E3.89397
G1 X92.195 Y91.564 E3.89731
G1 X92.555 Y92.383 E3.91048
G1 X92.740 Y93.049 E3.92066
G1 X92.946 Y94.213 E3.93809
G1 X92.963 Y95.287 E3.95390
G1 X92.793 Y96.400 E3.97049
G1 X92.557 Y97.349 E3.98490
G1 X91.949 Y98.661 E4.00619
G1 X91.531 Y99.332 E4.01784
G1 X91.196 Y99.720 E4.02539
G1 X90.930 Y100.083 E4.03202
G1 X90.252 Y100.745 E4.04598
G1 X89.298 Y101.505 E4.06395
G1 X88.282 Y102.068 E4.08106
G1 X87.680 Y102.330 E4.09072
G1 X86.467 Y102.708 E4.10944
G1 X86.053 Y102.778 E4.11563
G1 X85.713 Y102.861 E4.12078
G1 X85.217 Y102.943 E4.12818
G1 X84.773 Y102.977 E4.13474
G1 X84.154 Y102.991 E4.14386
G1 X82.780 Y102.935 E4.16412
G1 X81.893 Y102.792 E4.17735
G1 X81.331 Y102.644 E4.18591
G1 X79.859 Y102.124 E4.20890
G1 X79.059 Y101.707 E4.22220
G1 X77.875 Y100.837 E4.24384
G1 X77.549 Y100.558 E4.25017
G1 X77.205 Y100.200 E4.25748
G1 X76.449 Y99.228 E4.27561
G1 X76.020 Y98.429 E4.28897
G1 X75.679 Y97.918 E4.29802
G1 X75.602 Y97.760 E4.30062
G1 X75.257 Y96.685 E4.31725
G1 X75.066 Y95.499 E4.33494
G1 X75.041 Y94.937 E4.34322
G1 X75.165 Y93.594 E4.36309
G1 X75.472 Y92.361 E4.38181
G1 X75.826 Y91.517 E4.39529
G1 X76.299 Y90.693 E4.40929
G1 X76.811 Y89.948 E4.42261
G1 X77.232 Y89.443 E4.43229
G1 X77.611 Y89.769 F7800.000
G1 X77.865 Y89.609 E4.43670 F540.000
G1 X78.133 Y89.389 E4.44181
G1 X78.280 Y89.314 E4.44424
G1 X78.537 Y89.240 E4.44819
G1 X78.852 Y89.071 E4.45345
G1 X79.070 Y88.876 E4.45777
G1 X79.796 Y88.485 E4.46991
G1 X81.533 Y87.859 E4.49710
G1 X81.833 Y87.795 E4.50162
G1 X82.155 Y87.694 E4.50659
G1 X83.760 Y87.515 E4.53039
G1 X84.011 Y87.509 E4.53408
G1 X85.094 Y87.604 E4.55010
G1 X86.006 Y87.754 E4.56371
G1 X86.580 Y87.925 E4.57254
G1 X86.979 Y88.010 E4.57855
G1 X87.940 Y88.361 E4.59361
G1 X88.907 Y88.850 E4.60958
G1 X89.067 Y88.998 E4.61278
G1 X89.358 Y89.123 E4.61746
G1 X89.769 Y89.388 E4.62466
G1 X89.921 Y89.442 E4.62703
G1 X90.135 Y89.588 E4.63084
G1 X90.499 Y89.879 E4.63771
G1 X90.957 Y90.466 E4.64868
G1 X91.650 Y91.428 E4.66615
G1 X91.653 Y91.574 E4.66831
G1 X92.108 Y92.621 E4.68512
G1 X92.253 Y93.163 E4.69338
G1 X92.447 Y94.249 E4.70963
G1 X92.466 Y95.233 E4.72413
G1 X92.301 Y96.313 E4.74022
G1 X92.078 Y97.203 E4.75374
G1 X91.503 Y98.436 E4.77379
G1 X91.123 Y99.042 E4.78432
G1 X90.801 Y99.412 E4.79154
G1 X90.563 Y99.742 E4.79754
G1 X89.911 Y100.379 E4.81096
G1 X89.036 Y101.078 E4.82745
G1 X88.050 Y101.625 E4.84406
G1 X87.495 Y101.866 E4.85298
G1 X86.338 Y102.224 E4.87083
G1 X85.955 Y102.287 E4.87654
G1 X85.619 Y102.370 E4.88164
G1 X85.168 Y102.446 E4.88838
G1 X84.755 Y102.477 E4.89447
G1 X84.161 Y102.490 E4.90323
G1 X82.812 Y102.435 E4.92311
G1 X81.987 Y102.301 E4.93543
G1 X81.488 Y102.169 E4.94303
G1 X80.040 Y101.658 E4.96565
G1 X79.340 Y101.294 E4.97727
G1 X78.179 Y100.439 E4.99851
G1 X77.899 Y100.200 E5.00393
G1 X77.591 Y99.882 E5.01046
G1 X76.857 Y98.939 E5.02805
G1 X76.451 Y98.173 E5.04083
G1 X76.067 Y97.573 E5.05131
G1 X75.725 Y96.493 E5.06800
G1 X75.563 Y95.435 E5.08377
G1 X75.541 Y94.965 E5.09070
G1 X75.661 Y93.659 E5.11002
G1 X75.924 Y92.587 E5.12628
G1 X76.268 Y91.752 E5.13959
G1 X76.727 Y90.951 E5.15319
G1 X77.216 Y90.242 E5.16587
G1 X77.563 Y89.826 E5.17385
G1 X77.942 Y90.152 F7800.000
G1 X78.164 Y90.029 E5.17759 F540.000
G1 X78.408 Y89.810 E5.18242
G1 X78.720 Y89.710 E5.18725
G1 X79.027 Y89.545 E5.19238
G1 X79.126 Y89.514 E5.19391
G1 X79.278 Y89.398 E5.19672
G1 X79.367 Y89.284 E5.19884
G1 X80.034 Y88.926 E5.21000
G1 X81.683 Y88.337 E5.23579
G1 X81.962 Y88.280 E5.23999
G1 X82.210 Y88.194 E5.24386
G1 X83.816 Y88.012 E5.26766
G1 X84.019 Y88.010 E5.27065
G1 X85.049 Y88.103 E5.28589
G1 X85.908 Y88.245 E5.29871
G1 X86.458 Y88.411 E5.30718
G1 X86.827 Y88.487 E5.31272
G1 X87.728 Y88.814 E5.32684
G1 X88.619 Y89.265 E5.34155
G1 X88.713 Y89.383 E5.34378
G1 X88.877 Y89.502 E5.34676
G1 X89.123 Y89.566 E5.35051
G1 X89.563 Y89.850 E5.35822
G1 X89.709 Y89.902 E5.36050
G1 X89.778 Y89.949 E5.36173
G1 X89.821 Y90.007 E5.36279
G1 X89.944 Y90.096 E5.36503
G1 X90.010 Y90.118 E5.36605
G1 X90.124 Y90.211 E5.36822
G1 X90.554 Y90.762 E5.37852
G1 X91.110 Y91.534 E5.39253
G1 X91.111 Y91.584 E5.39327
G1 X91.630 Y92.768 E5.41231
G1 X91.766 Y93.278 E5.42008
G1 X91.828 Y93.698 E5.42633
G1 X91.945 Y94.261 E5.43481
G1 X91.968 Y95.179 E5.44834
G1 X91.806 Y96.237 E5.46411
G1 X91.591 Y97.080 E5.47692
G1 X91.056 Y98.212 E5.49536
G1 X90.909 Y98.458 E5.49958
G1 X90.715 Y98.753 E5.50478
G1 X90.406 Y99.104 E5.51167
G1 X90.196 Y99.402 E5.51704
G1 X89.562 Y100.021 E5.53009
G1 X88.793 Y100.639 E5.54463
G1 X87.819 Y101.181 E5.56105
G1 X87.310 Y101.401 E5.56922
G1 X86.190 Y101.745 E5.58647
G1 X85.129 Y101.946 E5.60238
G1 X84.744 Y101.977 E5.60807
G1 X84.167 Y101.990 E5.61656
G1 X82.827 Y101.935 E5.63633
G1 X82.081 Y101.810 E5.64747
G1 X81.645 Y101.694 E5.65411
G1 X80.220 Y101.191 E5.67637
G1 X79.622 Y100.880 E5.68630
G1 X78.482 Y100.042 E5.70714
G1 X78.249 Y99.843 E5.71167
G1 X77.977 Y99.563 E5.71740
G1 X77.266 Y98.650 E5.73446
G1 X76.881 Y97.917 E5.74665
G1 X76.532 Y97.387 E5.75599
