; generated by Slic3r 1.1.7 on 2015-07-12 at 22:27:59

; perimeters extrusion width = 0.40mm
; infill extrusion width = 0.42mm
; solid infill extrusion width = 0.42mm
; top infill extrusion width = 0.42mm

G21 ; set units to millimeters
M107
M190 S65 ; wait for bed temperature to be reached
M104 S215 ; set temperature
G28 ; home all axes

M109 S215 ; wait for temperature to be reached
G90 ; use absolute coordinates
G92 E0
M82 ; use absolute distances for extrusion
G1 F1800.000 E-1.00000
G92 E0
G1 Z0.350 F7800.000
G1 X81.959 Y98.358 F7800.000
G1 E1.00000 F1800.000
G1 X81.624 Y98.316 E1.01294 F504.000
G1 X80.991 Y98.389 E1.03738
G1 X80.724 Y98.385 E1.04763
G1 X80.564 Y98.348 E1.05393
G1 X80.415 Y98.275 E1.06028
G1 X80.228 Y98.099 E1.07016
G1 X79.947 Y97.582 E1.09273
G1 X80.032 Y97.565 E1.09607
G1 X80.086 Y97.250 E1.10835
G1 X80.154 Y97.085 E1.11516
G1 X80.254 Y96.937 E1.12204
G1 X80.460 Y96.765 E1.13233
G1 X80.661 Y96.687 E1.14061
G1 X80.912 Y96.663 E1.15026
G1 X81.485 Y96.706 E1.17232
G1 X84.719 Y96.691 E1.29637
G1 X84.893 Y96.708 E1.30307
G1 X85.053 Y96.750 E1.30945
G1 X85.198 Y96.825 E1.31569
G1 X85.376 Y97.010 E1.32554
G1 X85.474 Y97.241 E1.33515
G1 X85.563 Y97.641 E1.35089
G1 X85.335 Y98.042 E1.36858
G1 X85.213 Y98.159 E1.37508
G1 X84.999 Y98.274 E1.38438
G1 X84.752 Y98.332 E1.39413
G1 X84.494 Y98.355 E1.40407
G1 X84.185 Y98.360 E1.41592
G1 X83.571 Y98.326 E1.43949
G1 X83.577 Y101.680 E1.56816
G1 X83.598 Y102.162 E1.58664
G1 X83.581 Y102.470 E1.59847
G1 X83.513 Y102.735 E1.60897
G1 X83.384 Y102.962 E1.61900
G1 X83.186 Y103.142 E1.62926
G1 X82.954 Y103.236 E1.63886
G1 X82.779 Y103.260 E1.64562
G1 X82.597 Y103.252 E1.65261
G1 X82.414 Y103.211 E1.65982
G1 X82.254 Y103.140 E1.66652
G1 X82.058 Y102.976 E1.67634
G1 X81.968 Y102.823 E1.68312
G1 X81.924 Y102.671 E1.68919
G1 X81.911 Y102.409 E1.69927
G1 X81.950 Y101.929 E1.71773
G1 X81.933 Y99.144 E1.82458
G1 X81.967 Y98.638 E1.84404
G1 X81.962 Y98.418 E1.85248
G1 X81.655 Y98.505 F7800.000
G1 F1800.000 E0.85248
G92 E0
G1 X87.893 Y98.607 F7800.000
G1 E1.00000 F1800.000
G1 X87.981 Y98.445 E1.00707 F504.000
G1 X87.979 Y98.341 E1.01105
G1 X87.928 Y98.117 E1.01986
G1 X87.648 Y98.133 E1.03065
G1 X87.430 Y98.216 E1.03960
G1 X87.099 Y98.441 E1.05494
G1 X87.155 Y98.584 E1.06085
G1 X86.601 Y98.570 E1.08211
G1 X86.513 Y98.552 E1.08552
G1 X86.360 Y98.493 E1.09183
G1 X86.252 Y98.424 E1.09676
G1 X86.064 Y98.240 E1.10685
G1 X85.923 Y98.000 E1.11751
G1 X85.774 Y97.609 E1.13357
G1 X85.978 Y97.250 E1.14941
G1 X86.085 Y97.113 E1.15609
G1 X86.220 Y96.986 E1.16319
G1 X86.469 Y96.819 E1.17469
G1 X86.893 Y96.639 E1.19236
G1 X87.370 Y96.542 E1.21103
G1 X87.708 Y96.520 E1.22404
G1 X87.997 Y96.527 E1.23512
G1 X88.527 Y96.605 E1.25568
G1 X88.742 Y96.668 E1.26427
G1 X88.956 Y96.758 E1.27319
G1 X89.142 Y96.867 E1.28145
G1 X89.309 Y96.995 E1.28952
G1 X89.462 Y97.148 E1.29781
G1 X89.587 Y97.313 E1.30577
G1 X89.726 Y97.589 E1.31761
G1 X89.798 Y97.871 E1.32877
G1 X89.817 Y98.079 E1.33679
G1 X89.807 Y98.432 E1.35035
G1 X89.761 Y98.804 E1.36471
G1 X89.712 Y98.979 E1.37168
G1 X89.640 Y99.139 E1.37844
G1 X89.535 Y99.293 E1.38558
G1 X89.360 Y99.486 E1.39556
G1 X89.633 Y99.777 E1.41085
G1 X89.729 Y99.928 E1.41772
G1 X89.809 Y100.103 E1.42512
G1 X90.009 Y100.779 E1.45216
G1 X90.058 Y101.114 E1.46513
G1 X90.059 Y101.340 E1.47382
G1 X90.013 Y101.669 E1.48654
G1 X89.863 Y102.120 E1.50478
G1 X89.750 Y102.339 E1.51425
G1 X89.617 Y102.540 E1.52350
G1 X89.382 Y102.807 E1.53712
G1 X89.206 Y102.959 E1.54605
G1 X89.018 Y103.088 E1.55481
G1 X88.701 Y103.244 E1.56833
G1 X88.482 Y103.317 E1.57721
G1 X87.996 Y103.397 E1.59608
G1 X87.437 Y103.398 E1.61752
G1 X86.923 Y103.315 E1.63749
G1 X86.630 Y103.218 E1.64936
G1 X86.447 Y103.128 E1.65717
G1 X86.291 Y103.026 E1.66431
G1 X86.142 Y102.894 E1.67198
G1 X85.986 Y102.681 E1.68209
G1 X85.913 Y102.515 E1.68905
G1 X85.866 Y102.332 E1.69627
G1 X85.851 Y102.148 E1.70337
G1 X85.871 Y101.961 E1.71059
G1 X85.925 Y101.795 E1.71728
G1 X86.077 Y101.577 E1.72745
G1 X86.211 Y101.471 E1.73402
G1 X86.358 Y101.398 E1.74032
G1 X86.529 Y101.351 E1.74711
G1 X86.711 Y101.335 E1.75411
G1 X86.897 Y101.348 E1.76126
G1 X87.045 Y101.382 E1.76709
G1 X87.290 Y101.492 E1.77742
G1 X87.765 Y101.831 E1.79979
G1 X87.912 Y101.804 E1.80551
G1 X88.025 Y101.754 E1.81026
G1 X88.151 Y101.652 E1.81646
G1 X88.217 Y101.556 E1.82094
G1 X88.270 Y101.401 E1.82723
G1 X88.267 Y101.196 E1.83508
G1 X88.171 Y100.967 E1.84463
G1 X88.017 Y100.779 E1.85395
G1 X87.872 Y100.663 E1.86107
G1 X87.711 Y100.582 E1.86800
G1 X87.523 Y100.528 E1.87550
G1 X87.099 Y100.452 E1.89201
G1 X86.872 Y100.363 E1.90137
G1 X86.679 Y100.203 E1.91101
G1 X86.590 Y100.052 E1.91770
G1 X86.543 Y99.890 E1.92419
G1 X86.537 Y99.629 E1.93419
G1 X86.574 Y99.452 E1.94113
G1 X86.686 Y99.197 E1.95183
G1 X86.800 Y99.051 E1.95890
G1 X87.195 Y98.689 E1.97948
G1 X87.245 Y98.816 E1.98472
G1 X87.676 Y98.747 E2.00149
G1 X87.851 Y98.649 E2.00917
G1 X87.825 Y98.436 F7800.000
G1 F1800.000 E1.00917
G92 E0
G1 X84.743 Y103.142 F7800.000
G1 E1.00000 F1800.000
G1 X85.212 Y103.764 E1.02987 F720.000
G1 X85.523 Y104.041 E1.04584
G1 X85.817 Y104.233 E1.05931
G1 X86.144 Y104.393 E1.07330
G1 X86.604 Y104.546 E1.09186
G1 X86.983 Y104.624 E1.10670
G1 X87.346 Y104.666 E1.12075
G1 X87.724 Y104.678 E1.13526
G1 X88.213 Y104.658 E1.15403
G1 X88.817 Y104.544 E1.17759
G1 X89.166 Y104.428 E1.19171
G1 X89.506 Y104.272 E1.20603
G1 X89.679 Y104.175 E1.21366
G1 X90.053 Y103.916 E1.23110
G1 X90.371 Y104.173 E1.24681
G1 X90.581 Y104.307 E1.25635
G1 X90.818 Y104.412 E1.26629
G1 X91.047 Y104.483 E1.27548
G1 X91.448 Y104.538 E1.29100
G1 X91.786 Y104.530 E1.30397
G1 X92.153 Y104.494 E1.31814
G1 X93.096 Y104.499 E1.35432
G1 X93.698 Y104.451 E1.37748
G1 X94.241 Y104.352 E1.39864
G1 X94.585 Y104.254 E1.41235
G1 X94.844 Y104.157 E1.42297
G1 X95.110 Y104.396 E1.43672
G1 X95.289 Y104.530 E1.44527
G1 X95.702 Y104.760 E1.46343
G1 X96.141 Y104.911 E1.48122
G1 X96.591 Y104.981 E1.49872
G1 X97.054 Y104.971 E1.51645
G1 X97.509 Y104.879 E1.53428
G1 X97.916 Y104.721 E1.55101
G1 X98.240 Y104.541 E1.56525
G1 X98.641 Y104.665 E1.58132
G1 X98.867 Y104.700 E1.59010
G1 X99.095 Y104.706 E1.59884
G1 X99.380 Y104.684 E1.60982
G1 X99.648 Y104.613 E1.62046
G1 X99.877 Y104.518 E1.62995
G1 X100.103 Y104.396 E1.63980
G1 X100.268 Y104.496 E1.64720
G1 X100.691 Y104.657 E1.66459
G1 X100.663 Y104.947 E1.67579
G1 X100.667 Y105.166 E1.68417
G1 X100.725 Y105.559 E1.69941
G1 X100.849 Y105.927 E1.71431
G1 X101.161 Y106.492 E1.73906
G1 X100.280 Y106.530 E1.77291
G1 X99.378 Y106.515 E1.80749
G1 X77.422 Y105.170 E2.65131
G1 X77.429 Y104.684 E2.66994
G1 X78.018 Y104.660 E2.69252
G1 X78.558 Y104.578 E2.71349
G1 X79.083 Y104.421 E2.73449
G1 X79.424 Y104.267 E2.74886
G1 X79.880 Y103.978 E2.76958
G1 X80.165 Y103.732 E2.78401
G1 X80.413 Y103.458 E2.79818
G1 X80.681 Y103.093 E2.81557
G1 X80.910 Y103.550 E2.83519
G1 X81.064 Y103.774 E2.84561
G1 X81.233 Y103.955 E2.85512
G1 X81.425 Y104.121 E2.86486
G1 X81.810 Y104.340 E2.88184
G1 X82.016 Y104.420 E2.89032
G1 X82.432 Y104.514 E2.90669
G1 X82.637 Y104.531 E2.91458
G1 X83.045 Y104.513 E2.93026
G1 X83.252 Y104.473 E2.93835
G1 X83.638 Y104.340 E2.95401
G1 X83.854 Y104.226 E2.96337
G1 X84.055 Y104.083 E2.97282
G1 X84.232 Y103.925 E2.98191
G1 X84.382 Y103.752 E2.99069
G1 X84.520 Y103.561 E2.99973
G1 X84.715 Y103.195 E3.01564
G1 F1800.000 E2.01564
G92 E0
G1 X80.669 Y100.765 F7800.000
G1 E1.00000 F1800.000
G1 X80.108 Y100.331 E1.02721 F720.000
G1 X79.925 Y100.214 E1.03554
G1 X79.486 Y99.995 E1.05437
G1 X80.018 Y99.673 E1.07824
G1 X80.171 Y99.557 E1.08557
G1 X80.670 Y99.668 E1.10519
G1 X80.669 Y100.705 E1.14497
G1 F1800.000 E0.14497
G92 E0
G1 X77.187 Y104.667 F7800.000
G1 E1.00000 F1800.000
G1 X77.136 Y105.152 E1.01869 F720.000
G1 X75.713 Y105.065 E1.07339
G1 X75.714 Y104.275 E1.10369
G1 X76.405 Y104.518 E1.13180
G1 X76.662 Y104.582 E1.14196
G1 X77.127 Y104.658 E1.16006
G1 X75.078 Y103.051 F7800.000
G1 X75.705 Y103.512 E1.18993 F720.000
G1 X76.127 Y103.741 E1.20834
G1 X76.426 Y103.860 E1.22069
G1 X76.723 Y103.944 E1.23253
G1 X77.286 Y104.030 E1.25439
G1 X77.636 Y104.042 E1.26783
G1 X77.964 Y104.026 E1.28041
G1 X78.274 Y103.987 E1.29239
G1 X78.565 Y103.923 E1.30382
G1 X78.853 Y103.828 E1.31547
G1 X79.129 Y103.704 E1.32706
G1 X79.375 Y103.558 E1.33806
G1 X79.609 Y103.379 E1.34933
G1 X79.915 Y103.061 E1.36626
G1 X80.080 Y102.826 E1.37729
G1 X80.216 Y102.567 E1.38851
G1 X80.349 Y102.191 E1.40382
G1 X80.355 Y101.936 E1.41361
G1 X80.335 Y101.757 E1.42053
G1 X80.240 Y101.448 E1.43291
G1 X80.161 Y101.297 E1.43947
G1 X80.066 Y101.158 E1.44592
G1 X79.865 Y100.947 E1.45711
G1 X79.611 Y100.768 E1.46903
G1 X79.471 Y100.698 E1.47503
G1 X79.197 Y100.603 E1.48615
G1 X78.906 Y100.557 E1.49746
G1 X78.605 Y100.564 E1.50901
G1 X78.325 Y100.625 E1.51999
G1 X78.173 Y100.683 E1.52625
G1 X77.913 Y100.838 E1.53785
G1 X77.788 Y100.941 E1.54407
G1 X77.655 Y101.088 E1.55165
G1 X77.446 Y101.064 E1.55973
G1 X77.318 Y101.013 E1.56502
G1 X77.254 Y100.968 E1.56801
G1 X77.170 Y100.824 E1.57438
G1 X77.086 Y100.513 E1.58674
G1 X77.049 Y100.062 E1.60410
G1 X77.067 Y99.566 E1.62313
G1 X77.121 Y99.255 E1.63526
G1 X77.221 Y99.010 E1.64541
G1 X77.318 Y98.915 E1.65061
G1 X77.516 Y98.838 E1.65876
G1 X77.973 Y99.122 E1.67939
G1 X78.210 Y99.238 E1.68951
G1 X78.593 Y99.358 E1.70491
G1 X78.881 Y99.385 E1.71602
G1 X79.196 Y99.350 E1.72815
G1 X79.520 Y99.231 E1.74142
G1 X79.787 Y99.051 E1.75376
G1 X80.033 Y98.790 E1.76751
G1 X80.353 Y98.948 E1.78121
G1 X80.638 Y99.016 E1.79244
G1 X80.908 Y99.030 E1.80283
G1 X81.297 Y99.009 E1.81776
G1 X81.314 Y101.921 E1.92945
G1 X81.272 Y102.515 E1.95231
G1 X81.330 Y102.922 E1.96807
G1 X81.459 Y103.226 E1.98075
G1 X81.561 Y103.375 E1.98767
G1 X81.803 Y103.608 E2.00057
G1 X82.069 Y103.759 E2.01231
G1 X82.215 Y103.815 E2.01830
G1 X82.515 Y103.883 E2.03008
G1 X82.807 Y103.896 E2.04133
G1 X83.103 Y103.854 E2.05278
G1 X83.372 Y103.761 E2.06370
G1 X83.657 Y103.586 E2.07654
G1 X83.779 Y103.477 E2.08279
G1 X83.979 Y103.224 E2.09516
G1 X84.105 Y102.967 E2.10616
G1 X84.211 Y102.560 E2.12229
G1 X84.233 Y102.152 E2.13795
G1 X84.212 Y101.527 E2.16194
G1 X84.219 Y99.001 E2.25886
G1 X84.702 Y98.978 E2.27741
G1 X84.963 Y98.941 E2.28754
G1 X85.214 Y98.872 E2.29752
G1 X85.599 Y98.683 E2.31395
G1 X85.758 Y98.842 E2.32261
G1 X86.039 Y99.048 E2.33596
G1 X85.963 Y99.274 E2.34510
G1 X85.905 Y99.555 E2.35608
G1 X85.895 Y99.712 E2.36214
G1 X85.915 Y99.996 E2.37307
G1 X85.954 Y100.159 E2.37947
G1 X86.076 Y100.448 E2.39154
G1 X86.278 Y100.741 E2.40516
G1 X86.002 Y100.860 E2.41667
G1 X85.745 Y101.020 E2.42828
G1 X85.525 Y101.239 E2.44018
G1 X85.425 Y101.380 E2.44680
G1 X85.344 Y101.535 E2.45352
G1 X85.249 Y101.824 E2.46520
G1 X85.215 Y102.142 E2.47747
G1 X85.239 Y102.437 E2.48881
G1 X85.269 Y102.587 E2.49469
G1 X85.363 Y102.854 E2.50554
G1 X85.429 Y102.987 E2.51122
G1 X85.578 Y103.211 E2.52157
G1 X85.677 Y103.329 E2.52745
G1 X85.907 Y103.533 E2.53927
G1 X86.254 Y103.745 E2.55486
G1 X86.521 Y103.856 E2.56594
G1 X86.764 Y103.930 E2.57568
G1 X87.233 Y104.017 E2.59398
G1 X87.887 Y104.040 E2.61911
G1 X88.165 Y104.023 E2.62979
G1 X88.503 Y103.966 E2.64295
G1 X88.934 Y103.836 E2.66019
G1 X89.348 Y103.631 E2.67792
G1 X89.714 Y103.367 E2.69522
G1 X89.928 Y103.160 E2.70664
G1 X90.181 Y102.872 E2.72135
G1 X90.418 Y103.319 E2.74076
G1 X90.621 Y103.557 E2.75276
G1 X90.883 Y103.745 E2.76515
G1 X91.196 Y103.864 E2.77799
G1 X91.612 Y103.903 E2.79401
G1 X92.079 Y103.860 E2.81201
G1 X92.859 Y103.870 E2.84191
G1 X93.617 Y103.821 E2.87106
G1 X94.091 Y103.734 E2.88953
G1 X94.380 Y103.652 E2.90108
G1 X94.661 Y103.540 E2.91266
G1 X95.017 Y103.348 E2.92817
G1 X95.376 Y103.782 E2.94978
G1 X95.512 Y103.903 E2.95675
G1 X95.797 Y104.098 E2.97002
G1 X96.121 Y104.243 E2.98361
G1 X96.292 Y104.293 E2.99047
G1 X96.635 Y104.346 E3.00376
G1 X96.813 Y104.350 E3.01060
G1 X97.161 Y104.312 E3.02403
G1 X97.497 Y104.213 E3.03747
G1 X97.813 Y104.054 E3.05104
G1 X98.172 Y103.779 E3.06840
G1 X98.487 Y103.955 E3.08223
G1 X98.768 Y104.042 E3.09352
G1 X98.924 Y104.066 E3.09954
G1 X99.268 Y104.055 E3.11275
G1 X99.450 Y104.007 E3.11996
G1 X99.728 Y103.876 E3.13179
G1 X100.109 Y103.578 E3.15033
G1 X100.430 Y103.851 E3.16648
G1 X100.709 Y103.995 E3.17853
G1 X100.866 Y104.046 E3.18487
G1 X101.111 Y104.082 E3.19436
G1 X101.603 Y104.073 E3.21325
G1 X101.400 Y104.507 E3.23162
G1 X101.314 Y104.818 E3.24402
G1 X101.302 Y105.127 E3.25588
G1 X101.343 Y105.408 E3.26679
G1 X101.387 Y105.553 E3.27258
G1 X101.496 Y105.808 E3.28324
G1 X101.573 Y105.939 E3.28904
G1 X101.663 Y106.062 E3.29489
G1 X101.859 Y106.266 E3.30576
G1 X102.139 Y106.449 E3.31858
G1 X102.459 Y106.592 E3.33202
G1 X102.409 Y106.968 E3.34659
G1 X101.728 Y107.067 E3.37297
G1 X101.051 Y107.132 E3.39908
G1 X100.289 Y107.166 E3.42833
G1 X99.621 Y107.161 E3.45395
G1 X75.735 Y105.700 E4.37195
G1 X75.517 Y105.643 E4.38059
G1 X75.347 Y105.542 E4.38816
G1 X75.194 Y105.361 E4.39726
G1 X75.109 Y105.149 E4.40601
G1 X75.078 Y104.872 E4.41670
G1 X75.078 Y103.111 E4.48427
G1 F1800.000 E3.48427
G92 E0
G1 X77.968 Y95.260 F7800.000
G1 E1.00000 F1800.000
G1 X77.982 Y94.797 E1.01780 F720.000
G1 X99.397 Y93.485 E1.84083
G1 X100.513 Y93.476 E1.88362
G1 X101.025 Y93.503 E1.90330
G1 X101.730 Y93.574 E1.93049
G1 X102.807 Y93.756 E1.97237
G1 X103.875 Y94.028 E2.01465
G1 X104.895 Y94.377 E2.05601
G1 X105.881 Y94.805 E2.09723
G1 X106.570 Y95.165 E2.12706
G1 X107.247 Y95.570 E2.15733
G1 X107.890 Y96.006 E2.18713
G1 X108.556 Y96.518 E2.21936
G1 X108.435 Y96.860 E2.23328
G1 X107.851 Y96.861 E2.25568
G1 X107.517 Y96.885 E2.26852
G1 X107.183 Y96.947 E2.28156
G1 X106.775 Y97.086 E2.29810
G1 X106.400 Y96.932 E2.31365
G1 X106.153 Y96.879 E2.32332
G1 X105.892 Y96.858 E2.33338
G1 X105.648 Y96.873 E2.34276
G1 X105.385 Y96.922 E2.35303
G1 X104.962 Y97.094 E2.37054
G1 X104.758 Y97.222 E2.37977
G1 X104.566 Y97.375 E2.38919
G1 X104.269 Y97.177 E2.40288
G1 X103.956 Y97.026 E2.41622
G1 X103.586 Y96.912 E2.43109
G1 X103.384 Y96.878 E2.43891
G1 X102.977 Y96.862 E2.45456
G1 X102.755 Y96.887 E2.46312
G1 X102.346 Y96.995 E2.47934
G1 X102.148 Y97.085 E2.48770
G1 X101.869 Y96.967 E2.49934
G1 X101.638 Y96.902 E2.50854
G1 X101.380 Y96.861 E2.51857
G1 X101.128 Y96.861 E2.52824
G1 X100.891 Y96.885 E2.53739
G1 X100.651 Y96.945 E2.54686
G1 X100.179 Y97.150 E2.56660
G1 X99.826 Y96.979 E2.58162
G1 X99.625 Y96.919 E2.58967
G1 X99.403 Y96.873 E2.59837
G1 X99.165 Y96.857 E2.60755
G1 X98.936 Y96.866 E2.61630
G1 X98.509 Y96.951 E2.63302
G1 X98.291 Y97.031 E2.64194
G1 X97.940 Y97.221 E2.65725
G1 X97.744 Y97.368 E2.66663
G1 X97.448 Y97.683 E2.68325
G1 X97.318 Y97.872 E2.69202
G1 X97.067 Y98.361 E2.71310
G1 X96.774 Y97.639 E2.74299
G1 X96.500 Y97.146 E2.76462
G1 X96.158 Y96.695 E2.78633
G1 X95.834 Y96.367 E2.80401
G1 X95.389 Y96.033 E2.82534
G1 X94.905 Y95.781 E2.84629
G1 X94.400 Y95.610 E2.86675
G1 X93.855 Y95.500 E2.88805
G1 X93.454 Y95.454 E2.90356
G1 X93.009 Y95.429 E2.92064
G1 X91.707 Y95.413 E2.97059
G1 X91.389 Y95.433 E2.98283
G1 X91.128 Y95.478 E2.99296
G1 X90.762 Y95.590 E3.00767
G1 X90.406 Y95.766 E3.02290
G1 X90.094 Y95.988 E3.03758
G1 X89.691 Y95.711 E3.05632
G1 X89.343 Y95.536 E3.07125
G1 X89.167 Y95.470 E3.07846
G1 X88.646 Y95.329 E3.09918
G1 X88.074 Y95.257 E3.12129
G1 X87.483 Y95.256 E3.14398
G1 X87.016 Y95.304 E3.16196
G1 X86.692 Y95.375 E3.17468
G1 X86.345 Y95.482 E3.18864
G1 X85.845 Y95.711 E3.20974
G1 X85.511 Y95.562 E3.22375
G1 X85.296 Y95.492 E3.23243
G1 X84.935 Y95.430 E3.24648
G1 X81.512 Y95.435 E3.37778
G1 X81.079 Y95.396 E3.39447
G1 X80.759 Y95.394 E3.40672
G1 X80.369 Y95.448 E3.42183
G1 X80.175 Y95.504 E3.42960
G1 X79.832 Y95.656 E3.44397
G1 X79.639 Y95.782 E3.45284
G1 X79.221 Y95.567 E3.47085
G1 X78.868 Y95.433 E3.48536
G1 X78.355 Y95.304 E3.50565
G1 X78.028 Y95.268 E3.51827
G1 X76.691 Y95.327 F7800.000
G1 X76.125 Y95.502 E3.54100 F720.000
G1 X75.713 Y95.665 E3.55799
G1 X75.713 Y94.935 E3.58597
G1 X76.613 Y94.880 E3.62054
G1 X76.681 Y95.268 E3.63565
G1 X75.078 Y96.895 F7800.000
G1 X75.078 Y95.121 E3.70368 F720.000
G1 X75.110 Y94.847 E3.71429
G1 X75.195 Y94.638 E3.72294
G1 X75.313 Y94.489 E3.73023
G1 X75.468 Y94.380 E3.73751
G1 X75.679 Y94.308 E3.74604
